P2
# pgmpiet P2 collatz ƒ (translated from Aheui)
248 305
255
112 131 170 177 184 233 33 33 33 33 33 33 33 33 33 33 33 
33 33 33 33 33 33 33 33 33 33 33 33 33 33 33 33 
33 33 33 33 33 33 33 33 33 33 33 33 33 33 33 33 
33 33 33 33 33 33 33 33 33 33 33 33 33 33 33 33 
33 33 33 33 33 33 33 33 33 33 33 33 33 33 33 33 
33 33 33 33 33 33 33 33 33 33 33 33 33 33 33 33 
33 33 33 33 33 33 33 33 33 33 33 33 33 33 33 33 
33 33 33 33 33 33 33 33 33 33 33 33 33 33 33 33 
33 33 33 33 33 33 33 33 33 33 33 33 33 33 33 33 
33 33 33 33 33 33 33 33 33 33 33 33 33 33 33 33 
33 33 33 33 33 33 33 33 33 33 33 33 33 33 33 33 
33 33 33 33 33 33 33 33 33 33 33 33 33 33 33 33 
33 33 33 33 33 33 33 33 33 33 33 33 33 33 33 33 
33 33 33 33 33 33 33 33 33 33 33 33 33 33 33 33 
33 33 33 33 33 33 33 33 33 33 33 33 33 33 33 33 
33 33 33 33 33 33 33 33 33 33 33 33 255 33 33 33 33 33 33 33 33 33 33 33 
33 33 33 33 33 33 33 33 33 33 33 33 33 33 33 33 
33 33 33 33 33 33 33 33 33 33 33 33 33 33 33 33 
33 33 33 33 33 33 33 33 33 33 33 33 33 33 33 33 
33 33 33 33 33 33 33 33 33 33 33 33 33 33 33 33 
33 33 33 33 33 33 33 33 33 33 33 33 33 33 33 33 
33 33 33 33 33 33 33 33 33 33 33 33 33 33 33 33 
33 33 33 33 33 33 33 33 33 33 33 33 33 33 33 33 
33 33 33 33 33 33 33 33 33 33 33 33 33 33 33 33 
33 33 33 33 33 33 33 33 33 33 33 33 33 33 33 33 
33 33 33 33 33 33 33 33 33 33 33 33 33 33 33 33 
33 33 33 33 33 33 33 33 33 33 33 33 33 33 33 33 
33 33 33 33 33 33 33 33 33 33 33 33 33 33 33 33 
33 33 33 33 33 33 33 33 33 33 33 33 33 33 33 33 
33 33 33 33 33 33 33 33 33 33 33 33 33 33 33 33 
33 33 33 33 33 33 33 255 255 255 255 255 255 255 112 212 134 191 198 226 184 219 162 148 
177 131 170 240 247 112 212 134 191 198 226 184 219 162 148 177 
131 170 240 247 112 212 134 191 198 226 184 219 162 148 177 131 
170 240 247 112 212 134 191 198 226 184 219 162 148 177 131 170 
240 247 112 212 134 191 198 226 184 219 162 148 177 131 170 240 
247 112 212 134 191 198 226 184 219 162 148 177 131 170 240 247 
112 212 134 191 198 226 184 219 162 148 177 131 170 240 247 112 
212 134 191 198 226 184 219 162 148 177 131 170 240 247 112 212 
134 191 198 226 184 219 162 148 177 131 170 240 247 112 212 134 
191 198 226 184 219 162 148 177 131 170 240 247 112 212 134 191 
198 226 184 219 162 148 177 131 170 240 247 112 212 134 191 198 
226 184 219 162 148 177 131 170 240 247 112 212 134 191 198 226 
184 219 162 148 177 131 170 240 247 112 212 134 191 198 226 184 
219 162 148 177 131 170 240 247 112 212 134 191 198 226 184 219 
162 148 177 131 170 240 247 112 212 134 191 198 226 184 219 162 
148 177 131 170 240 247 112 255 33 33 33 33 255 33 33 33 33 205 33 33 33 33 155 33 
33 33 33 233 33 33 33 33 205 33 33 33 33 155 33 33 
33 33 233 33 33 33 33 205 33 33 33 33 155 33 33 33 
33 233 33 33 33 33 205 33 33 33 33 155 33 33 33 33 
233 33 33 33 33 205 33 33 33 33 155 33 33 33 33 233 
33 33 33 33 205 33 33 33 33 155 33 33 33 33 233 33 
33 33 33 205 33 33 33 33 155 33 33 33 33 233 33 33 
33 33 205 33 33 33 33 155 33 33 33 33 233 33 33 33 
33 205 33 33 33 33 155 33 33 33 33 233 33 33 33 33 
205 33 33 33 33 155 33 33 33 33 233 33 33 33 33 205 
33 33 33 33 155 33 33 33 33 233 33 33 33 33 205 33 
33 33 33 155 33 33 33 33 233 33 33 33 33 205 33 33 
33 33 155 33 33 33 33 233 33 33 33 33 205 33 33 33 
33 155 33 33 33 33 233 33 33 33 33 205 33 33 33 33 
155 33 33 33 33 233 33 33 33 33 205 33 33 33 33 155 
33 33 33 33 233 33 33 255 33 33 33 33 255 33 33 33 212 255 33 33 33 33 162 33 
33 33 33 240 33 33 33 33 191 33 33 33 33 162 33 33 
33 33 240 33 33 33 33 191 33 33 33 33 162 33 33 33 
33 240 33 33 33 33 191 33 33 33 33 162 33 33 33 33 
240 33 33 33 33 191 33 33 33 33 162 33 33 33 33 240 
33 33 33 33 191 33 33 33 33 162 33 33 33 33 240 33 
33 33 33 191 33 33 33 33 162 33 33 33 33 240 33 33 
33 33 191 33 33 33 33 162 33 33 33 33 240 33 33 33 
33 191 33 33 33 33 162 33 33 33 33 240 33 33 33 33 
198 33 33 33 33 162 33 33 33 33 240 33 33 33 33 191 
33 33 33 33 162 33 33 33 33 247 33 33 33 33 177 33 
33 33 33 240 33 33 33 33 191 33 33 33 33 162 33 33 
33 33 162 33 33 33 33 240 33 33 33 33 191 33 33 33 
33 162 33 33 33 33 240 33 33 33 33 191 33 33 33 33 
162 33 33 33 33 240 33 33 33 33 191 33 33 33 33 162 
33 33 33 33 240 33 33 255 33 33 33 33 255 33 33 33 212 212 33 33 33 33 198 33 
33 33 33 247 33 33 33 33 198 33 33 33 33 247 33 33 
33 33 198 33 33 33 33 198 33 33 33 33 148 33 33 33 
33 247 33 33 33 33 148 33 33 33 33 247 33 33 33 33 
247 33 33 33 33 198 33 33 33 33 148 33 33 33 33 247 
33 33 33 33 148 33 33 33 33 148 33 33 33 33 247 33 
33 33 33 148 33 33 33 33 247 33 33 33 33 247 33 33 
33 33 198 33 33 33 33 247 33 33 33 33 198 33 33 33 
33 198 33 33 33 33 148 33 33 33 33 198 33 33 33 33 
205 33 33 33 33 247 33 33 33 33 198 33 33 33 33 148 
33 33 33 33 247 33 33 33 33 233 33 33 33 33 184 33 
33 33 33 247 33 33 33 33 198 33 33 33 33 148 33 33 
33 33 247 33 33 33 33 198 33 33 33 33 148 33 33 33 
33 247 33 33 33 33 198 33 33 33 33 148 33 33 33 33 
247 33 33 33 33 198 33 33 33 33 148 33 33 33 33 247 
33 33 33 33 198 33 33 255 33 33 33 33 255 33 33 33 33 33 33 33 33 33 205 33 
33 33 33 155 33 33 33 33 233 33 33 33 33 134 33 33 
33 33 219 33 33 33 33 233 33 33 33 33 205 33 33 33 
33 155 33 33 33 33 170 33 33 33 33 134 33 33 33 33 
155 33 33 33 33 233 33 33 33 33 205 33 33 33 33 155 
33 33 33 33 170 33 33 33 33 205 33 33 33 33 155 33 
33 33 33 170 33 33 33 33 134 33 33 33 33 155 33 33 
33 33 233 33 33 33 33 134 33 33 33 33 219 33 33 33 
33 233 33 33 33 33 205 33 33 33 33 219 33 33 33 33 
240 33 33 33 33 134 33 33 33 33 219 33 33 33 33 170 
33 33 33 33 134 33 33 33 33 191 33 33 33 33 134 33 
33 33 33 205 33 33 33 33 155 33 33 33 33 233 33 33 
33 33 134 33 33 33 33 219 33 33 33 33 170 33 33 33 
33 134 33 33 33 33 219 33 33 33 33 170 33 33 33 33 
134 33 33 33 33 219 33 33 33 33 170 33 33 33 33 134 
33 33 33 33 219 33 33 255 33 33 33 33 255 33 33 33 33 33 33 33 33 33 162 33 
33 33 33 162 33 33 33 33 240 33 33 33 33 226 33 33 
33 33 177 33 33 33 33 240 33 33 33 33 191 33 33 33 
33 162 33 33 33 33 177 33 33 33 33 112 33 33 33 33 
162 33 33 33 33 240 33 33 33 33 191 33 33 33 33 162 
33 33 33 33 177 33 33 33 33 191 33 33 33 33 162 33 
33 33 33 177 33 33 33 33 112 33 33 33 33 162 33 33 
33 33 240 33 33 33 33 112 33 33 33 33 226 33 33 33 
33 240 33 33 33 33 191 33 33 33 33 226 33 33 33 33 
247 33 33 33 33 112 33 33 33 33 226 33 33 33 33 177 
33 33 33 33 112 33 33 33 33 212 33 33 33 33 162 33 
33 33 33 226 33 33 33 33 177 33 33 33 33 112 33 33 
33 33 112 33 33 33 33 226 33 33 33 33 177 33 33 33 
33 112 33 33 33 33 226 33 33 33 33 177 33 33 33 33 
112 33 33 33 33 226 33 33 33 33 177 33 33 33 33 112 
33 33 33 33 226 33 33 255 33 33 33 33 255 33 33 192 192 192 192 192 33 33 184 33 
33 33 33 170 33 33 33 33 134 33 33 33 33 247 33 33 
33 33 198 33 33 33 33 134 33 33 33 33 219 33 33 33 
33 170 33 33 33 33 131 33 33 33 33 212 33 33 33 33 
170 33 33 33 33 134 33 33 33 33 219 33 33 33 33 170 
33 33 33 33 131 33 33 33 33 219 33 33 33 33 170 33 
33 33 33 198 33 33 33 33 212 33 33 33 33 170 33 33 
33 33 134 33 33 33 33 212 33 33 33 33 184 33 33 33 
33 134 33 33 33 33 219 33 33 33 33 170 33 33 33 33 
205 33 33 33 33 184 33 33 33 33 131 33 33 33 33 212 
33 33 33 33 184 33 33 33 33 219 33 33 33 33 247 33 
33 33 33 184 33 33 33 33 131 33 33 33 33 212 33 33 
33 33 184 33 33 33 33 131 33 33 33 33 212 33 33 33 
33 184 33 33 33 33 131 33 33 33 33 212 33 33 33 33 
184 33 33 33 33 131 33 33 33 33 212 33 33 33 33 184 
33 33 33 33 131 33 33 255 33 33 33 33 255 33 192 33 33 33 33 33 192 33 170 33 
33 33 33 131 33 33 33 33 212 33 33 33 33 233 33 33 
33 33 155 33 33 33 33 212 33 33 33 33 184 33 33 33 
33 131 33 33 33 33 155 33 33 33 33 233 33 33 33 33 
131 33 33 33 33 212 33 33 33 33 184 33 33 33 33 131 
33 33 33 33 155 33 33 33 33 184 33 33 33 33 131 33 
33 33 33 205 33 33 33 33 233 33 33 33 33 131 33 33 
33 33 212 33 33 33 33 233 33 33 33 33 205 33 33 33 
33 212 33 33 33 33 184 33 33 33 33 184 33 33 33 33 
226 33 33 33 33 170 33 33 33 33 134 33 33 33 33 219 
33 33 33 33 170 33 33 33 33 240 33 33 33 33 134 33 
33 33 33 205 33 33 33 33 155 33 33 33 33 233 33 33 
33 33 170 33 33 33 33 134 33 33 33 33 219 33 33 33 
33 170 33 33 33 33 134 33 33 33 33 219 33 33 33 33 
170 33 33 33 33 134 33 33 33 33 219 33 33 33 33 170 
33 33 33 33 134 33 33 255 33 33 33 33 255 33 192 33 33 33 33 33 192 33 191 33 
33 33 33 219 33 33 33 33 170 33 33 33 33 191 33 33 
33 33 177 33 33 33 33 170 33 33 33 33 134 33 33 33 
33 219 33 33 33 33 162 33 33 33 33 240 33 33 33 33 
219 33 33 33 33 170 33 33 33 33 134 33 33 33 33 219 
33 33 33 33 162 33 33 33 33 134 33 33 33 33 219 33 
33 33 33 162 33 33 33 33 240 33 33 33 33 219 33 33 
33 33 170 33 33 33 33 240 33 33 33 33 191 33 33 33 
33 170 33 33 33 33 134 33 33 33 33 170 33 33 33 33 
212 33 33 33 33 198 33 33 33 33 148 33 33 33 33 247 
33 33 33 33 198 33 33 33 33 198 33 33 33 33 226 33 
33 33 33 162 33 33 33 33 240 33 33 33 33 191 33 33 
33 33 198 33 33 33 33 148 33 33 33 33 247 33 33 33 
33 198 33 33 33 33 148 33 33 33 33 247 33 33 33 33 
198 33 33 33 33 148 33 33 33 33 247 33 33 33 33 198 
33 33 33 33 148 33 33 255 33 33 33 33 255 33 192 33 33 33 33 33 192 33 148 33 
33 33 33 226 33 33 33 33 177 33 33 33 33 212 33 33 
33 33 184 33 33 33 33 177 33 33 33 33 112 33 33 33 
33 226 33 33 33 33 233 33 33 33 33 205 33 33 33 33 
226 33 33 33 33 177 33 33 33 33 112 33 33 33 33 226 
33 33 33 33 233 33 33 33 33 112 33 33 33 33 226 33 
33 33 33 184 33 33 33 33 205 33 33 33 33 226 33 33 
33 33 177 33 33 33 33 205 33 33 33 33 155 33 33 33 
33 177 33 33 33 33 112 33 33 33 33 112 33 33 33 33 
177 33 33 33 33 162 33 33 33 33 240 33 33 33 33 191 
33 33 33 33 162 33 33 33 33 219 33 33 33 33 247 33 
33 33 33 184 33 33 33 33 131 33 33 33 33 212 33 33 
33 33 162 33 33 33 33 240 33 33 33 33 191 33 33 33 
33 162 33 33 33 33 240 33 33 33 33 191 33 33 33 33 
162 33 33 33 33 240 33 33 33 33 191 33 33 33 33 162 
33 33 33 33 240 33 33 255 33 33 33 33 255 33 192 33 33 33 33 33 192 33 170 33 
33 33 33 184 33 33 33 33 131 33 33 33 33 219 33 33 
33 33 134 33 33 33 33 131 33 33 33 33 212 33 33 33 
33 184 33 33 33 33 240 33 33 33 33 191 33 33 33 33 
184 33 33 33 33 131 33 33 33 33 212 33 33 33 33 184 
33 33 33 33 240 33 33 33 33 212 33 33 33 33 184 33 
33 33 33 170 33 33 33 33 191 33 33 33 33 184 33 33 
33 33 131 33 33 33 33 191 33 33 33 33 162 33 33 33 
33 131 33 33 33 33 212 33 33 33 33 148 33 33 33 33 
184 33 33 33 33 148 33 33 33 33 247 33 33 33 33 198 
33 33 33 33 148 33 33 33 33 226 33 33 33 33 255 33 
33 33 33 134 33 33 33 33 219 33 33 33 33 170 33 33 
33 33 148 33 33 33 33 247 33 33 33 33 198 33 33 33 
33 148 33 33 33 33 247 33 33 33 33 198 33 33 33 33 
148 33 33 33 33 247 33 33 33 33 198 33 33 33 33 148 
33 33 33 33 247 33 33 255 33 33 33 33 255 33 33 33 33 33 33 33 33 33 177 33 
33 33 33 205 33 33 33 33 155 33 33 33 33 184 33 33 
33 33 162 33 33 33 33 155 33 33 33 33 233 33 33 33 
33 205 33 33 33 33 247 33 33 33 33 198 33 33 33 33 
205 33 33 33 33 155 33 33 33 33 233 33 33 33 33 205 
33 33 33 33 247 33 33 33 33 233 33 33 33 33 205 33 
33 33 33 131 33 33 33 33 198 33 33 33 33 205 33 33 
33 33 155 33 33 33 33 198 33 33 33 33 148 33 33 33 
33 155 33 33 33 33 233 33 33 33 33 155 33 33 33 33 
170 33 33 33 33 233 33 33 33 33 205 33 33 33 33 155 
33 33 33 33 233 33 33 33 33 247 33 33 33 33 255 33 
33 33 33 162 33 33 33 33 240 33 33 33 33 191 33 33 
33 33 233 33 33 33 33 205 33 33 33 33 155 33 33 33 
33 233 33 33 33 33 205 33 33 33 33 155 33 33 33 33 
233 33 33 33 33 205 33 33 33 33 155 33 33 33 33 233 
33 33 33 33 205 33 33 255 33 33 33 33 255 33 96 96 96 96 96 33 33 33 198 33 
33 33 33 191 33 33 33 33 162 33 33 33 33 170 33 33 
33 33 148 33 33 33 33 162 33 33 33 33 240 33 33 33 
33 191 33 33 33 33 155 33 33 33 33 233 33 33 33 33 
191 33 33 33 33 162 33 33 33 33 240 33 33 33 33 191 
33 33 33 33 155 33 33 33 33 240 33 33 33 33 191 33 
33 33 33 134 33 33 33 33 233 33 33 33 33 191 33 33 
33 33 162 33 33 33 33 233 33 33 33 33 205 33 33 33 
33 162 33 33 33 33 240 33 33 33 33 247 33 33 33 33 
226 33 33 33 33 112 33 33 33 33 226 33 33 33 33 177 
33 33 33 33 112 33 33 33 33 205 33 33 33 33 255 33 
33 33 33 247 33 33 33 33 198 33 33 33 33 148 33 33 
33 33 112 33 33 33 33 226 33 33 33 33 177 33 33 33 
33 112 33 33 33 33 226 33 33 33 33 177 33 33 33 33 
112 33 33 33 33 226 33 33 33 33 177 33 33 33 33 112 
33 33 33 33 226 33 33 255 33 33 33 33 255 33 96 192 192 192 96 33 33 33 155 33 
33 33 33 155 33 33 33 33 233 33 33 33 33 177 33 33 
33 33 240 33 33 33 33 233 33 33 33 33 205 33 33 33 
33 155 33 33 33 33 162 33 33 33 33 240 33 33 33 33 
155 33 33 33 33 233 33 33 33 33 205 33 33 33 33 155 
33 33 33 33 162 33 33 33 33 205 33 33 33 33 155 33 
33 33 33 112 33 33 33 33 240 33 33 33 33 155 33 33 
33 33 233 33 33 33 33 240 33 33 33 33 191 33 33 33 
33 233 33 33 33 33 205 33 33 33 33 233 33 33 33 33 
212 33 33 33 33 131 33 33 33 33 212 33 33 33 33 184 
33 33 33 33 131 33 33 33 33 226 33 33 33 33 255 33 
33 33 33 134 33 33 33 33 219 33 33 33 33 170 33 33 
33 33 131 33 33 33 33 212 33 33 33 33 184 33 33 33 
33 131 33 33 33 33 212 33 33 33 33 184 33 33 33 33 
131 33 33 33 33 212 33 33 33 33 184 33 33 33 33 131 
33 33 33 33 212 33 33 255 33 33 33 33 255 33 96 192 192 192 96 33 33 33 177 33 
33 33 33 162 33 33 33 33 240 33 33 33 33 212 33 33 
33 33 247 33 33 33 33 240 33 33 33 33 191 33 33 33 
33 162 33 33 33 33 170 33 33 33 33 134 33 33 33 33 
162 33 33 33 33 240 33 33 33 33 191 33 33 33 33 162 
33 33 33 33 170 33 33 33 33 191 33 33 33 33 162 33 
33 33 33 184 33 33 33 33 134 33 33 33 33 162 33 33 
33 33 240 33 33 33 33 134 33 33 33 33 219 33 33 33 
33 240 33 33 33 33 191 33 33 33 33 240 33 33 33 33 
240 33 33 33 33 170 33 33 33 33 134 33 33 33 33 219 
33 33 33 33 170 33 33 33 33 184 33 33 33 33 255 33 
33 33 33 226 33 33 33 33 177 33 33 33 33 112 33 33 
33 33 170 33 33 33 33 134 33 33 33 33 219 33 33 33 
33 170 33 33 33 33 134 33 33 33 33 219 33 33 33 33 
170 33 33 33 33 134 33 33 33 33 219 33 33 33 33 170 
33 33 33 33 134 33 33 255 33 33 33 33 255 33 96 96 96 96 96 33 33 33 131 33 
33 33 33 198 33 33 33 33 148 33 33 33 33 219 33 33 
33 33 233 33 33 33 33 177 33 33 33 33 247 33 33 33 
33 198 33 33 33 33 131 33 33 33 33 212 33 33 33 33 
226 33 33 33 33 177 33 33 33 33 247 33 33 33 33 198 
33 33 33 33 131 33 33 33 33 112 33 33 33 33 198 33 
33 33 33 170 33 33 33 33 212 33 33 33 33 226 33 33 
33 33 177 33 33 33 33 212 33 33 33 33 184 33 33 33 
33 177 33 33 33 33 112 33 33 33 33 148 33 33 33 33 
205 33 33 33 33 177 33 33 33 33 112 33 33 33 33 226 
33 33 33 33 177 33 33 33 33 205 33 33 33 33 255 33 
33 33 33 247 33 33 33 33 198 33 33 33 33 148 33 33 
33 33 177 33 33 33 33 112 33 33 33 33 226 33 33 33 
33 177 33 33 33 33 112 33 33 33 33 226 33 33 33 33 
177 33 33 33 33 112 33 33 33 33 226 33 33 33 33 177 
33 33 33 33 112 33 33 255 33 33 33 33 255 33 33 33 33 33 33 33 33 33 155 33 
33 33 33 131 33 33 33 33 212 33 33 33 33 247 33 33 
33 33 162 33 33 33 33 184 33 33 33 33 184 33 33 33 
33 131 33 33 33 33 134 33 33 33 33 219 33 33 33 33 
212 33 33 33 33 184 33 33 33 33 184 33 33 33 33 131 
33 33 33 33 134 33 33 33 33 131 33 33 33 33 131 33 
33 33 33 198 33 33 33 33 219 33 33 33 33 212 33 33 
33 33 184 33 33 33 33 219 33 33 33 33 170 33 33 33 
33 184 33 33 33 33 131 33 33 33 33 155 33 33 33 33 
191 33 33 33 33 205 33 33 33 33 155 33 33 33 33 233 
33 33 33 33 205 33 33 33 33 191 33 33 33 33 255 33 
33 33 33 162 33 33 33 33 155 33 33 33 33 233 33 33 
33 33 205 33 33 33 33 155 33 33 33 33 233 33 33 33 
33 205 33 33 33 33 155 33 33 33 33 233 33 33 33 33 
205 33 33 33 33 155 33 33 33 33 233 33 33 33 33 205 
33 33 33 33 155 33 33 255 33 33 33 33 255 33 48 48 48 48 48 48 48 33 162 33 
33 33 33 134 33 33 33 33 219 33 33 33 33 191 33 33 
33 33 148 33 33 33 33 134 33 33 33 33 170 33 33 33 
33 134 33 33 33 33 162 33 33 33 33 240 33 33 33 33 
170 33 33 33 33 134 33 33 33 33 170 33 33 33 33 134 
33 33 33 33 162 33 33 33 33 219 33 33 33 33 134 33 
33 33 33 162 33 33 33 33 240 33 33 33 33 170 33 33 
33 33 134 33 33 33 33 240 33 33 33 33 191 33 33 33 
33 134 33 33 33 33 219 33 33 33 33 184 33 33 33 33 
212 33 33 33 33 148 33 33 33 33 247 33 33 33 33 198 
33 33 33 33 148 33 33 33 33 212 33 33 33 33 255 33 
33 33 33 148 33 33 33 33 177 33 33 33 33 112 33 33 
33 33 148 33 33 33 33 247 33 33 33 33 198 33 33 33 
33 148 33 33 33 33 247 33 33 33 33 198 33 33 33 33 
148 33 33 33 33 247 33 33 33 33 198 33 33 33 33 148 
33 33 33 33 247 33 33 255 33 33 33 33 255 33 33 33 33 33 33 33 33 33 184 33 
33 33 33 226 33 33 33 33 177 33 33 33 33 198 33 33 
33 33 177 33 33 33 33 162 33 33 33 33 112 33 33 33 
33 226 33 33 33 33 148 33 33 33 33 247 33 33 33 33 
191 33 33 33 33 162 33 33 33 33 112 33 33 33 33 226 
33 33 33 33 148 33 33 33 33 240 33 33 33 33 226 33 
33 33 33 148 33 33 33 33 247 33 33 33 33 191 33 33 
33 33 162 33 33 33 33 247 33 33 33 33 198 33 33 33 
33 162 33 33 33 33 240 33 33 33 33 112 33 33 33 33 
219 33 33 33 33 155 33 33 33 33 233 33 33 33 33 205 
33 33 33 33 155 33 33 33 33 170 33 33 33 33 255 33 
33 33 33 233 33 33 33 33 131 33 33 33 33 212 33 33 
33 33 155 33 33 33 33 233 33 33 33 33 205 33 33 33 
33 155 33 33 33 33 233 33 33 33 33 205 33 33 33 33 
155 33 33 33 33 233 33 33 33 33 205 33 33 33 33 155 
33 33 33 33 233 33 33 255 33 33 33 33 255 33 24 24 24 24 24 24 24 33 134 33 
33 33 33 247 33 33 33 33 198 33 33 33 33 219 33 33 
33 33 134 33 33 33 33 148 33 33 33 33 148 33 33 33 
33 247 33 33 33 33 155 33 33 33 33 233 33 33 33 33 
198 33 33 33 33 148 33 33 33 33 148 33 33 33 33 247 
33 33 33 33 155 33 33 33 33 247 33 33 33 33 247 33 
33 33 33 170 33 33 33 33 233 33 33 33 33 198 33 33 
33 33 148 33 33 33 33 233 33 33 33 33 205 33 33 33 
33 247 33 33 33 33 198 33 33 33 33 131 33 33 33 33 
226 33 33 33 33 184 33 33 33 33 131 33 33 33 33 212 
33 33 33 33 184 33 33 33 33 191 33 33 33 33 255 33 
33 33 33 112 33 33 33 33 155 33 33 33 33 233 33 33 
33 33 184 33 33 33 33 131 33 33 33 33 212 33 33 33 
33 184 33 33 33 33 131 33 33 33 33 212 33 33 33 33 
184 33 33 33 33 131 33 33 33 33 212 33 33 33 33 184 
33 33 33 33 131 33 33 255 33 33 33 33 255 33 33 33 33 33 33 33 33 33 162 33 
33 33 33 233 33 33 33 33 205 33 33 33 33 226 33 33 
33 33 112 33 33 33 33 170 33 33 33 33 155 33 33 33 
33 233 33 33 33 33 247 33 33 33 33 198 33 33 33 33 
219 33 33 33 33 170 33 33 33 33 233 33 33 33 33 233 
33 33 33 33 247 33 33 33 33 134 33 33 33 33 233 33 
33 33 33 177 33 33 33 33 198 33 33 33 33 219 33 33 
33 33 170 33 33 33 33 198 33 33 33 33 148 33 33 33 
33 134 33 33 33 33 219 33 33 33 33 155 33 33 33 33 
170 33 33 33 33 170 33 33 33 33 134 33 33 33 33 219 
33 33 33 33 170 33 33 33 33 198 33 33 33 33 255 33 
33 33 33 131 33 33 33 33 240 33 33 33 33 191 33 33 
33 33 170 33 33 33 33 134 33 33 33 33 219 33 33 33 
33 170 33 33 33 33 134 33 33 33 33 219 33 33 33 33 
170 33 33 33 33 134 33 33 33 33 219 33 33 33 33 170 
33 33 33 33 134 33 33 255 33 33 33 33 255 33 12 12 12 33 12 33 33 33 247 33 
33 33 33 112 33 33 33 33 226 33 33 33 33 212 33 33 
33 33 148 33 33 33 33 112 33 33 33 33 177 33 33 33 
33 112 33 33 33 33 233 33 33 33 33 205 33 33 33 33 
177 33 33 33 33 112 33 33 33 33 112 33 33 33 33 112 
33 33 33 33 233 33 33 33 33 226 33 33 33 33 112 33 
33 33 33 184 33 33 33 33 205 33 33 33 33 177 33 33 
33 33 112 33 33 33 33 205 33 33 33 33 155 33 33 33 
33 112 33 33 33 33 226 33 33 33 33 162 33 33 33 33 
177 33 33 33 33 112 33 33 33 33 226 33 33 33 33 177 
33 33 33 33 112 33 33 33 33 219 33 33 33 33 255 33 
33 33 33 155 33 33 33 33 131 33 33 33 33 212 33 33 
33 33 112 33 33 33 33 226 33 33 33 33 177 33 33 33 
33 112 33 33 33 33 226 33 33 33 33 177 33 33 33 33 
112 33 33 33 33 226 33 33 33 33 177 33 33 33 33 112 
33 33 33 33 226 33 33 255 33 33 33 33 255 33 12 33 12 33 12 33 33 33 134 33 
33 33 33 212 33 33 33 33 184 33 33 33 33 177 33 33 
33 33 155 33 33 33 33 148 33 33 33 33 131 33 33 33 
33 212 33 33 33 33 191 33 33 33 33 162 33 33 33 33 
198 33 33 33 33 148 33 33 33 33 131 33 33 33 33 212 
33 33 33 33 191 33 33 33 33 247 33 33 33 33 212 33 
33 33 33 112 33 33 33 33 162 33 33 33 33 198 33 33 
33 33 148 33 33 33 33 162 33 33 33 33 240 33 33 33 
33 148 33 33 33 33 247 33 33 33 33 148 33 33 33 33 
131 33 33 33 33 148 33 33 33 33 247 33 33 33 33 198 
33 33 33 33 148 33 33 33 33 177 33 33 33 33 255 33 
33 33 33 240 33 33 33 33 219 33 33 33 33 170 33 33 
33 33 148 33 33 33 33 247 33 33 33 33 198 33 33 33 
33 148 33 33 33 33 247 33 33 33 33 198 33 33 33 33 
148 33 33 33 33 247 33 33 33 33 198 33 33 33 33 148 
33 33 33 33 247 33 33 255 33 33 33 33 255 33 12 33 12 33 12 33 33 33 112 33 
33 33 33 233 33 33 33 33 205 33 33 33 33 184 33 33 
33 33 162 33 33 33 33 233 33 33 33 33 155 33 33 33 
33 233 33 33 33 33 212 33 33 33 33 184 33 33 33 33 
205 33 33 33 33 155 33 33 33 33 155 33 33 33 33 233 
33 33 33 33 212 33 33 33 33 205 33 33 33 33 233 33 
33 33 33 131 33 33 33 33 184 33 33 33 33 155 33 33 
33 33 233 33 33 33 33 184 33 33 33 33 131 33 33 33 
33 233 33 33 33 33 205 33 33 33 33 240 33 33 33 33 
155 33 33 33 33 155 33 33 33 33 233 33 33 33 33 205 
33 33 33 33 155 33 33 33 33 198 33 33 33 33 255 33 
33 33 33 131 33 33 33 33 240 33 33 33 33 191 33 33 
33 33 155 33 33 33 33 233 33 33 33 33 205 33 33 33 
33 155 33 33 33 33 233 33 33 33 33 205 33 33 33 33 
155 33 33 33 33 233 33 33 33 33 205 33 33 33 33 155 
33 33 33 33 233 33 33 255 33 33 33 33 255 33 12 12 12 12 12 33 33 33 148 33 
33 33 33 191 33 33 33 33 162 33 33 33 33 134 33 33 
33 33 233 33 33 33 33 112 33 33 33 33 240 33 33 33 
33 240 33 33 33 33 170 33 33 33 33 134 33 33 33 33 
226 33 33 33 33 177 33 33 33 33 240 33 33 33 33 191 
33 33 33 33 170 33 33 33 33 226 33 33 33 33 191 33 
33 33 33 219 33 33 33 33 134 33 33 33 33 177 33 33 
33 33 112 33 33 33 33 134 33 33 33 33 134 33 33 33 
33 112 33 33 33 33 226 33 33 33 33 247 33 33 33 33 
255 33 33 33 33 247 33 33 33 33 198 33 33 33 33 148 
33 33 33 33 247 33 33 33 33 205 33 33 33 33 255 33 
33 33 33 219 33 33 33 33 198 33 33 33 33 148 33 33 
33 33 247 33 33 33 33 198 33 33 33 33 148 33 33 33 
33 247 33 33 33 33 198 33 33 33 33 148 33 33 33 33 
247 33 33 33 33 198 33 33 33 33 148 33 33 33 33 247 
33 33 33 33 198 33 33 255 33 33 33 33 255 33 33 33 33 33 33 33 33 33 233 33 
33 33 33 212 33 33 33 33 184 33 33 33 33 162 33 33 
33 33 240 33 33 33 33 212 33 33 33 33 131 33 33 33 
33 131 33 33 33 33 191 33 33 33 33 162 33 33 33 33 
184 33 33 33 33 131 33 33 33 33 131 33 33 33 33 212 
33 33 33 33 191 33 33 33 33 212 33 33 33 33 212 33 
33 33 33 240 33 33 33 33 162 33 33 33 33 184 33 33 
33 33 131 33 33 33 33 162 33 33 33 33 162 33 33 33 
33 131 33 33 33 33 212 33 33 33 33 205 33 33 33 33 
255 33 33 33 33 205 33 33 33 33 184 33 33 33 33 155 
33 33 33 33 205 33 33 33 33 226 33 33 33 33 255 33 
33 33 33 240 33 33 33 33 219 33 33 33 33 170 33 33 
33 33 205 33 33 33 33 205 33 33 33 33 155 33 33 33 
33 155 33 33 33 33 155 33 33 33 33 155 33 33 33 33 
155 33 33 33 33 205 33 33 33 33 155 33 33 33 33 233 
33 33 33 33 205 33 33 255 33 33 33 33 255 33 33 33 33 33 33 6 33 33 112 33 
33 33 33 219 33 33 33 33 170 33 33 33 33 247 33 33 
33 33 198 33 33 33 33 233 33 33 33 33 219 33 33 33 
33 219 33 33 33 33 198 33 33 33 33 148 33 33 33 33 
205 33 33 33 33 155 33 33 33 33 219 33 33 33 33 219 
33 33 33 33 148 33 33 33 33 233 33 33 33 33 170 33 
33 33 33 198 33 33 33 33 148 33 33 33 33 205 33 33 
33 33 155 33 33 33 33 148 33 33 33 33 247 33 33 33 
33 155 33 33 33 33 233 33 33 33 33 226 33 33 33 33 
255 33 33 33 33 191 33 33 33 33 170 33 33 33 33 240 
33 33 33 33 191 33 33 33 33 184 33 33 33 33 255 33 
33 33 33 198 33 33 33 33 177 33 33 33 33 112 33 33 
33 33 191 33 33 33 33 162 33 33 33 33 240 33 33 33 
33 162 33 33 33 33 162 33 33 33 33 240 33 33 33 33 
162 33 33 33 33 162 33 33 33 33 240 33 33 33 33 191 
33 33 33 33 162 33 33 255 33 33 33 33 255 33 33 33 6 6 6 6 6 33 131 33 
33 33 33 240 33 33 33 33 191 33 33 33 33 134 33 33 
33 33 219 33 33 33 33 240 33 33 33 33 240 33 33 33 
33 240 33 33 33 33 219 33 33 33 33 170 33 33 33 33 
162 33 33 33 33 240 33 33 33 33 240 33 33 33 33 240 
33 33 33 33 170 33 33 33 33 191 33 33 33 33 191 33 
33 33 33 219 33 33 33 33 170 33 33 33 33 162 33 33 
33 33 240 33 33 33 33 170 33 33 33 33 134 33 33 33 
33 240 33 33 33 33 191 33 33 33 33 255 33 33 33 33 
255 33 33 33 33 148 33 33 33 33 112 33 33 33 33 131 
33 33 33 33 247 33 33 33 33 205 33 33 33 33 255 33 
33 33 33 219 33 33 33 33 198 33 33 33 33 148 33 33 
33 33 148 33 33 33 33 184 33 33 33 33 131 33 33 33 
33 198 33 33 33 33 247 33 33 33 33 131 33 33 33 33 
177 33 33 33 33 184 33 33 33 33 131 33 33 33 33 212 
33 33 33 33 184 33 33 255 33 33 33 33 255 33 33 33 33 33 33 6 33 33 155 33 
33 33 33 198 33 33 33 33 148 33 33 33 33 112 33 33 
33 33 226 33 33 33 33 131 33 33 33 33 247 33 33 33 
33 247 33 33 33 33 177 33 33 33 33 112 33 33 33 33 
184 33 33 33 33 131 33 33 33 33 198 33 33 33 33 198 
33 33 33 33 112 33 33 33 33 212 33 33 33 33 226 33 
33 33 33 226 33 33 33 33 112 33 33 33 33 184 33 33 
33 33 131 33 33 33 33 112 33 33 33 33 226 33 33 33 
33 131 33 33 33 33 212 33 33 33 33 255 33 33 33 33 
255 33 33 33 33 170 33 33 33 33 148 33 33 33 33 134 
33 33 33 33 184 33 33 33 33 191 33 33 33 33 255 33 
33 33 33 177 33 33 33 33 240 33 33 33 33 233 33 33 
33 33 170 33 33 33 33 170 33 33 33 33 134 33 33 33 
33 205 33 33 33 33 134 33 33 33 33 134 33 33 33 33 
184 33 33 33 33 170 33 33 33 33 134 33 33 33 33 219 
33 33 33 33 170 33 33 255 33 33 33 33 255 33 33 33 33 33 33 33 33 33 240 33 
33 33 33 219 33 33 33 33 170 33 33 33 33 148 33 33 
33 33 247 33 33 33 33 148 33 33 33 33 134 33 33 33 
33 134 33 33 33 33 198 33 33 33 33 148 33 33 33 33 
198 33 33 33 33 148 33 33 33 33 219 33 33 33 33 219 
33 33 33 33 148 33 33 33 33 219 33 33 33 33 212 33 
33 33 33 247 33 33 33 33 148 33 33 33 33 198 33 33 
33 33 148 33 33 33 33 148 33 33 33 33 247 33 33 33 
33 134 33 33 33 33 219 33 33 33 33 255 33 33 33 33 
255 33 33 33 33 177 33 33 33 33 233 33 33 33 33 162 
33 33 33 33 170 33 33 33 33 212 33 33 33 33 255 33 
33 33 33 198 33 33 33 33 247 33 33 33 33 112 33 33 
33 33 177 33 33 33 33 191 33 33 33 33 162 33 33 33 
33 162 33 33 33 33 112 33 33 33 33 162 33 33 33 33 
134 33 33 33 33 191 33 33 33 33 162 33 33 33 33 240 
33 33 33 33 191 33 33 255 33 33 33 33 255 33 10 10 33 33 10 33 33 33 131 33 
33 33 33 226 33 33 33 33 177 33 33 33 33 255 33 33 
33 33 205 33 33 33 33 155 33 33 33 33 155 33 33 33 
33 226 33 33 33 33 255 33 33 33 33 155 33 33 33 33 
205 33 33 33 33 155 33 33 33 33 233 33 33 33 33 226 
33 33 33 33 255 33 33 33 33 240 33 33 33 33 170 33 
33 33 33 205 33 33 33 33 233 33 33 33 33 205 33 33 
33 33 155 33 33 33 33 155 33 33 33 33 205 33 33 33 
33 162 33 33 33 33 240 33 33 33 33 255 33 33 33 33 
255 33 33 33 33 198 33 33 33 33 112 33 33 33 33 148 
33 33 33 33 112 33 33 33 33 205 33 33 33 33 255 33 
33 33 33 155 33 33 33 33 205 33 33 33 33 212 33 33 
33 33 198 33 33 33 33 198 33 33 33 33 148 33 33 33 
33 184 33 33 33 33 148 33 33 33 33 148 33 33 33 33 
162 33 33 33 33 198 33 33 33 33 148 33 33 33 33 247 
33 33 33 33 198 33 33 255 33 33 33 33 255 33 10 10 10 33 10 33 33 33 219 33 
33 33 33 247 33 33 33 33 198 33 33 33 33 255 33 33 
33 33 226 33 33 33 33 240 33 33 33 33 162 33 33 33 
33 247 33 33 33 33 255 33 33 33 33 177 33 33 33 33 
162 33 33 33 33 240 33 33 33 33 240 33 33 33 33 247 
33 33 33 33 255 33 33 33 33 112 33 33 33 33 191 33 
33 33 33 226 33 33 33 33 112 33 33 33 33 162 33 33 
33 33 240 33 33 33 33 177 33 33 33 33 226 33 33 33 
33 177 33 33 33 33 112 33 33 33 33 255 33 33 33 33 
255 33 33 33 33 205 33 33 33 33 255 33 33 33 33 205 
33 33 33 33 148 33 33 33 33 191 33 33 33 33 255 33 
33 33 33 177 33 33 33 33 226 33 33 33 33 233 33 33 
33 33 205 33 33 33 33 233 33 33 33 33 205 33 33 33 
33 170 33 33 33 33 155 33 33 33 33 205 33 33 33 33 
247 33 33 33 33 233 33 33 33 33 205 33 33 33 33 155 
33 33 33 33 233 33 33 255 33 33 33 33 255 33 10 33 10 10 10 33 33 33 240 33 
33 33 33 131 33 33 33 33 212 33 33 33 33 255 33 33 
33 33 255 33 33 33 33 131 33 33 33 33 247 33 33 33 
33 131 33 33 33 33 255 33 33 33 33 255 33 33 33 33 
184 33 33 33 33 131 33 33 33 33 148 33 33 33 33 131 
33 33 33 33 255 33 33 33 33 131 33 33 33 33 148 33 
33 33 33 184 33 33 33 33 131 33 33 33 33 184 33 33 
33 33 131 33 33 33 33 131 33 33 33 33 255 33 33 33 
33 184 33 33 33 33 131 33 33 33 33 255 33 33 33 33 
255 33 33 33 33 148 33 33 33 33 255 33 33 33 33 191 
33 33 33 33 155 33 33 33 33 148 33 33 33 33 255 33 
33 33 33 131 33 33 33 33 212 33 33 33 33 191 33 33 
33 33 148 33 33 33 33 240 33 33 33 33 191 33 33 33 
33 191 33 33 33 33 247 33 33 33 33 191 33 33 33 33 
134 33 33 33 33 240 33 33 33 33 191 33 33 33 33 162 
33 33 33 33 240 33 33 255 33 33 33 33 255 33 10 33 33 10 10 33 33 33 247 33 
33 33 33 134 33 33 33 33 219 33 33 33 33 255 33 33 
33 33 255 33 33 33 33 219 33 33 33 33 134 33 33 33 
33 134 33 33 33 33 255 33 33 33 33 255 33 33 33 33 
134 33 33 33 33 219 33 33 33 33 170 33 33 33 33 134 
33 33 33 33 255 33 33 33 33 219 33 33 33 33 170 33 
33 33 33 205 33 33 33 33 155 33 33 33 33 134 33 33 
33 33 219 33 33 33 33 155 33 33 33 33 255 33 33 33 
33 134 33 33 33 33 219 33 33 33 33 255 33 33 33 33 
255 33 33 33 33 155 33 33 33 33 255 33 33 33 33 219 
33 33 33 33 247 33 33 33 33 170 33 33 33 33 255 33 
33 33 33 155 33 33 33 33 233 33 33 33 33 212 33 33 
33 33 155 33 33 33 33 134 33 33 33 33 219 33 33 33 
33 148 33 33 33 33 233 33 33 33 33 219 33 33 33 33 
226 33 33 33 33 134 33 33 33 33 219 33 33 33 33 170 
33 33 33 33 134 33 33 255 33 33 33 33 255 33 33 33 33 33 33 33 33 33 134 33 
33 33 33 162 33 33 33 33 177 33 33 33 33 255 33 33 
33 33 255 33 33 33 33 240 33 33 33 33 112 33 33 33 
33 226 33 33 33 33 255 33 33 33 33 255 33 33 33 33 
162 33 33 33 33 240 33 33 33 33 255 33 33 33 33 226 
33 33 33 33 255 33 33 33 33 240 33 33 33 33 112 33 
33 33 33 255 33 33 33 33 255 33 33 33 33 162 33 33 
33 33 240 33 33 33 33 162 33 33 33 33 255 33 33 33 
33 162 33 33 33 33 240 33 33 33 33 255 33 33 33 33 
255 33 33 33 33 240 33 33 33 33 255 33 33 33 33 184 
33 33 33 33 205 33 33 33 33 112 33 33 33 33 255 33 
33 33 33 177 33 33 33 33 191 33 33 33 33 170 33 33 
33 33 240 33 33 33 33 212 33 33 33 33 184 33 33 33 
33 170 33 33 33 33 191 33 33 33 33 184 33 33 33 33 
247 33 33 33 33 212 33 33 33 33 184 33 33 33 33 131 
33 33 33 33 212 33 33 255 33 33 33 33 255 33 33 33 33 33 33 33 33 33 226 33 
33 33 33 255 33 33 33 33 198 33 33 33 33 255 33 33 
33 33 255 33 33 33 33 247 33 33 33 33 148 33 33 33 
33 247 33 33 33 33 255 33 33 33 33 255 33 33 33 33 
148 33 33 33 33 247 33 33 33 33 255 33 33 33 33 247 
33 33 33 33 255 33 33 33 33 247 33 33 33 33 148 33 
33 33 33 255 33 33 33 33 255 33 33 33 33 247 33 33 
33 33 198 33 33 33 33 184 33 33 33 33 255 33 33 33 
33 247 33 33 33 33 247 33 33 33 33 255 33 33 33 33 
255 33 33 33 33 131 33 33 33 33 255 33 33 33 33 170 
33 33 33 33 191 33 33 33 33 148 33 33 33 33 255 33 
33 33 33 148 33 33 33 33 212 33 33 33 33 191 33 33 
33 33 131 33 33 33 33 219 33 33 33 33 170 33 33 33 
33 177 33 33 33 33 212 33 33 33 33 170 33 33 33 33 
233 33 33 33 33 219 33 33 33 33 170 33 33 33 33 134 
33 33 33 33 219 33 33 255 33 33 33 33 255 33 33 33 33 33 33 33 33 33 247 33 
33 33 33 255 33 33 33 33 219 33 33 33 33 255 33 33 
33 33 255 33 33 33 33 134 33 33 33 33 233 33 33 33 
33 233 33 33 33 33 255 33 33 33 33 255 33 33 33 33 
170 33 33 33 33 134 33 33 33 33 255 33 33 33 33 233 
33 33 33 33 255 33 33 33 33 134 33 33 33 33 155 33 
33 33 33 255 33 33 33 33 255 33 33 33 33 134 33 33 
33 33 219 33 33 33 33 255 33 33 33 33 255 33 33 33 
33 134 33 33 33 33 134 33 33 33 33 255 33 33 33 33 
255 33 33 33 33 134 33 33 33 33 255 33 33 33 33 112 
33 33 33 33 148 33 33 33 33 155 33 33 33 33 255 33 
33 33 33 233 33 33 33 33 219 33 33 33 33 148 33 33 
33 33 134 33 33 33 33 177 33 33 33 33 112 33 33 33 
33 198 33 33 33 33 219 33 33 33 33 112 33 33 33 33 
112 33 33 33 33 177 33 33 33 33 112 33 33 33 33 226 
33 33 33 33 177 33 33 255 33 33 33 33 255 33 33 33 33 33 33 33 33 33 233 33 
33 33 33 255 33 33 33 33 255 33 33 33 33 255 33 33 
33 33 255 33 33 33 33 162 33 33 33 33 112 33 33 33 
33 112 33 33 33 33 255 33 33 33 33 255 33 33 33 33 
112 33 33 33 33 226 33 33 33 33 255 33 33 33 33 112 
33 33 33 33 255 33 33 33 33 226 33 33 33 33 177 33 
33 33 33 255 33 33 33 33 255 33 33 33 33 112 33 33 
33 33 226 33 33 33 33 255 33 33 33 33 255 33 33 33 
33 112 33 33 33 33 226 33 33 33 33 255 33 33 33 33 
255 33 33 33 33 177 33 33 33 33 255 33 33 33 33 148 
33 33 33 33 170 33 33 33 33 177 33 33 33 33 255 33 
33 33 33 240 33 33 33 33 240 33 33 33 33 170 33 33 
33 33 177 33 33 33 33 198 33 33 33 33 148 33 33 33 
33 155 33 33 33 33 112 33 33 33 33 148 33 33 33 33 
212 33 33 33 33 198 33 33 33 33 148 33 33 33 33 247 
33 33 33 33 198 33 33 255 33 33 33 33 255 33 5 33 33 5 33 33 33 33 112 33 
33 33 33 255 33 33 33 33 255 33 33 33 33 255 33 33 
33 33 255 33 33 33 33 255 33 33 33 33 148 33 33 33 
33 212 33 33 33 33 255 33 33 33 33 255 33 33 33 33 
148 33 33 33 33 247 33 33 33 33 255 33 33 33 33 212 
33 33 33 33 255 33 33 33 33 247 33 33 33 33 131 33 
33 33 33 255 33 33 33 33 255 33 33 33 33 148 33 33 
33 33 247 33 33 33 33 255 33 33 33 33 255 33 33 33 
33 148 33 33 33 33 247 33 33 33 33 255 33 33 33 33 
255 33 33 33 33 184 33 33 33 33 255 33 33 33 33 155 
33 33 33 33 112 33 33 33 33 131 33 33 33 33 255 33 
33 33 33 198 33 33 33 33 198 33 33 33 33 112 33 33 
33 33 184 33 33 33 33 205 33 33 33 33 155 33 33 33 
33 177 33 33 33 33 131 33 33 33 33 155 33 33 33 33 
233 33 33 33 33 205 33 33 33 33 155 33 33 33 33 233 
33 33 33 33 205 33 33 255 33 33 33 33 255 33 33 5 5 5 5 5 33 33 212 33 
33 33 33 255 33 33 33 33 255 33 33 33 33 255 33 33 
33 33 255 33 33 33 33 255 33 33 33 33 255 33 33 33 
33 233 33 33 33 33 255 33 33 33 33 255 33 33 33 33 
170 33 33 33 33 233 33 33 33 33 255 33 33 33 33 233 
33 33 33 33 255 33 33 33 33 233 33 33 33 33 155 33 
33 33 33 255 33 33 33 33 255 33 33 33 33 233 33 33 
33 33 205 33 33 33 33 255 33 33 33 33 255 33 33 33 
33 233 33 33 33 33 205 33 33 33 33 255 33 33 33 33 
255 33 33 33 33 191 33 33 33 33 255 33 33 33 33 177 
33 33 33 33 148 33 33 33 33 155 33 33 33 33 255 33 
33 33 33 219 33 33 33 33 219 33 33 33 33 148 33 33 
33 33 191 33 33 33 33 226 33 33 33 33 177 33 33 33 
33 205 33 33 33 33 162 33 33 33 33 177 33 33 33 33 
112 33 33 33 33 226 33 33 33 33 177 33 33 33 33 112 
33 33 33 33 226 33 33 255 33 33 33 33 255 33 33 33 33 5 33 33 5 33 233 33 
33 33 33 255 33 33 33 33 255 33 33 33 33 255 33 33 
33 33 255 33 33 33 33 255 33 33 33 33 255 33 33 33 
33 240 33 33 33 33 255 33 33 33 33 255 33 33 33 33 
255 33 33 33 33 112 33 33 33 33 255 33 33 33 33 240 
33 33 33 33 255 33 33 33 33 112 33 33 33 33 162 33 
33 33 33 255 33 33 33 33 255 33 33 33 33 112 33 33 
33 33 226 33 33 33 33 255 33 33 33 33 255 33 33 33 
33 112 33 33 33 33 226 33 33 33 33 255 33 33 33 33 
255 33 33 33 33 155 33 33 33 33 255 33 33 33 33 184 
33 33 33 33 233 33 33 33 33 162 33 33 33 33 255 33 
33 33 33 177 33 33 33 33 177 33 33 33 33 191 33 33 
33 33 155 33 33 33 33 212 33 33 33 33 184 33 33 33 
33 219 33 33 33 33 233 33 33 33 33 184 33 33 33 33 
255 33 33 33 33 212 33 33 33 33 184 33 33 33 33 131 
33 33 33 33 212 33 33 255 33 33 33 33 255 33 33 33 33 33 33 33 5 33 240 33 
33 33 33 255 33 33 33 33 255 33 33 33 33 255 33 33 
33 33 255 33 33 33 33 255 33 33 33 33 255 33 33 33 
33 131 33 33 33 33 255 33 33 33 33 255 33 33 33 33 
255 33 33 33 33 148 33 33 33 33 255 33 33 33 33 131 
33 33 33 33 255 33 33 33 33 212 33 33 33 33 184 33 
33 33 33 255 33 33 33 33 255 33 33 33 33 148 33 33 
33 33 212 33 33 33 33 255 33 33 33 33 255 33 33 33 
33 131 33 33 33 33 184 33 33 33 33 255 33 33 33 33 
255 33 33 33 33 162 33 33 33 33 255 33 33 33 33 219 
33 33 33 33 112 33 33 33 33 184 33 33 33 33 255 33 
33 33 33 198 33 33 33 33 198 33 33 33 33 198 33 33 
33 33 162 33 33 33 33 134 33 33 33 33 219 33 33 33 
33 226 33 33 33 33 240 33 33 33 33 219 33 33 33 33 
255 33 33 33 33 134 33 33 33 33 219 33 33 33 33 170 
33 33 33 33 134 33 33 255 33 33 33 33 255 33 33 33 33 33 33 5 33 33 131 33 
33 33 33 255 33 33 33 33 255 33 33 33 33 255 33 33 
33 33 255 33 33 33 33 255 33 33 33 33 255 33 33 33 
33 155 33 33 33 33 255 33 33 33 33 255 33 33 33 33 
255 33 33 33 33 255 33 33 33 33 255 33 33 33 33 219 
33 33 33 33 255 33 33 33 33 233 33 33 33 33 205 33 
33 33 33 255 33 33 33 33 255 33 33 33 33 255 33 33 
33 33 233 33 33 33 33 255 33 33 33 33 255 33 33 33 
33 155 33 33 33 33 205 33 33 33 33 255 33 33 33 33 
255 33 33 33 33 184 33 33 33 33 255 33 33 33 33 226 
33 33 33 33 212 33 33 33 33 134 33 33 33 33 255 33 
33 33 33 155 33 33 33 33 155 33 33 33 33 155 33 33 
33 33 184 33 33 33 33 112 33 33 33 33 226 33 33 33 
33 184 33 33 33 33 131 33 33 33 33 226 33 33 33 33 
255 33 33 33 33 112 33 33 33 33 226 33 33 33 33 177 
33 33 33 33 112 33 33 255 33 33 33 33 255 33 16 33 33 33 33 33 33 33 219 33 
33 33 33 255 33 33 33 33 255 33 33 33 33 255 33 33 
33 33 255 33 33 33 33 255 33 33 33 33 255 33 33 33 
33 255 33 33 33 33 255 33 33 33 33 255 33 33 33 33 
255 33 33 33 33 255 33 33 33 33 255 33 33 33 33 240 
33 33 33 33 255 33 33 33 33 240 33 33 33 33 255 33 
33 33 33 255 33 33 33 33 255 33 33 33 33 255 33 33 
33 33 112 33 33 33 33 255 33 33 33 33 255 33 33 33 
33 240 33 33 33 33 226 33 33 33 33 255 33 33 33 33 
255 33 33 33 33 170 33 33 33 33 255 33 33 33 33 233 
33 33 33 33 233 33 33 33 33 162 33 33 33 33 255 33 
33 33 33 177 33 33 33 33 177 33 33 33 33 177 33 33 
33 33 170 33 33 33 33 155 33 33 33 33 233 33 33 33 
33 205 33 33 33 33 134 33 33 33 33 233 33 33 33 33 
255 33 33 33 33 155 33 33 33 33 233 33 33 33 33 205 
33 33 33 33 155 33 33 255 33 33 33 33 255 33 33 33 33 33 33 33 33 33 240 33 
33 33 33 255 33 33 33 33 255 33 33 33 33 255 33 33 
33 33 255 33 33 33 33 255 33 33 33 33 255 33 33 33 
33 255 33 33 33 33 255 33 33 33 33 255 33 33 33 33 
255 33 33 33 33 255 33 33 33 33 255 33 33 33 33 131 
33 33 33 33 255 33 33 33 33 131 33 33 33 33 255 33 
33 33 33 255 33 33 33 33 255 33 33 33 33 255 33 33 
33 33 255 33 33 33 33 255 33 33 33 33 255 33 33 33 
33 131 33 33 33 33 255 33 33 33 33 255 33 33 33 33 
255 33 33 33 33 112 33 33 33 33 255 33 33 33 33 198 
33 33 33 33 240 33 33 33 33 148 33 33 33 33 255 33 
33 33 33 131 33 33 33 33 131 33 33 33 33 184 33 33 
33 33 112 33 33 33 33 247 33 33 33 33 198 33 33 33 
33 191 33 33 33 33 226 33 33 33 33 198 33 33 33 33 
255 33 33 33 33 247 33 33 33 33 198 33 33 33 33 148 
33 33 33 33 247 33 33 255 33 33 33 33 255 33 33 33 33 33 33 33 33 33 247 33 
33 33 33 255 33 33 33 33 255 33 33 33 33 255 33 33 
33 33 255 33 33 33 33 255 33 33 33 33 255 33 33 33 
33 255 33 33 33 33 255 33 33 33 33 255 33 33 33 33 
255 33 33 33 33 255 33 33 33 33 255 33 33 33 33 255 
33 33 33 33 255 33 33 33 33 155 33 33 33 33 255 33 
33 33 33 255 33 33 33 33 255 33 33 33 33 255 33 33 
33 33 255 33 33 33 33 255 33 33 33 33 255 33 33 33 
33 134 33 33 33 33 255 33 33 33 33 255 33 33 33 33 
255 33 33 33 33 148 33 33 33 33 255 33 33 33 33 205 
33 33 33 33 131 33 33 33 33 170 33 33 33 33 255 33 
33 33 33 155 33 33 33 33 155 33 33 33 33 205 33 33 
33 33 148 33 33 33 33 233 33 33 33 33 205 33 33 33 
33 212 33 33 33 33 247 33 33 33 33 205 33 33 33 33 
255 33 33 33 33 233 33 33 33 33 205 33 33 33 33 155 
33 33 33 33 233 33 33 255 33 33 33 33 255 33 33 33 33 33 33 33 33 33 134 33 
33 33 33 255 33 33 33 33 255 33 33 33 33 255 33 33 
33 33 255 33 33 33 33 255 33 33 33 33 255 33 33 33 
33 255 33 33 33 33 255 33 33 33 33 255 33 33 33 33 
255 33 33 33 33 255 33 33 33 33 255 33 33 33 33 255 
33 33 33 33 255 33 33 33 33 255 33 33 33 33 255 33 
33 33 33 255 33 33 33 33 255 33 33 33 33 255 33 33 
33 33 255 33 33 33 33 255 33 33 33 33 255 33 33 33 
33 162 33 33 33 33 255 33 33 33 33 255 33 33 33 33 
255 33 33 33 33 155 33 33 33 33 255 33 33 33 33 212 
33 33 33 33 219 33 33 33 33 112 33 33 33 33 255 33 
33 33 33 240 33 33 33 33 240 33 33 33 33 162 33 33 
33 33 155 33 33 33 33 131 33 33 33 33 212 33 33 33 
33 170 33 33 33 33 233 33 33 33 33 212 33 33 33 33 
255 33 33 33 33 131 33 33 33 33 212 33 33 33 33 184 
33 33 33 33 131 33 33 255 33 33 33 33 255 33 33 33 8 8 8 33 33 33 226 33 
33 33 33 255 33 33 33 33 255 33 33 33 33 255 33 33 
33 33 255 33 33 33 33 255 33 33 33 33 255 33 33 33 
33 255 33 33 33 33 255 33 33 33 33 255 33 33 33 33 
255 33 33 33 33 255 33 33 33 33 255 33 33 33 33 255 
33 33 33 33 255 33 33 33 33 255 33 33 33 33 255 33 
33 33 33 255 33 33 33 33 255 33 33 33 33 255 33 33 
33 33 255 33 33 33 33 255 33 33 33 33 255 33 33 33 
33 184 33 33 33 33 255 33 33 33 33 255 33 33 33 33 
255 33 33 33 33 247 33 33 33 33 255 33 33 33 33 219 
33 33 33 33 240 33 33 33 33 148 33 33 33 33 255 33 
33 33 33 131 33 33 33 33 131 33 33 33 33 184 33 33 
33 33 247 33 33 33 33 134 33 33 33 33 219 33 33 33 
33 191 33 33 33 33 198 33 33 33 33 219 33 33 33 33 
255 33 33 33 33 134 33 33 33 33 219 33 33 33 33 170 
33 33 33 33 134 33 33 255 33 33 33 33 255 33 33 8 33 33 33 8 33 33 247 33 
33 33 33 255 33 33 33 33 255 33 33 33 33 255 33 33 
33 33 255 33 33 33 33 255 33 33 33 33 255 33 33 33 
33 255 33 33 33 33 255 33 33 33 33 255 33 33 33 33 
255 33 33 33 33 255 33 33 33 33 255 33 33 33 33 255 
33 33 33 33 255 33 33 33 33 255 33 33 33 33 255 33 
33 33 33 255 33 33 33 33 255 33 33 33 33 255 33 33 
33 33 255 33 33 33 33 255 33 33 33 33 255 33 33 33 
33 255 33 33 33 33 255 33 33 33 33 255 33 33 33 33 
255 33 33 33 33 233 33 33 33 33 255 33 33 33 33 177 
33 33 33 33 198 33 33 33 33 155 33 33 33 33 255 33 
33 33 33 219 33 33 33 33 155 33 33 33 33 170 33 33 
33 33 233 33 33 33 33 226 33 33 33 33 177 33 33 33 
33 198 33 33 33 33 205 33 33 33 33 177 33 33 33 33 
255 33 33 33 33 226 33 33 33 33 177 33 33 33 33 112 
33 33 33 33 226 33 33 255 33 33 33 33 255 33 8 33 33 33 33 33 8 33 205 33 
33 33 33 255 33 33 33 33 255 33 33 33 33 255 33 33 
33 33 255 33 33 33 33 255 33 33 33 33 255 33 33 33 
33 255 33 33 33 33 255 33 33 33 33 255 33 33 33 33 
255 33 33 33 33 255 33 33 33 33 255 33 33 33 33 255 
33 33 33 33 255 33 33 33 33 255 33 33 33 33 255 33 
33 33 33 255 33 33 33 33 255 33 33 33 33 255 33 33 
33 33 255 33 33 33 33 255 33 33 33 33 255 33 33 33 
33 255 33 33 33 33 255 33 33 33 33 255 33 33 33 33 
255 33 33 33 33 191 33 33 33 33 255 33 33 33 33 198 
33 33 33 33 219 33 33 33 33 177 33 33 33 33 255 33 
33 33 33 240 33 33 33 33 112 33 33 33 33 191 33 33 
33 33 191 33 33 33 33 247 33 33 33 33 198 33 33 33 
33 219 33 33 33 33 162 33 33 33 33 198 33 33 33 33 
255 33 33 33 33 247 33 33 33 33 198 33 33 33 33 148 
33 33 33 33 247 33 33 255 33 33 33 33 255 33 33 33 33 33 33 33 33 33 226 33 
33 33 33 255 33 33 33 33 255 33 33 33 33 255 33 33 
33 33 255 33 33 33 33 255 33 33 33 33 255 33 33 33 
33 255 33 33 33 33 255 33 33 33 33 255 33 33 33 33 
255 33 33 33 33 255 33 33 33 33 255 33 33 33 33 255 
33 33 33 33 255 33 33 33 33 255 33 33 33 33 255 33 
33 33 33 255 33 33 33 33 255 33 33 33 33 255 33 33 
33 33 255 33 33 33 33 255 33 33 33 33 255 33 33 33 
33 255 33 33 33 33 255 33 33 33 33 255 33 33 33 33 
255 33 33 33 33 212 33 33 33 33 255 33 33 33 33 205 
33 33 33 33 177 33 33 33 33 131 33 33 33 33 255 33 
33 33 33 162 33 33 33 33 212 33 33 33 33 148 33 33 
33 33 212 33 33 33 33 233 33 33 33 33 205 33 33 33 
33 177 33 33 33 33 184 33 33 33 33 205 33 33 33 33 
255 33 33 33 33 233 33 33 33 33 205 33 33 33 33 155 
33 33 33 33 233 33 33 255 33 33 33 33 255 33 33 33 33 33 33 202 33 33 184 33 
33 33 33 255 33 33 33 33 255 33 33 33 33 255 33 33 
33 33 255 33 33 33 33 255 33 33 33 33 255 33 33 33 
33 255 33 33 33 33 255 33 33 33 33 255 33 33 33 33 
255 33 33 33 33 255 33 33 33 33 255 33 33 33 33 255 
33 33 33 33 255 33 33 33 33 255 33 33 33 33 255 33 
33 33 33 255 33 33 33 33 255 33 33 33 33 255 33 33 
33 33 255 33 33 33 33 255 33 33 33 33 255 33 33 33 
33 255 33 33 33 33 255 33 33 33 33 255 33 33 33 33 
255 33 33 33 33 219 33 33 33 33 255 33 33 33 33 226 
33 33 33 33 198 33 33 33 33 155 33 33 33 33 255 33 
33 33 33 148 33 33 33 33 219 33 33 33 33 170 33 33 
33 33 219 33 33 33 33 112 33 33 33 33 226 33 33 33 
33 198 33 33 33 33 170 33 33 33 33 226 33 33 33 33 
255 33 33 33 33 112 33 33 33 33 226 33 33 33 33 177 
33 33 33 33 112 33 33 255 33 33 33 33 255 33 33 33 202 202 202 202 202 33 205 33 
33 33 33 255 33 33 33 33 255 33 33 33 33 255 33 33 
33 33 255 33 33 33 33 255 33 33 33 33 255 33 33 33 
33 255 33 33 33 33 255 33 33 33 33 255 33 33 33 33 
255 33 33 33 33 255 33 33 33 33 255 33 33 33 33 255 
33 33 33 33 255 33 33 33 33 255 33 33 33 33 255 33 
33 33 33 255 33 33 33 33 255 33 33 33 33 255 33 33 
33 33 255 33 33 33 33 255 33 33 33 33 255 33 33 33 
33 255 33 33 33 33 255 33 33 33 33 255 33 33 33 33 
255 33 33 33 33 184 33 33 33 33 255 33 33 33 33 212 
33 33 33 33 155 33 33 33 33 162 33 33 33 33 255 33 
33 33 33 233 33 33 33 33 177 33 33 33 33 177 33 33 
33 33 184 33 33 33 33 131 33 33 33 33 212 33 33 33 
33 219 33 33 33 33 131 33 33 33 33 212 33 33 33 33 
255 33 33 33 33 131 33 33 33 33 212 33 33 33 33 184 
33 33 33 33 131 33 33 255 33 33 33 33 255 33 33 33 33 33 33 202 33 33 191 33 
33 33 33 255 33 33 33 33 255 33 33 33 33 255 33 33 
33 33 255 33 33 33 33 255 33 33 33 33 255 33 33 33 
33 255 33 33 33 33 255 33 33 33 33 255 33 33 33 33 
255 33 33 33 33 255 33 33 33 33 255 33 33 33 33 255 
33 33 33 33 255 33 33 33 33 255 33 33 33 33 255 33 
33 33 33 255 33 33 33 33 255 33 33 33 33 255 33 33 
33 33 255 33 33 33 33 255 33 33 33 33 255 33 33 33 
33 255 33 33 33 33 255 33 33 33 33 255 33 33 33 33 
255 33 33 33 33 170 33 33 33 33 255 33 33 33 33 177 
33 33 33 33 177 33 33 33 33 184 33 33 33 33 255 33 
33 33 33 112 33 33 33 33 198 33 33 33 33 198 33 33 
33 33 170 33 33 33 33 226 33 33 33 33 177 33 33 33 
33 255 33 33 33 33 134 33 33 33 33 177 33 33 33 33 
255 33 33 33 33 226 33 33 33 33 177 33 33 33 33 112 
33 33 33 33 226 33 33 255 33 33 33 33 255 33 33 33 33 33 33 33 33 33 212 33 
33 33 33 255 33 33 33 33 255 33 33 33 33 255 33 33 
33 33 255 33 33 33 33 255 33 33 33 33 255 33 33 33 
33 255 33 33 33 33 255 33 33 33 33 255 33 33 33 33 
255 33 33 33 33 255 33 33 33 33 255 33 33 33 33 255 
33 33 33 33 255 33 33 33 33 255 33 33 33 33 255 33 
33 33 33 255 33 33 33 33 255 33 33 33 33 255 33 33 
33 33 255 33 33 33 33 255 33 33 33 33 255 33 33 33 
33 255 33 33 33 33 255 33 33 33 33 255 33 33 33 33 
255 33 33 33 33 177 33 33 33 33 255 33 33 33 33 184 
33 33 33 33 131 33 33 33 33 134 33 33 33 33 255 33 
33 33 33 212 33 33 33 33 155 33 33 33 33 155 33 33 
33 33 177 33 33 33 33 212 33 33 33 33 184 33 33 33 
33 255 33 33 33 33 112 33 33 33 33 184 33 33 33 33 
255 33 33 33 33 212 33 33 33 33 184 33 33 33 33 131 
33 33 33 33 212 33 33 255 33 33 33 33 255 33 202 202 202 202 202 33 33 33 170 33 
33 33 33 255 33 33 33 33 255 33 33 33 33 255 33 33 
33 33 255 33 33 33 33 255 33 33 33 33 255 33 33 33 
33 255 33 33 33 33 255 33 33 33 33 255 33 33 33 33 
255 33 33 33 33 255 33 33 33 33 255 33 33 33 33 255 
33 33 33 33 255 33 33 33 33 255 33 33 33 33 255 33 
33 33 33 255 33 33 33 33 255 33 33 33 33 255 33 33 
33 33 255 33 33 33 33 255 33 33 33 33 255 33 33 33 
33 255 33 33 33 33 255 33 33 33 33 255 33 33 33 33 
255 33 33 33 33 212 33 33 33 33 255 33 33 33 33 134 
33 33 33 33 155 33 33 33 33 162 33 33 33 33 255 33 
33 33 33 233 33 33 33 33 177 33 33 33 33 177 33 33 
33 33 212 33 33 33 33 170 33 33 33 33 134 33 33 33 
33 255 33 33 33 33 184 33 33 33 33 134 33 33 33 33 
255 33 33 33 33 170 33 33 33 33 134 33 33 33 33 219 
33 33 33 33 170 33 33 255 33 33 33 33 255 33 33 33 33 33 33 202 33 33 191 33 
33 33 33 255 33 33 33 33 255 33 33 33 33 255 33 33 
33 33 255 33 33 33 33 255 33 33 33 33 255 33 33 33 
33 255 33 33 33 33 255 33 33 33 33 255 33 33 33 33 
255 33 33 33 33 255 33 33 33 33 255 33 33 33 33 255 
33 33 33 33 255 33 33 33 33 255 33 33 33 33 255 33 
33 33 33 255 33 33 33 33 255 33 33 33 33 255 33 33 
33 33 255 33 33 33 33 255 33 33 33 33 255 33 33 33 
33 255 33 33 33 33 255 33 33 33 33 255 33 33 33 33 
255 33 33 33 33 219 33 33 33 33 255 33 33 33 33 162 
33 33 33 33 240 33 33 33 33 148 33 33 33 33 255 33 
33 33 33 191 33 33 33 33 131 33 33 33 33 131 33 33 
33 33 219 33 33 33 33 191 33 33 33 33 162 33 33 33 
33 255 33 33 33 33 170 33 33 33 33 162 33 33 33 33 
255 33 33 33 33 191 33 33 33 33 162 33 33 33 33 240 
33 33 33 33 191 33 33 255 33 33 33 33 255 33 33 33 33 33 33 202 33 33 198 33 
33 33 33 255 33 33 33 33 255 33 33 33 33 255 33 33 
33 33 255 33 33 33 33 255 33 33 33 33 255 33 33 33 
33 255 33 33 33 33 255 33 33 33 33 255 33 33 33 33 
255 33 33 33 33 255 33 33 33 33 255 33 33 33 33 255 
33 33 33 33 255 33 33 33 33 255 33 33 33 33 255 33 
33 33 33 255 33 33 33 33 255 33 33 33 33 255 33 33 
33 33 255 33 33 33 33 255 33 33 33 33 255 33 33 33 
33 255 33 33 33 33 255 33 33 33 33 255 33 33 33 33 
255 33 33 33 33 247 33 33 33 33 255 33 33 33 33 148 
33 33 33 33 131 33 33 33 33 170 33 33 33 33 255 33 
33 33 33 212 33 33 33 33 155 33 33 33 33 155 33 33 
33 33 247 33 33 33 33 198 33 33 33 33 148 33 33 33 
33 255 33 33 33 33 198 33 33 33 33 148 33 33 33 33 
255 33 33 33 33 198 33 33 33 33 148 33 33 33 33 247 
33 33 33 33 198 33 33 255 33 33 33 33 255 33 33 33 33 33 190 33 33 33 219 33 
33 33 33 255 33 33 33 33 255 33 33 33 33 255 33 33 
33 33 255 33 33 33 33 255 33 33 33 33 255 33 33 33 
33 255 33 33 33 33 255 33 33 33 33 255 33 33 33 33 
255 33 33 33 33 255 33 33 33 33 255 33 33 33 33 255 
33 33 33 33 255 33 33 33 33 255 33 33 33 33 255 33 
33 33 33 255 33 33 33 33 255 33 33 33 33 255 33 33 
33 33 255 33 33 33 33 255 33 33 33 33 255 33 33 33 
33 255 33 33 33 33 255 33 33 33 33 255 33 33 33 33 
255 33 33 33 33 191 33 33 33 33 255 33 33 33 33 240 
33 33 33 33 219 33 33 33 33 162 33 33 33 33 255 33 
33 33 33 170 33 33 33 33 240 33 33 33 33 240 33 33 
33 33 191 33 33 33 33 162 33 33 33 33 240 33 33 33 
33 255 33 33 33 33 162 33 33 33 33 240 33 33 33 33 
255 33 33 33 33 162 33 33 33 33 240 33 33 33 33 191 
33 33 33 33 162 33 33 255 33 33 33 33 255 33 33 33 33 33 33 33 33 33 177 33 
33 33 33 255 33 33 33 33 255 33 33 33 33 255 33 33 
33 33 255 33 33 33 33 255 33 33 33 33 255 33 33 33 
33 255 33 33 33 33 255 33 33 33 33 255 33 33 33 33 
255 33 33 33 33 255 33 33 33 33 255 33 33 33 33 255 
33 33 33 33 255 33 33 33 33 255 33 33 33 33 255 33 
33 33 33 255 33 33 33 33 255 33 33 33 33 255 33 33 
33 33 255 33 33 33 33 255 33 33 33 33 255 33 33 33 
33 255 33 33 33 33 255 33 33 33 33 255 33 33 33 33 
255 33 33 33 33 198 33 33 33 33 255 33 33 33 33 112 
33 33 33 33 240 33 33 33 33 148 33 33 33 33 255 33 
33 33 33 191 33 33 33 33 131 33 33 33 33 131 33 33 
33 33 198 33 33 33 33 247 33 33 33 33 134 33 33 33 
33 255 33 33 33 33 148 33 33 33 33 198 33 33 33 33 
255 33 33 33 33 177 33 33 33 33 198 33 33 33 33 148 
33 33 33 33 184 33 33 255 33 33 33 33 255 33 202 202 202 33 202 33 33 33 198 33 
33 33 33 255 33 33 33 33 255 33 33 33 33 255 33 33 
33 33 255 33 33 33 33 255 33 33 33 33 255 33 33 33 
33 255 33 33 33 33 255 33 33 33 33 255 33 33 33 33 
255 33 33 33 33 255 33 33 33 33 255 33 33 33 33 255 
33 33 33 33 255 33 33 33 33 255 33 33 33 33 255 33 
33 33 33 255 33 33 33 33 255 33 33 33 33 255 33 33 
33 33 255 33 33 33 33 255 33 33 33 33 255 33 33 33 
33 255 33 33 33 33 255 33 33 33 33 255 33 33 33 33 
255 33 33 33 33 219 33 33 33 33 255 33 33 33 33 131 
33 33 33 33 198 33 33 33 33 233 33 33 33 33 255 33 
33 33 33 148 33 33 33 33 219 33 33 33 33 219 33 33 
33 33 219 33 33 33 33 155 33 33 33 33 112 33 33 33 
33 255 33 33 33 33 170 33 33 33 33 233 33 33 33 33 
255 33 33 33 33 184 33 33 33 33 233 33 33 33 33 205 
33 33 33 33 170 33 33 255 33 33 33 33 255 33 202 33 202 33 202 33 33 33 155 33 
33 33 33 255 33 33 33 33 255 33 33 33 33 255 33 33 
33 33 255 33 33 33 33 255 33 33 33 33 255 33 33 33 
33 255 33 33 33 33 255 33 33 33 33 255 33 33 33 33 
255 33 33 33 33 255 33 33 33 33 255 33 33 33 33 255 
33 33 33 33 255 33 33 33 33 255 33 33 33 33 255 33 
33 33 33 255 33 33 33 33 255 33 33 33 33 255 33 33 
33 33 255 33 33 33 33 255 33 33 33 33 255 33 33 33 
33 255 33 33 33 33 255 33 33 33 33 255 33 33 33 33 
255 33 33 33 33 226 33 33 33 33 255 33 33 33 33 219 
33 33 33 33 219 33 33 33 33 112 33 33 33 33 255 33 
33 33 33 170 33 33 33 33 240 33 33 33 33 240 33 33 
33 33 226 33 33 33 33 240 33 33 33 33 212 33 33 33 
33 255 33 33 33 33 177 33 33 33 33 191 33 33 33 33 
255 33 33 33 33 134 33 33 33 33 191 33 33 33 33 162 
33 33 33 33 112 33 33 255 33 33 33 33 255 33 202 33 202 33 202 33 33 33 177 33 
33 33 33 255 33 33 33 33 255 33 33 33 33 255 33 33 
33 33 255 33 33 33 33 255 33 33 33 33 255 33 33 33 
33 255 33 33 33 33 255 33 33 33 33 255 33 33 33 33 
255 33 33 33 33 255 33 33 33 33 255 33 33 33 33 255 
33 33 33 33 255 33 33 33 33 255 33 33 33 33 255 33 
33 33 33 255 33 33 33 33 255 33 33 33 33 255 33 33 
33 33 255 33 33 33 33 255 33 33 33 33 255 33 33 33 
33 255 33 33 33 33 255 33 33 33 33 255 33 33 33 33 
255 33 33 33 33 212 33 33 33 33 255 33 33 33 33 240 
33 33 33 33 177 33 33 33 33 212 33 33 33 33 255 33 
33 33 33 112 33 33 33 33 198 33 33 33 33 131 33 33 
33 33 212 33 33 33 33 247 33 33 33 33 233 33 33 33 
33 255 33 33 33 33 184 33 33 33 33 198 33 33 33 33 
255 33 33 33 33 162 33 33 33 33 198 33 33 33 33 148 
33 33 33 33 148 33 33 255 33 33 33 33 255 33 202 202 202 202 202 33 33 33 184 33 
33 33 33 255 33 33 33 33 255 33 33 33 33 255 33 33 
33 33 255 33 33 33 33 255 33 33 33 33 255 33 33 33 
33 255 33 33 33 33 255 33 33 33 33 255 33 33 33 33 
255 33 33 33 33 255 33 33 33 33 255 33 33 33 33 255 
33 33 33 33 255 33 33 33 33 255 33 33 33 33 255 33 
33 33 33 255 33 33 33 33 255 33 33 33 33 255 33 33 
33 33 255 33 33 33 33 255 33 33 33 33 255 33 33 33 
33 255 33 33 33 33 255 33 33 33 33 255 33 33 33 33 
255 33 33 33 33 177 33 33 33 33 255 33 33 33 33 247 
33 33 33 33 198 33 33 33 33 233 33 33 33 33 255 33 
33 33 33 148 33 33 33 33 219 33 33 33 33 233 33 33 
33 33 177 33 33 33 33 205 33 33 33 33 240 33 33 33 
33 255 33 33 33 33 112 33 33 33 33 155 33 33 33 33 
255 33 33 33 33 148 33 33 33 33 155 33 33 33 33 233 
33 33 33 33 155 33 33 255 33 33 33 33 255 33 33 33 33 33 33 33 33 33 205 33 
33 33 33 255 33 33 33 33 255 33 33 33 33 255 33 33 
33 33 255 33 33 33 33 255 33 33 33 33 255 33 33 33 
33 255 33 33 33 33 255 33 33 33 33 255 33 33 33 33 
255 33 33 33 33 255 33 33 33 33 255 33 33 33 33 255 
33 33 33 33 255 33 33 33 33 255 33 33 33 33 255 33 
33 33 33 255 33 33 33 33 255 33 33 33 33 255 33 33 
33 33 255 33 33 33 33 255 33 33 33 33 255 33 33 33 
33 255 33 33 33 33 255 33 33 33 33 255 33 33 33 33 
255 33 33 33 33 184 33 33 33 33 255 33 33 33 33 191 
33 33 33 33 155 33 33 33 33 240 33 33 33 33 255 33 
33 33 33 233 33 33 33 33 131 33 33 33 33 191 33 33 
33 33 184 33 33 33 33 226 33 33 33 33 205 33 33 33 
33 255 33 33 33 33 131 33 33 33 33 177 33 33 33 33 
255 33 33 33 33 240 33 33 33 33 177 33 33 33 33 112 
33 33 33 33 247 33 33 255 33 33 33 33 255 33 202 202 202 202 33 33 33 33 162 33 
33 33 33 255 33 33 33 33 255 33 33 33 33 255 33 33 
33 33 255 33 33 33 33 255 33 33 33 33 255 33 33 33 
33 255 33 33 33 33 255 33 33 33 33 255 33 33 33 33 
255 33 33 33 33 255 33 33 33 33 255 33 33 33 33 255 
33 33 33 33 255 33 33 33 33 255 33 33 33 33 255 33 
33 33 33 255 33 33 33 33 255 33 33 33 33 255 33 33 
33 33 255 33 33 33 33 255 33 33 33 33 255 33 33 33 
33 255 33 33 33 33 255 33 33 33 33 255 33 33 33 33 
255 33 33 33 33 134 33 33 33 33 255 33 33 33 33 198 
33 33 33 33 177 33 33 33 33 131 33 33 33 33 255 33 
33 33 33 112 33 33 33 33 134 33 33 33 33 198 33 33 
33 33 134 33 33 33 33 184 33 33 33 33 191 33 33 33 
33 255 33 33 33 33 219 33 33 33 33 131 33 33 33 33 
255 33 33 33 33 247 33 33 33 33 131 33 33 33 33 212 
33 33 33 33 233 33 33 255 33 33 33 33 255 33 33 33 33 33 202 33 33 33 184 33 
33 33 33 255 33 33 33 33 255 33 33 33 33 255 33 33 
33 33 255 33 33 33 33 255 33 33 33 33 255 33 33 33 
33 255 33 33 33 33 255 33 33 33 33 255 33 33 33 33 
255 33 33 33 33 255 33 33 33 33 255 33 33 33 33 255 
33 33 33 33 255 33 33 33 33 255 33 33 33 33 255 33 
33 33 33 255 33 33 33 33 255 33 33 33 33 255 33 33 
33 33 255 33 33 33 33 255 33 33 33 33 255 33 33 33 
33 255 33 33 33 33 255 33 33 33 33 255 33 33 33 33 
255 33 33 33 33 162 33 33 33 33 255 33 33 33 33 205 
33 33 33 33 131 33 33 33 33 219 33 33 33 33 255 33 
33 33 33 148 33 33 33 33 226 33 33 33 33 155 33 33 
33 33 162 33 33 33 33 205 33 33 33 33 198 33 33 33 
33 255 33 33 33 33 240 33 33 33 33 155 33 33 33 33 
255 33 33 33 33 233 33 33 33 33 155 33 33 33 33 233 
33 33 33 33 240 33 33 255 33 33 33 33 255 33 33 33 33 33 202 33 33 33 134 33 
33 33 33 255 33 33 33 33 255 33 33 33 33 255 33 33 
33 33 255 33 33 33 33 255 33 33 33 33 255 33 33 33 
33 255 33 33 33 33 255 33 33 33 33 255 33 33 33 33 
255 33 33 33 33 255 33 33 33 33 255 33 33 33 33 255 
33 33 33 33 255 33 33 33 33 255 33 33 33 33 255 33 
33 33 33 255 33 33 33 33 255 33 33 33 33 255 33 33 
33 33 255 33 33 33 33 255 33 33 33 33 255 33 33 33 
33 255 33 33 33 33 255 33 33 33 33 255 33 33 33 33 
255 33 33 33 33 148 33 33 33 33 255 33 33 33 33 240 
33 33 33 33 155 33 33 33 33 240 33 33 33 33 255 33 
33 33 33 134 33 33 33 33 247 33 33 33 33 177 33 33 
33 33 247 33 33 33 33 191 33 33 33 33 233 33 33 33 
33 255 33 33 33 33 247 33 33 33 33 162 33 33 33 33 
255 33 33 33 33 162 33 33 33 33 162 33 33 33 33 240 
33 33 33 33 148 33 33 255 33 33 33 33 255 33 202 202 202 202 33 33 33 33 162 33 
33 33 33 255 33 33 33 33 255 33 33 33 33 255 33 33 
33 33 255 33 33 33 33 255 33 33 33 33 255 33 33 33 
33 255 33 33 33 33 255 33 33 33 33 255 33 33 33 33 
255 33 33 33 33 255 33 33 33 33 255 33 33 33 33 255 
33 33 33 33 255 33 33 33 33 255 33 33 33 33 255 33 
33 33 33 255 33 33 33 33 255 33 33 33 33 255 33 33 
33 33 255 33 33 33 33 255 33 33 33 33 255 33 33 33 
33 255 33 33 33 33 255 33 33 33 33 255 33 33 33 33 
255 33 33 33 33 170 33 33 33 33 255 33 33 33 33 247 
33 33 33 33 240 33 33 33 33 247 33 33 33 33 255 33 
33 33 33 131 33 33 33 33 205 33 33 33 33 131 33 33 
33 33 134 33 33 33 33 155 33 33 33 33 240 33 33 33 
33 255 33 33 33 33 134 33 33 33 33 233 33 33 33 33 
255 33 33 33 33 148 33 33 33 33 233 33 33 33 33 205 
33 33 33 33 155 33 33 255 33 33 33 33 255 33 33 33 33 33 33 33 33 33 247 33 
33 33 33 255 33 33 33 33 255 33 33 33 33 255 33 33 
33 33 255 33 33 33 33 255 33 33 33 33 255 33 33 33 
33 255 33 33 33 33 255 33 33 33 33 255 33 33 33 33 
255 33 33 33 33 255 33 33 33 33 255 33 33 33 33 255 
33 33 33 33 255 33 33 33 33 255 33 33 33 33 255 33 
33 33 33 255 33 33 33 33 255 33 33 33 33 255 33 33 
33 33 255 33 33 33 33 255 33 33 33 33 255 33 33 33 
33 255 33 33 33 33 255 33 33 33 33 255 33 33 33 33 
255 33 33 33 33 255 33 33 33 33 255 33 33 33 33 112 
33 33 33 33 131 33 33 33 33 134 33 33 33 33 255 33 
33 33 33 134 33 33 33 33 226 33 33 33 33 155 33 33 
33 33 226 33 33 33 33 177 33 33 33 33 134 33 33 33 
33 255 33 33 33 33 226 33 33 33 33 112 33 33 33 33 
255 33 33 33 33 177 33 33 33 33 112 33 33 33 33 226 
33 33 33 33 184 33 33 255 33 33 33 33 255 33 202 33 33 202 33 33 33 33 134 33 
33 33 33 255 33 33 33 33 255 33 33 33 33 255 33 33 
33 33 255 33 33 33 33 255 33 33 33 33 255 33 33 33 
33 255 33 33 33 33 255 33 33 33 33 255 33 33 33 33 
255 33 33 33 33 255 33 33 33 33 255 33 33 33 33 255 
33 33 33 33 255 33 33 33 33 255 33 33 33 33 255 33 
33 33 33 255 33 33 33 33 255 33 33 33 33 255 33 33 
33 33 255 33 33 33 33 255 33 33 33 33 255 33 33 33 
33 255 33 33 33 33 255 33 33 33 33 255 33 33 33 33 
255 33 33 33 33 255 33 33 33 33 255 33 33 33 33 219 
33 33 33 33 219 33 33 33 33 226 33 33 33 33 255 33 
33 33 33 226 33 33 33 33 184 33 33 33 33 240 33 33 
33 33 247 33 33 33 33 219 33 33 33 33 212 33 33 33 
33 255 33 33 33 33 247 33 33 33 33 177 33 33 33 33 
255 33 33 33 33 134 33 33 33 33 170 33 33 33 33 134 
33 33 33 33 112 33 33 255 33 33 33 33 255 33 202 33 202 202 202 33 33 33 226 33 
33 33 33 255 33 33 33 33 255 33 33 33 33 255 33 33 
33 33 255 33 33 33 33 255 33 33 33 33 255 33 33 33 
33 255 33 33 33 33 255 33 33 33 33 255 33 33 33 33 
255 33 33 33 33 255 33 33 33 33 255 33 33 33 33 255 
33 33 33 33 255 33 33 33 33 255 33 33 33 33 255 33 
33 33 33 255 33 33 33 33 255 33 33 33 33 255 33 33 
33 33 255 33 33 33 33 255 33 33 33 33 255 33 33 33 
33 255 33 33 33 33 255 33 33 33 33 255 33 33 33 33 
255 33 33 33 33 255 33 33 33 33 255 33 33 33 33 226 
33 33 33 33 240 33 33 33 33 247 33 33 33 33 255 33 
33 33 33 247 33 33 33 33 205 33 33 33 33 131 33 33 
33 33 233 33 33 33 33 226 33 33 33 33 219 33 33 33 
33 255 33 33 33 33 233 33 33 33 33 184 33 33 33 33 
255 33 33 33 33 112 33 33 33 33 177 33 33 33 33 112 
33 33 33 33 131 33 33 255 33 33 33 33 255 33 202 202 202 33 202 33 33 33 247 33 
33 33 33 255 33 33 33 33 255 33 33 33 33 255 33 33 
33 33 255 33 33 33 33 255 33 33 33 33 255 33 33 33 
33 255 33 33 33 33 255 33 33 33 33 255 33 33 33 33 
255 33 33 33 33 255 33 33 33 33 255 33 33 33 33 255 
33 33 33 33 255 33 33 33 33 255 33 33 33 33 255 33 
33 33 33 255 33 33 33 33 255 33 33 33 33 255 33 33 
33 33 255 33 33 33 33 255 33 33 33 33 255 33 33 33 
33 255 33 33 33 33 255 33 33 33 33 255 33 33 33 33 
255 33 33 33 33 255 33 33 33 33 255 33 33 33 33 247 
33 33 33 33 198 33 33 33 33 233 33 33 33 33 255 33 
33 33 33 205 33 33 33 33 162 33 33 33 33 219 33 33 
33 33 112 33 33 33 33 184 33 33 33 33 240 33 33 33 
33 255 33 33 33 33 112 33 33 33 33 134 33 33 33 33 
255 33 33 33 33 148 33 33 33 33 131 33 33 33 33 212 
33 33 33 33 155 33 33 255 33 33 33 33 255 33 33 202 33 33 202 33 33 33 233 33 
33 33 33 255 33 33 33 33 255 33 33 33 33 255 33 33 
33 33 255 33 33 33 33 255 33 33 33 33 255 33 33 33 
33 255 33 33 33 33 255 33 33 33 33 255 33 33 33 33 
255 33 33 33 33 255 33 33 33 33 255 33 33 33 33 255 
33 33 33 33 255 33 33 33 33 255 33 33 33 33 255 33 
33 33 33 255 33 33 33 33 255 33 33 33 33 255 33 33 
33 33 255 33 33 33 33 255 33 33 33 33 255 33 33 33 
33 255 33 33 33 33 255 33 33 33 33 255 33 33 33 33 
255 33 33 33 33 255 33 33 33 33 255 33 33 33 33 233 
33 33 33 33 219 33 33 33 33 112 33 33 33 33 255 33 
33 33 33 226 33 33 33 33 184 33 33 33 33 240 33 33 
33 33 255 33 33 33 33 205 33 33 33 33 247 33 33 33 
33 255 33 33 33 33 212 33 33 33 33 162 33 33 33 33 
255 33 33 33 33 155 33 33 33 33 155 33 33 33 33 233 
33 33 33 33 162 33 33 255 33 33 33 33 255 33 33 33 33 33 33 33 33 33 112 33 
33 33 33 255 33 33 33 33 255 33 33 33 33 255 33 33 
33 33 255 33 33 33 33 255 33 33 33 33 255 33 33 33 
33 255 33 33 33 33 255 33 33 33 33 255 33 33 33 33 
255 33 33 33 33 255 33 33 33 33 255 33 33 33 33 255 
33 33 33 33 255 33 33 33 33 255 33 33 33 33 255 33 
33 33 33 255 33 33 33 33 255 33 33 33 33 255 33 33 
33 33 255 33 33 33 33 255 33 33 33 33 255 33 33 33 
33 255 33 33 33 33 255 33 33 33 33 255 33 33 33 33 
255 33 33 33 33 255 33 33 33 33 255 33 33 33 33 240 
33 33 33 33 177 33 33 33 33 212 33 33 33 33 255 33 
33 33 33 184 33 33 33 33 134 33 33 33 33 198 33 33 
33 33 255 33 33 33 33 191 33 33 33 33 233 33 33 33 
33 255 33 33 33 33 233 33 33 33 33 148 33 33 33 33 
255 33 33 33 33 162 33 33 33 33 162 33 33 33 33 240 
33 33 33 33 148 33 33 255 33 33 33 33 255 33 202 202 202 202 202 202 202 33 212 33 
33 33 33 255 33 33 33 33 255 33 33 33 33 255 33 33 
33 33 255 33 33 33 33 255 33 33 33 33 255 33 33 33 
33 255 33 33 33 33 255 33 33 33 33 255 33 33 33 33 
255 33 33 33 33 255 33 33 33 33 255 33 33 33 33 255 
33 33 33 33 255 33 33 33 33 255 33 33 33 33 255 33 
33 33 33 255 33 33 33 33 255 33 33 33 33 255 33 33 
33 33 255 33 33 33 33 255 33 33 33 33 255 33 33 33 
33 255 33 33 33 33 255 33 33 33 33 255 33 33 33 33 
255 33 33 33 33 255 33 33 33 33 255 33 33 33 33 205 
33 33 33 33 198 33 33 33 33 233 33 33 33 33 255 33 
33 33 33 205 33 33 33 33 162 33 33 33 33 219 33 33 
33 33 255 33 33 33 33 155 33 33 33 33 198 33 33 33 
33 255 33 33 33 33 240 33 33 33 33 240 33 33 33 33 
255 33 33 33 33 233 33 33 33 33 233 33 33 33 33 205 
33 33 33 33 240 33 33 255 33 33 33 33 255 33 33 33 33 33 33 33 33 33 233 33 
33 33 33 255 33 33 33 33 255 33 33 33 33 255 33 33 
33 33 255 33 33 33 33 255 33 33 33 33 255 33 33 33 
33 255 33 33 33 33 255 33 33 33 33 255 33 33 33 33 
255 33 33 33 33 255 33 33 33 33 255 33 33 33 33 255 
33 33 33 33 255 33 33 33 33 255 33 33 33 33 255 33 
33 33 33 255 33 33 33 33 255 33 33 33 33 255 33 33 
33 33 255 33 33 33 33 255 33 33 33 33 255 33 33 33 
33 255 33 33 33 33 255 33 33 33 33 255 33 33 33 33 
255 33 33 33 33 255 33 33 33 33 255 33 33 33 33 191 
33 33 33 33 155 33 33 33 33 240 33 33 33 33 255 33 
33 33 33 255 33 33 33 33 247 33 33 33 33 177 33 33 
33 33 255 33 33 33 33 191 33 33 33 33 205 33 33 33 
33 255 33 33 33 33 131 33 33 33 33 148 33 33 33 33 
255 33 33 33 33 240 33 33 33 33 162 33 33 33 33 240 
33 33 33 33 247 33 33 255 33 33 33 33 255 33 202 202 202 33 202 33 33 33 191 33 
33 33 33 255 33 33 33 33 255 33 33 33 33 255 33 33 
33 33 255 33 33 33 33 255 33 33 33 33 255 33 33 33 
33 255 33 33 33 33 255 33 33 33 33 255 33 33 33 33 
255 33 33 33 33 255 33 33 33 33 255 33 33 33 33 255 
33 33 33 33 255 33 33 33 33 255 33 33 33 33 255 33 
33 33 33 255 33 33 33 33 255 33 33 33 33 255 33 33 
33 33 255 33 33 33 33 255 33 33 33 33 255 33 33 33 
33 255 33 33 33 33 255 33 33 33 33 255 33 33 33 33 
255 33 33 33 33 255 33 33 33 33 255 33 33 33 33 148 
33 33 33 33 177 33 33 33 33 131 33 33 33 33 255 33 
33 33 33 255 33 33 33 33 134 33 33 33 33 198 33 33 
33 33 255 33 33 33 33 226 33 33 33 33 162 33 33 33 
33 255 33 33 33 33 255 33 33 33 33 184 33 33 33 33 
255 33 33 33 33 198 33 33 33 33 177 33 33 33 33 112 
33 33 33 33 205 33 33 255 33 33 33 33 255 33 202 33 202 33 202 33 33 33 212 33 
33 33 33 255 33 33 33 33 255 33 33 33 33 255 33 33 
33 33 255 33 33 33 33 255 33 33 33 33 255 33 33 33 
33 255 33 33 33 33 255 33 33 33 33 255 33 33 33 33 
255 33 33 33 33 255 33 33 33 33 255 33 33 33 33 255 
33 33 33 33 255 33 33 33 33 255 33 33 33 33 255 33 
33 33 33 255 33 33 33 33 255 33 33 33 33 255 33 33 
33 33 255 33 33 33 33 255 33 33 33 33 255 33 33 33 
33 255 33 33 33 33 255 33 33 33 33 255 33 33 33 33 
255 33 33 33 33 255 33 33 33 33 255 33 33 33 33 170 
33 33 33 33 240 33 33 33 33 219 33 33 33 33 255 33 
33 33 33 255 33 33 33 33 170 33 33 33 33 155 33 33 
33 33 255 33 33 33 33 212 33 33 33 33 184 33 33 33 
33 255 33 33 33 33 255 33 33 33 33 170 33 33 33 33 
255 33 33 33 33 219 33 33 33 33 184 33 33 33 33 131 
33 33 33 33 226 33 33 255 33 33 33 33 255 33 202 33 202 33 202 33 33 33 219 33 
33 33 33 255 33 33 33 33 255 33 33 33 33 255 33 33 
33 33 255 33 33 33 33 255 33 33 33 33 255 33 33 33 
33 255 33 33 33 33 255 33 33 33 33 255 33 33 33 33 
255 33 33 33 33 255 33 33 33 33 255 33 33 33 33 255 
33 33 33 33 255 33 33 33 33 255 33 33 33 33 255 33 
33 33 33 255 33 33 33 33 255 33 33 33 33 255 33 33 
33 33 255 33 33 33 33 255 33 33 33 33 255 33 33 33 
33 255 33 33 33 33 255 33 33 33 33 255 33 33 33 33 
255 33 33 33 33 255 33 33 33 33 255 33 33 33 33 177 
33 33 33 33 148 33 33 33 33 240 33 33 33 33 255 33 
33 33 33 255 33 33 33 33 177 33 33 33 33 177 33 33 
33 33 255 33 33 33 33 170 33 33 33 33 170 33 33 33 
33 255 33 33 33 33 255 33 33 33 33 112 33 33 33 33 
255 33 33 33 33 177 33 33 33 33 134 33 33 33 33 219 
33 33 33 33 255 33 33 255 33 33 33 33 255 33 202 202 202 202 202 33 33 33 240 33 
33 33 33 255 33 33 33 33 255 33 33 33 33 255 33 33 
33 33 255 33 33 33 33 255 33 33 33 33 255 33 33 33 
33 255 33 33 33 33 255 33 33 33 33 255 33 33 33 33 
255 33 33 33 33 255 33 33 33 33 255 33 33 33 33 255 
33 33 33 33 255 33 33 33 33 255 33 33 33 33 255 33 
33 33 33 255 33 33 33 33 255 33 33 33 33 255 33 33 
33 33 255 33 33 33 33 255 33 33 33 33 255 33 33 33 
33 255 33 33 33 33 255 33 33 33 33 255 33 33 33 33 
255 33 33 33 33 255 33 33 33 33 255 33 33 33 33 198 
33 33 33 33 155 33 33 33 33 198 33 33 33 33 255 33 
33 33 33 255 33 33 33 33 131 33 33 33 33 131 33 33 
33 33 255 33 33 33 33 191 33 33 33 33 191 33 33 33 
33 255 33 33 33 33 255 33 33 33 33 148 33 33 33 33 
255 33 33 33 33 198 33 33 33 33 162 33 33 33 33 240 
33 33 33 33 255 33 33 255 33 33 33 33 255 33 33 33 33 33 33 33 33 33 198 33 
33 33 33 255 33 33 33 33 255 33 33 33 33 255 33 33 
33 33 255 33 33 33 33 255 33 33 33 33 255 33 33 33 
33 255 33 33 33 33 255 33 33 33 33 255 33 33 33 33 
255 33 33 33 33 255 33 33 33 33 255 33 33 33 33 255 
33 33 33 33 255 33 33 33 33 255 33 33 33 33 255 33 
33 33 33 255 33 33 33 33 255 33 33 33 33 255 33 33 
33 33 255 33 33 33 33 255 33 33 33 33 255 33 33 33 
33 255 33 33 33 33 255 33 33 33 33 255 33 33 33 33 
255 33 33 33 33 255 33 33 33 33 255 33 33 33 33 155 
33 33 33 33 240 33 33 33 33 219 33 33 33 33 255 33 
33 33 33 255 33 33 33 33 155 33 33 33 33 155 33 33 
33 33 255 33 33 33 33 198 33 33 33 33 148 33 33 33 
33 255 33 33 33 33 255 33 33 33 33 155 33 33 33 33 
255 33 33 33 33 205 33 33 33 33 148 33 33 33 33 247 
33 33 33 33 255 33 33 255 33 33 33 33 255 33 33 33 33 33 33 202 33 33 219 33 
33 33 33 255 33 33 33 33 255 33 33 33 33 255 33 33 
33 33 255 33 33 33 33 255 33 33 33 33 255 33 33 33 
33 255 33 33 33 33 255 33 33 33 33 255 33 33 33 33 
255 33 33 33 33 255 33 33 33 33 255 33 33 33 33 255 
33 33 33 33 255 33 33 33 33 255 33 33 33 33 255 33 
33 33 33 255 33 33 33 33 255 33 33 33 33 255 33 33 
33 33 255 33 33 33 33 255 33 33 33 33 255 33 33 33 
33 255 33 33 33 33 255 33 33 33 33 255 33 33 33 33 
255 33 33 33 33 255 33 33 33 33 255 33 33 33 33 177 
33 33 33 33 131 33 33 33 33 226 33 33 33 33 255 33 
33 33 33 255 33 33 33 33 240 33 33 33 33 240 33 33 
33 33 255 33 33 33 33 162 33 33 33 33 170 33 33 33 
33 255 33 33 33 33 255 33 33 33 33 247 33 33 33 33 
255 33 33 33 33 226 33 33 33 33 240 33 33 33 33 191 
33 33 33 33 255 33 33 255 33 33 33 33 255 33 33 33 202 202 202 202 202 33 226 33 
33 33 33 255 33 33 33 33 255 33 33 33 33 255 33 33 
33 33 255 33 33 33 33 255 33 33 33 33 255 33 33 33 
33 255 33 33 33 33 255 33 33 33 33 255 33 33 33 33 
255 33 33 33 33 255 33 33 33 33 255 33 33 33 33 255 
33 33 33 33 255 33 33 33 33 255 33 33 33 33 255 33 
33 33 33 255 33 33 33 33 255 33 33 33 33 255 33 33 
33 33 255 33 33 33 33 255 33 33 33 33 255 33 33 33 
33 255 33 33 33 33 255 33 33 33 33 255 33 33 33 33 
255 33 33 33 33 255 33 33 33 33 255 33 33 33 33 184 
33 33 33 33 134 33 33 33 33 247 33 33 33 33 255 33 
33 33 33 255 33 33 33 33 131 33 33 33 33 131 33 33 
33 33 255 33 33 33 33 148 33 33 33 33 112 33 33 33 
33 255 33 33 33 33 255 33 33 33 33 233 33 33 33 33 
255 33 33 33 33 184 33 33 33 33 247 33 33 33 33 198 
33 33 33 33 255 33 33 255 33 33 33 33 255 33 33 33 33 33 33 202 33 33 247 33 
33 33 33 255 33 33 33 33 255 33 33 33 33 255 33 33 
33 33 255 33 33 33 33 255 33 33 33 33 255 33 33 33 
33 255 33 33 33 33 255 33 33 33 33 255 33 33 33 33 
255 33 33 33 33 255 33 33 33 33 255 33 33 33 33 255 
33 33 33 33 255 33 33 33 33 255 33 33 33 33 255 33 
33 33 33 255 33 33 33 33 255 33 33 33 33 255 33 33 
33 33 255 33 33 33 33 255 33 33 33 33 255 33 33 33 
33 255 33 33 33 33 255 33 33 33 33 255 33 33 33 33 
255 33 33 33 33 255 33 33 33 33 255 33 33 33 33 205 
33 33 33 33 162 33 33 33 33 219 33 33 33 33 255 33 
33 33 33 255 33 33 33 33 219 33 33 33 33 219 33 33 
33 33 255 33 33 33 33 155 33 33 33 33 148 33 33 33 
33 255 33 33 33 33 255 33 33 33 33 240 33 33 33 33 
255 33 33 33 33 205 33 33 33 33 233 33 33 33 33 205 
33 33 33 33 255 33 33 255 33 33 33 33 255 33 33 33 33 33 33 33 33 33 205 33 
33 33 33 255 33 33 33 33 255 33 33 33 33 255 33 33 
33 33 255 33 33 33 33 255 33 33 33 33 255 33 33 33 
33 255 33 33 33 33 255 33 33 33 33 255 33 33 33 33 
255 33 33 33 33 255 33 33 33 33 255 33 33 33 33 255 
33 33 33 33 255 33 33 33 33 255 33 33 33 33 255 33 
33 33 33 255 33 33 33 33 255 33 33 33 33 255 33 33 
33 33 255 33 33 33 33 255 33 33 33 33 255 33 33 33 
33 255 33 33 33 33 255 33 33 33 33 255 33 33 33 33 
255 33 33 33 33 255 33 33 33 33 255 33 33 33 33 255 
33 33 33 33 148 33 33 33 33 226 33 33 33 33 255 33 
33 33 33 255 33 33 33 33 240 33 33 33 33 240 33 33 
33 33 255 33 33 33 33 191 33 33 33 33 155 33 33 33 
33 255 33 33 33 33 255 33 33 33 33 148 33 33 33 33 
255 33 33 33 33 191 33 33 33 33 162 33 33 33 33 240 
33 33 33 33 255 33 33 255 33 33 33 33 255 33 202 202 202 202 202 33 33 33 226 33 
33 33 33 255 33 33 33 33 255 33 33 33 33 255 33 33 
33 33 255 33 33 33 33 255 33 33 33 33 255 33 33 33 
33 255 33 33 33 33 255 33 33 33 33 255 33 33 33 33 
255 33 33 33 33 255 33 33 33 33 255 33 33 33 33 255 
33 33 33 33 255 33 33 33 33 255 33 33 33 33 255 33 
33 33 33 255 33 33 33 33 255 33 33 33 33 255 33 33 
33 33 255 33 33 33 33 255 33 33 33 33 255 33 33 33 
33 255 33 33 33 33 255 33 33 33 33 255 33 33 33 33 
255 33 33 33 33 255 33 33 33 33 255 33 33 33 33 255 
33 33 33 33 205 33 33 33 33 184 33 33 33 33 255 33 
33 33 33 255 33 33 33 33 198 33 33 33 33 198 33 33 
33 33 255 33 33 33 33 198 33 33 33 33 177 33 33 33 
33 255 33 33 33 33 255 33 33 33 33 155 33 33 33 33 
255 33 33 33 33 212 33 33 33 33 148 33 33 33 33 247 
33 33 33 33 255 33 33 255 33 33 33 33 255 33 202 33 202 33 202 33 33 33 184 33 
33 33 33 255 33 33 33 33 255 33 33 33 33 255 33 33 
33 33 255 33 33 33 33 255 33 33 33 33 255 33 33 33 
33 255 33 33 33 33 255 33 33 33 33 255 33 33 33 33 
255 33 33 33 33 255 33 33 33 33 255 33 33 33 33 255 
33 33 33 33 255 33 33 33 33 255 33 33 33 33 255 33 
33 33 33 255 33 33 33 33 255 33 33 33 33 255 33 33 
33 33 255 33 33 33 33 255 33 33 33 33 255 33 33 33 
33 255 33 33 33 33 255 33 33 33 33 255 33 33 33 33 
255 33 33 33 33 255 33 33 33 33 255 33 33 33 33 255 
33 33 33 33 191 33 33 33 33 205 33 33 33 33 255 33 
33 33 33 255 33 33 33 33 219 33 33 33 33 219 33 33 
33 33 255 33 33 33 33 226 33 33 33 33 255 33 33 33 
33 255 33 33 33 33 255 33 33 33 33 184 33 33 33 33 
255 33 33 33 33 170 33 33 33 33 177 33 33 33 33 112 
33 33 33 33 255 33 33 255 33 33 33 33 255 33 202 33 202 33 202 33 33 33 205 33 
33 33 33 255 33 33 33 33 255 33 33 33 33 255 33 33 
33 33 255 33 33 33 33 255 33 33 33 33 255 33 33 33 
33 255 33 33 33 33 255 33 33 33 33 255 33 33 33 33 
255 33 33 33 33 255 33 33 33 33 255 33 33 33 33 255 
33 33 33 33 255 33 33 33 33 255 33 33 33 33 255 33 
33 33 33 255 33 33 33 33 255 33 33 33 33 255 33 33 
33 33 255 33 33 33 33 255 33 33 33 33 255 33 33 33 
33 255 33 33 33 33 255 33 33 33 33 255 33 33 33 33 
255 33 33 33 33 255 33 33 33 33 255 33 33 33 33 255 
33 33 33 33 219 33 33 33 33 162 33 33 33 33 255 33 
33 33 33 255 33 33 33 33 177 33 33 33 33 177 33 33 
33 33 255 33 33 33 33 170 33 33 33 33 255 33 33 33 
33 255 33 33 33 33 255 33 33 33 33 112 33 33 33 33 
255 33 33 33 33 191 33 33 33 33 134 33 33 33 33 219 
33 33 33 33 255 33 33 255 33 33 33 33 255 33 202 33 202 202 202 33 33 33 162 33 
33 33 33 255 33 33 33 33 255 33 33 33 33 255 33 33 
33 33 255 33 33 33 33 255 33 33 33 33 255 33 33 33 
33 255 33 33 33 33 255 33 33 33 33 255 33 33 33 33 
255 33 33 33 33 255 33 33 33 33 255 33 33 33 33 255 
33 33 33 33 255 33 33 33 33 255 33 33 33 33 255 33 
33 33 33 255 33 33 33 33 255 33 33 33 33 255 33 33 
33 33 255 33 33 33 33 255 33 33 33 33 255 33 33 33 
33 255 33 33 33 33 255 33 33 33 33 255 33 33 33 33 
255 33 33 33 33 255 33 33 33 33 255 33 33 33 33 255 
33 33 33 33 184 33 33 33 33 184 33 33 33 33 255 33 
33 33 33 255 33 33 33 33 198 33 33 33 33 198 33 33 
33 33 255 33 33 33 33 177 33 33 33 33 255 33 33 33 
33 255 33 33 33 33 255 33 33 33 33 131 33 33 33 33 
255 33 33 33 33 255 33 33 33 33 112 33 33 33 33 226 
33 33 33 33 255 33 33 255 33 33 33 33 255 33 33 33 33 33 33 33 33 33 184 33 
33 33 33 255 33 33 33 33 255 33 33 33 33 255 33 33 
33 33 255 33 33 33 33 255 33 33 33 33 255 33 33 33 
33 255 33 33 33 33 255 33 33 33 33 255 33 33 33 33 
255 33 33 33 33 255 33 33 33 33 255 33 33 33 33 255 
33 33 33 33 255 33 33 33 33 255 33 33 33 33 255 33 
33 33 33 255 33 33 33 33 255 33 33 33 33 255 33 33 
33 33 255 33 33 33 33 255 33 33 33 33 255 33 33 33 
33 255 33 33 33 33 255 33 33 33 33 255 33 33 33 33 
255 33 33 33 33 255 33 33 33 33 255 33 33 33 33 255 
33 33 33 33 198 33 33 33 33 134 33 33 33 33 255 33 
33 33 33 255 33 33 33 33 155 33 33 33 33 240 33 33 
33 33 255 33 33 33 33 198 33 33 33 33 255 33 33 33 
33 255 33 33 33 33 255 33 33 33 33 155 33 33 33 33 
255 33 33 33 33 255 33 33 33 33 148 33 33 33 33 247 
33 33 33 33 255 33 33 255 33 33 33 33 255 33 202 202 202 33 33 33 33 33 134 33 
33 33 33 255 33 33 33 33 255 33 33 33 33 255 33 33 
33 33 255 33 33 33 33 255 33 33 33 33 255 33 33 33 
33 255 33 33 33 33 255 33 33 33 33 255 33 33 33 33 
255 33 33 33 33 255 33 33 33 33 255 33 33 33 33 255 
33 33 33 33 255 33 33 33 33 255 33 33 33 33 255 33 
33 33 33 255 33 33 33 33 255 33 33 33 33 255 33 33 
33 33 255 33 33 33 33 255 33 33 33 33 255 33 33 33 
33 255 33 33 33 33 255 33 33 33 33 255 33 33 33 33 
255 33 33 33 33 255 33 33 33 33 255 33 33 33 33 255 
33 33 33 33 205 33 33 33 33 162 33 33 33 33 255 33 
33 33 33 255 33 33 33 33 177 33 33 33 33 247 33 33 
33 33 255 33 33 33 33 205 33 33 33 33 255 33 33 33 
33 255 33 33 33 33 255 33 33 33 33 162 33 33 33 33 
255 33 33 33 33 255 33 33 33 33 155 33 33 33 33 233 
33 33 33 33 255 33 33 255 33 33 33 33 255 33 202 33 202 33 33 33 33 33 162 33 
33 33 33 255 33 33 33 33 255 33 33 33 33 255 33 33 
33 33 255 33 33 33 33 255 33 33 33 33 255 33 33 33 
33 255 33 33 33 33 255 33 33 33 33 255 33 33 33 33 
255 33 33 33 33 255 33 33 33 33 255 33 33 33 33 255 
33 33 33 33 255 33 33 33 33 255 33 33 33 33 255 33 
33 33 33 255 33 33 33 33 255 33 33 33 33 255 33 33 
33 33 255 33 33 33 33 255 33 33 33 33 255 33 33 33 
33 255 33 33 33 33 255 33 33 33 33 255 33 33 33 33 
255 33 33 33 33 255 33 33 33 33 255 33 33 33 33 255 
33 33 33 33 162 33 33 33 33 255 33 33 33 33 255 33 
33 33 33 255 33 33 33 33 131 33 33 33 33 205 33 33 
33 33 255 33 33 33 33 191 33 33 33 33 255 33 33 33 
33 255 33 33 33 33 255 33 33 33 33 148 33 33 33 33 
255 33 33 33 33 255 33 33 33 33 162 33 33 33 33 240 
33 33 33 33 255 33 33 255 33 33 33 33 255 33 202 33 202 33 33 33 33 33 148 33 
33 33 33 255 33 33 33 33 255 33 33 33 33 255 33 33 
33 33 255 33 33 33 33 255 33 33 33 33 255 33 33 33 
33 255 33 33 33 33 255 33 33 33 33 255 33 33 33 33 
255 33 33 33 33 255 33 33 33 33 255 33 33 33 33 255 
33 33 33 33 255 33 33 33 33 255 33 33 33 33 255 33 
33 33 33 255 33 33 33 33 255 33 33 33 33 255 33 33 
33 33 255 33 33 33 33 255 33 33 33 33 255 33 33 33 
33 255 33 33 33 33 255 33 33 33 33 255 33 33 33 33 
255 33 33 33 33 255 33 33 33 33 255 33 33 33 33 255 
33 33 33 33 184 33 33 33 33 255 33 33 33 33 255 33 
33 33 33 255 33 33 33 33 155 33 33 33 33 226 33 33 
33 33 255 33 33 33 33 155 33 33 33 33 255 33 33 33 
33 255 33 33 33 33 255 33 33 33 33 240 33 33 33 33 
255 33 33 33 33 255 33 33 33 33 233 33 33 33 33 205 
33 33 33 33 255 33 33 255 33 33 33 33 255 33 202 202 202 202 202 202 202 33 170 33 
33 33 33 255 33 33 33 33 255 33 33 33 33 255 33 33 
33 33 255 33 33 33 33 255 33 33 33 33 255 33 33 33 
33 255 33 33 33 33 255 33 33 33 33 255 33 33 33 33 
255 33 33 33 33 255 33 33 33 33 255 33 33 33 33 255 
33 33 33 33 255 33 33 33 33 255 33 33 33 33 255 33 
33 33 33 255 33 33 33 33 255 33 33 33 33 255 33 33 
33 33 255 33 33 33 33 255 33 33 33 33 255 33 33 33 
33 255 33 33 33 33 255 33 33 33 33 255 33 33 33 33 
255 33 33 33 33 255 33 33 33 33 255 33 33 33 33 255 
33 33 33 33 170 33 33 33 33 255 33 33 33 33 255 33 
33 33 33 255 33 33 33 33 177 33 33 33 33 184 33 33 
33 33 255 33 33 33 33 162 33 33 33 33 255 33 33 33 
33 255 33 33 33 33 255 33 33 33 33 247 33 33 33 33 
255 33 33 33 33 255 33 33 33 33 240 33 33 33 33 191 
33 33 33 33 255 33 33 255 33 33 33 33 255 33 33 33 33 33 33 33 33 33 198 33 
33 33 33 255 33 33 33 33 255 33 33 33 33 255 33 33 
33 33 255 33 33 33 33 255 33 33 33 33 255 33 33 33 
33 255 33 33 33 33 255 33 33 33 33 255 33 33 33 33 
255 33 33 33 33 255 33 33 33 33 255 33 33 33 33 255 
33 33 33 33 255 33 33 33 33 255 33 33 33 33 255 33 
33 33 33 255 33 33 33 33 255 33 33 33 33 255 33 33 
33 33 255 33 33 33 33 255 33 33 33 33 255 33 33 33 
33 255 33 33 33 33 255 33 33 33 33 255 33 33 33 33 
255 33 33 33 33 255 33 33 33 33 255 33 33 33 33 255 
33 33 33 33 131 33 33 33 33 255 33 33 33 33 255 33 
33 33 33 255 33 33 33 33 148 33 33 33 33 205 33 33 
33 33 255 33 33 33 33 247 33 33 33 33 255 33 33 33 
33 255 33 33 33 33 255 33 33 33 33 205 33 33 33 33 
255 33 33 33 33 255 33 33 33 33 198 33 33 33 33 148 
33 33 33 33 255 33 33 255 33 33 33 33 255 33 33 33 33 33 33 33 33 33 148 33 
33 33 33 255 33 33 33 33 255 33 33 33 33 255 33 33 
33 33 255 33 33 33 33 255 33 33 33 33 255 33 33 33 
33 255 33 33 33 33 255 33 33 33 33 255 33 33 33 33 
255 33 33 33 33 255 33 33 33 33 255 33 33 33 33 255 
33 33 33 33 255 33 33 33 33 255 33 33 33 33 255 33 
33 33 33 255 33 33 33 33 255 33 33 33 33 255 33 33 
33 33 255 33 33 33 33 255 33 33 33 33 255 33 33 33 
33 255 33 33 33 33 255 33 33 33 33 255 33 33 33 33 
255 33 33 33 33 255 33 33 33 33 255 33 33 33 33 255 
33 33 33 33 134 33 33 33 33 255 33 33 33 33 255 33 
33 33 33 255 33 33 33 33 233 33 33 33 33 162 33 33 
33 33 255 33 33 33 33 134 33 33 33 33 255 33 33 33 
33 255 33 33 33 33 255 33 33 33 33 226 33 33 33 33 
255 33 33 33 33 255 33 33 33 33 219 33 33 33 33 170 
33 33 33 33 255 33 33 255 33 33 33 33 255 33 33 33 33 33 33 33 33 33 233 33 
33 33 33 255 33 33 33 33 255 33 33 33 33 255 33 33 
33 33 255 33 33 33 33 255 33 33 33 33 255 33 33 33 
33 255 33 33 33 33 255 33 33 33 33 255 33 33 33 33 
255 33 33 33 33 255 33 33 33 33 255 33 33 33 33 255 
33 33 33 33 255 33 33 33 33 255 33 33 33 33 255 33 
33 33 33 255 33 33 33 33 255 33 33 33 33 255 33 33 
33 33 255 33 33 33 33 255 33 33 33 33 255 33 33 33 
33 255 33 33 33 33 255 33 33 33 33 255 33 33 33 33 
255 33 33 33 33 255 33 33 33 33 255 33 33 33 33 255 
33 33 33 33 112 33 33 33 33 255 33 33 33 33 255 33 
33 33 33 255 33 33 33 33 240 33 33 33 33 184 33 33 
33 33 255 33 33 33 33 112 33 33 33 33 255 33 33 33 
33 255 33 33 33 33 255 33 33 33 33 184 33 33 33 33 
255 33 33 33 33 255 33 33 33 33 255 33 33 33 33 177 
33 33 33 33 255 33 33 255 33 33 33 33 255 33 33 33 33 33 33 33 33 33 240 33 
33 33 33 255 33 33 33 33 255 33 33 33 33 255 33 33 
33 33 255 33 33 33 33 255 33 33 33 33 255 33 33 33 
33 255 33 33 33 33 255 33 33 33 33 255 33 33 33 33 
255 33 33 33 33 255 33 33 33 33 255 33 33 33 33 255 
33 33 33 33 255 33 33 33 33 255 33 33 33 33 255 33 
33 33 33 255 33 33 33 33 255 33 33 33 33 255 33 33 
33 33 255 33 33 33 33 255 33 33 33 33 255 33 33 33 
33 255 33 33 33 33 255 33 33 33 33 255 33 33 33 33 
255 33 33 33 33 255 33 33 33 33 255 33 33 33 33 255 
33 33 33 33 212 33 33 33 33 255 33 33 33 33 255 33 
33 33 33 255 33 33 33 33 198 33 33 33 33 134 33 33 
33 33 255 33 33 33 33 148 33 33 33 33 255 33 33 33 
33 255 33 33 33 33 255 33 33 33 33 205 33 33 33 33 
255 33 33 33 33 255 33 33 33 33 255 33 33 33 33 198 
33 33 33 33 255 33 33 255 33 33 33 33 255 33 33 33 33 202 33 33 33 33 148 33 
33 33 33 255 33 33 33 33 255 33 33 33 33 255 33 33 
33 33 255 33 33 33 33 255 33 33 33 33 255 33 33 33 
33 255 33 33 33 33 255 33 33 33 33 255 33 33 33 33 
255 33 33 33 33 255 33 33 33 33 255 33 33 33 33 255 
33 33 33 33 255 33 33 33 33 255 33 33 33 33 255 33 
33 33 33 255 33 33 33 33 255 33 33 33 33 255 33 33 
33 33 255 33 33 33 33 255 33 33 33 33 255 33 33 33 
33 255 33 33 33 33 255 33 33 33 33 255 33 33 33 33 
255 33 33 33 33 255 33 33 33 33 255 33 33 33 33 255 
33 33 33 33 233 33 33 33 33 255 33 33 33 33 255 33 
33 33 33 255 33 33 33 33 219 33 33 33 33 162 33 33 
33 33 255 33 33 33 33 233 33 33 33 33 255 33 33 33 
33 255 33 33 33 33 255 33 33 33 33 162 33 33 33 33 
255 33 33 33 33 255 33 33 33 33 255 33 33 33 33 155 
33 33 33 33 255 33 33 255 33 33 33 33 255 33 202 202 202 202 202 202 33 33 155 33 
33 33 33 255 33 33 33 33 255 33 33 33 33 255 33 33 
33 33 255 33 33 33 33 255 33 33 33 33 255 33 33 33 
33 255 33 33 33 33 255 33 33 33 33 255 33 33 33 33 
255 33 33 33 33 255 33 33 33 33 255 33 33 33 33 255 
33 33 33 33 255 33 33 33 33 255 33 33 33 33 255 33 
33 33 33 255 33 33 33 33 255 33 33 33 33 255 33 33 
33 33 255 33 33 33 33 255 33 33 33 33 255 33 33 33 
33 255 33 33 33 33 255 33 33 33 33 255 33 33 33 33 
255 33 33 33 33 255 33 33 33 33 255 33 33 33 33 255 
33 33 33 33 240 33 33 33 33 255 33 33 33 33 255 33 
33 33 33 255 33 33 33 33 177 33 33 33 33 247 33 33 
33 33 255 33 33 33 33 112 33 33 33 33 255 33 33 33 
33 255 33 33 33 33 255 33 33 33 33 184 33 33 33 33 
255 33 33 33 33 255 33 33 33 33 255 33 33 33 33 177 
33 33 33 33 255 33 33 255 33 33 33 33 255 33 33 33 33 202 33 33 190 33 240 33 
33 33 33 255 33 33 33 33 255 33 33 33 33 255 33 33 
33 33 255 33 33 33 33 255 33 33 33 33 255 33 33 33 
33 255 33 33 33 33 255 33 33 33 33 255 33 33 33 33 
255 33 33 33 33 255 33 33 33 33 255 33 33 33 33 255 
33 33 33 33 255 33 33 33 33 255 33 33 33 33 255 33 
33 33 33 255 33 33 33 33 255 33 33 33 33 255 33 33 
33 33 255 33 33 33 33 255 33 33 33 33 255 33 33 33 
33 255 33 33 33 33 255 33 33 33 33 255 33 33 33 33 
255 33 33 33 33 255 33 33 33 33 255 33 33 33 33 255 
33 33 33 33 205 33 33 33 33 255 33 33 33 33 255 33 
33 33 33 255 33 33 33 33 198 33 33 33 33 134 33 33 
33 33 255 33 33 33 33 212 33 33 33 33 255 33 33 33 
33 255 33 33 33 33 255 33 33 33 33 134 33 33 33 33 
255 33 33 33 33 255 33 33 33 33 255 33 33 33 33 131 
33 33 33 33 255 33 33 255 33 33 33 33 255 33 33 33 33 33 33 33 190 33 131 33 
33 33 33 255 33 33 33 33 255 33 33 33 33 255 33 33 
33 33 255 33 33 33 33 255 33 33 33 33 255 33 33 33 
33 255 33 33 33 33 255 33 33 33 33 255 33 33 33 33 
255 33 33 33 33 255 33 33 33 33 255 33 33 33 33 255 
33 33 33 33 255 33 33 33 33 255 33 33 33 33 255 33 
33 33 33 255 33 33 33 33 255 33 33 33 33 255 33 33 
33 33 255 33 33 33 33 255 33 33 33 33 255 33 33 33 
33 255 33 33 33 33 255 33 33 33 33 255 33 33 33 33 
255 33 33 33 33 255 33 33 33 33 255 33 33 33 33 255 
33 33 33 33 162 33 33 33 33 255 33 33 33 33 255 33 
33 33 33 255 33 33 33 33 155 33 33 33 33 226 33 33 
33 33 255 33 33 33 33 233 33 33 33 33 255 33 33 33 
33 255 33 33 33 33 255 33 33 33 33 162 33 33 33 33 
255 33 33 33 33 255 33 33 33 33 255 33 33 33 33 155 
33 33 33 33 255 33 33 255 33 33 33 33 255 33 33 33 33 33 33 190 33 33 134 33 
33 33 33 255 33 33 33 33 255 33 33 33 33 255 33 33 
33 33 255 33 33 33 33 255 33 33 33 33 255 33 33 33 
33 255 33 33 33 33 255 33 33 33 33 255 33 33 33 33 
255 33 33 33 33 255 33 33 33 33 255 33 33 33 33 255 
33 33 33 33 255 33 33 33 33 255 33 33 33 33 255 33 
33 33 33 255 33 33 33 33 255 33 33 33 33 255 33 33 
33 33 255 33 33 33 33 255 33 33 33 33 255 33 33 33 
33 255 33 33 33 33 255 33 33 33 33 255 33 33 33 33 
255 33 33 33 33 255 33 33 33 33 255 33 33 33 33 255 
33 33 33 33 148 33 33 33 33 255 33 33 33 33 255 33 
33 33 33 255 33 33 33 33 177 33 33 33 33 247 33 33 
33 33 255 33 33 33 33 255 33 33 33 33 255 33 33 33 
33 255 33 33 33 33 255 33 33 33 33 148 33 33 33 33 
255 33 33 33 33 255 33 33 33 33 255 33 33 33 33 240 
33 33 33 33 255 33 33 255 33 33 33 33 255 33 33 33 33 33 33 33 33 33 162 33 
33 33 33 255 33 33 33 33 255 33 33 33 33 255 33 33 
33 33 255 33 33 33 33 255 33 33 33 33 255 33 33 33 
33 255 33 33 33 33 255 33 33 33 33 255 33 33 33 33 
255 33 33 33 33 255 33 33 33 33 255 33 33 33 33 255 
33 33 33 33 255 33 33 33 33 255 33 33 33 33 255 33 
33 33 33 255 33 33 33 33 255 33 33 33 33 255 33 33 
33 33 255 33 33 33 33 255 33 33 33 33 255 33 33 33 
33 255 33 33 33 33 255 33 33 33 33 255 33 33 33 33 
255 33 33 33 33 255 33 33 33 33 255 33 33 33 33 255 
33 33 33 33 233 33 33 33 33 255 33 33 33 33 255 33 
33 33 33 255 33 33 33 33 131 33 33 33 33 148 33 33 
33 33 255 33 33 33 33 255 33 33 33 33 255 33 33 33 
33 255 33 33 33 33 255 33 33 33 33 170 33 33 33 33 
255 33 33 33 33 255 33 33 33 33 255 33 33 33 33 131 
33 33 33 33 255 33 33 255 33 33 33 33 255 33 202 202 202 202 202 33 33 33 247 33 
33 33 33 255 33 33 33 33 255 33 33 33 33 255 33 33 
33 33 255 33 33 33 33 255 33 33 33 33 255 33 33 33 
33 255 33 33 33 33 255 33 33 33 33 255 33 33 33 33 
255 33 33 33 33 255 33 33 33 33 255 33 33 33 33 255 
33 33 33 33 255 33 33 33 33 255 33 33 33 33 255 33 
33 33 33 255 33 33 33 33 255 33 33 33 33 255 33 33 
33 33 255 33 33 33 33 255 33 33 33 33 255 33 33 33 
33 255 33 33 33 33 255 33 33 33 33 255 33 33 33 33 
255 33 33 33 33 255 33 33 33 33 255 33 33 33 33 255 
33 33 33 33 112 33 33 33 33 255 33 33 33 33 255 33 
33 33 33 255 33 33 33 33 155 33 33 33 33 155 33 33 
33 33 255 33 33 33 33 255 33 33 33 33 255 33 33 33 
33 255 33 33 33 33 255 33 33 33 33 255 33 33 33 33 
255 33 33 33 33 255 33 33 33 33 255 33 33 33 33 134 
33 33 33 33 255 33 33 255 33 33 33 33 255 33 33 33 33 33 33 202 33 33 134 33 
33 33 33 255 33 33 33 33 255 33 33 33 33 255 33 33 
33 33 255 33 33 33 33 255 33 33 33 33 255 33 33 33 
33 255 33 33 33 33 255 33 33 33 33 255 33 33 33 33 
255 33 33 33 33 255 33 33 33 33 255 33 33 33 33 255 
33 33 33 33 255 33 33 33 33 255 33 33 33 33 255 33 
33 33 33 255 33 33 33 33 255 33 33 33 33 255 33 33 
33 33 255 33 33 33 33 255 33 33 33 33 255 33 33 33 
33 255 33 33 33 33 255 33 33 33 33 255 33 33 33 33 
255 33 33 33 33 255 33 33 33 33 255 33 33 33 33 255 
33 33 33 33 131 33 33 33 33 255 33 33 33 33 255 33 
33 33 33 255 33 33 33 33 240 33 33 33 33 240 33 33 
33 33 255 33 33 33 33 255 33 33 33 33 255 33 33 33 
33 255 33 33 33 33 255 33 33 33 33 255 33 33 33 33 
255 33 33 33 33 255 33 33 33 33 255 33 33 33 33 162 
33 33 33 33 255 33 33 255 33 33 33 33 255 33 33 33 33 33 33 202 33 33 112 33 
33 33 33 255 33 33 33 33 255 33 33 33 33 255 33 33 
33 33 255 33 33 33 33 255 33 33 33 33 255 33 33 33 
33 255 33 33 33 33 255 33 33 33 33 255 33 33 33 33 
255 33 33 33 33 255 33 33 33 33 255 33 33 33 33 255 
33 33 33 33 255 33 33 33 33 255 33 33 33 33 255 33 
33 33 33 255 33 33 33 33 255 33 33 33 33 255 33 33 
33 33 255 33 33 33 33 255 33 33 33 33 255 33 33 33 
33 255 33 33 33 33 255 33 33 33 33 255 33 33 33 33 
255 33 33 33 33 255 33 33 33 33 255 33 33 33 33 255 
33 33 33 33 155 33 33 33 33 255 33 33 33 33 255 33 
33 33 33 255 33 33 33 33 131 33 33 33 33 131 33 33 
33 33 255 33 33 33 33 255 33 33 33 33 255 33 33 33 
33 255 33 33 33 33 255 33 33 33 33 255 33 33 33 33 
255 33 33 33 33 255 33 33 33 33 255 33 33 33 33 255 
33 33 33 33 255 33 33 255 33 33 33 33 255 33 33 33 33 33 190 33 33 33 148 33 
33 33 33 255 33 33 33 33 255 33 33 33 33 255 33 33 
33 33 255 33 33 33 33 255 33 33 33 33 255 33 33 33 
33 255 33 33 33 33 255 33 33 33 33 255 33 33 33 33 
255 33 33 33 33 255 33 33 33 33 255 33 33 33 33 255 
33 33 33 33 255 33 33 33 33 255 33 33 33 33 255 33 
33 33 33 255 33 33 33 33 255 33 33 33 33 255 33 33 
33 33 255 33 33 33 33 255 33 33 33 33 255 33 33 33 
33 255 33 33 33 33 255 33 33 33 33 255 33 33 33 33 
255 33 33 33 33 255 33 33 33 33 255 33 33 33 33 255 
33 33 33 33 240 33 33 33 33 255 33 33 33 33 255 33 
33 33 33 255 33 33 33 33 219 33 33 33 33 219 33 33 
33 33 255 33 33 33 33 255 33 33 33 33 255 33 33 33 
33 255 33 33 33 33 255 33 33 33 33 255 33 33 33 33 
255 33 33 33 33 255 33 33 33 33 255 33 33 33 33 255 
33 33 33 33 255 33 33 255 33 33 33 33 255 33 33 33 33 33 33 33 33 33 233 33 
33 33 33 255 33 33 33 33 255 33 33 33 33 255 33 33 
33 33 255 33 33 33 33 255 33 33 33 33 255 33 33 33 
33 255 33 33 33 33 255 33 33 33 33 255 33 33 33 33 
255 33 33 33 33 255 33 33 33 33 255 33 33 33 33 255 
33 33 33 33 255 33 33 33 33 255 33 33 33 33 255 33 
33 33 33 255 33 33 33 33 255 33 33 33 33 255 33 33 
33 33 255 33 33 33 33 255 33 33 33 33 255 33 33 33 
33 255 33 33 33 33 255 33 33 33 33 255 33 33 33 33 
255 33 33 33 33 255 33 33 33 33 255 33 33 33 33 255 
33 33 33 33 131 33 33 33 33 255 33 33 33 33 255 33 
33 33 33 255 33 33 33 33 240 33 33 33 33 240 33 33 
33 33 255 33 33 33 33 255 33 33 33 33 255 33 33 33 
33 255 33 33 33 33 255 33 33 33 33 255 33 33 33 33 
255 33 33 33 33 255 33 33 33 33 255 33 33 33 33 255 
33 33 33 33 255 33 33 255 33 33 33 33 255 33 202 202 202 202 202 33 33 33 112 33 
33 33 33 255 33 33 33 33 255 33 33 33 33 255 33 33 
33 33 255 33 33 33 33 255 33 33 33 33 255 33 33 33 
33 255 33 33 33 33 255 33 33 33 33 255 33 33 33 33 
255 33 33 33 33 255 33 33 33 33 255 33 33 33 33 255 
33 33 33 33 255 33 33 33 33 255 33 33 33 33 255 33 
33 33 33 255 33 33 33 33 255 33 33 33 33 255 33 33 
33 33 255 33 33 33 33 255 33 33 33 33 255 33 33 33 
33 255 33 33 33 33 255 33 33 33 33 255 33 33 33 33 
255 33 33 33 33 255 33 33 33 33 255 33 33 33 33 255 
33 33 33 33 134 33 33 33 33 255 33 33 33 33 255 33 
33 33 33 255 33 33 33 33 162 33 33 33 33 198 33 33 
33 33 255 33 33 33 33 255 33 33 33 33 255 33 33 33 
33 255 33 33 33 33 255 33 33 33 33 255 33 33 33 33 
255 33 33 33 33 255 33 33 33 33 255 33 33 33 33 255 
33 33 33 33 255 33 33 255 33 33 33 33 255 33 202 33 33 33 202 33 33 33 212 33 
33 33 33 255 33 33 33 33 255 33 33 33 33 255 33 33 
33 33 255 33 33 33 33 255 33 33 33 33 255 33 33 33 
33 255 33 33 33 33 255 33 33 33 33 255 33 33 33 33 
255 33 33 33 33 255 33 33 33 33 255 33 33 33 33 255 
33 33 33 33 255 33 33 33 33 255 33 33 33 33 255 33 
33 33 33 255 33 33 33 33 255 33 33 33 33 255 33 33 
33 33 255 33 33 33 33 255 33 33 33 33 255 33 33 33 
33 255 33 33 33 33 255 33 33 33 33 255 33 33 33 33 
255 33 33 33 33 255 33 33 33 33 255 33 33 33 33 255 
33 33 33 33 162 33 33 33 33 255 33 33 33 33 255 33 
33 33 33 255 33 33 33 33 148 33 33 33 33 219 33 33 
33 33 255 33 33 33 33 255 33 33 33 33 255 33 33 33 
33 255 33 33 33 33 255 33 33 33 33 255 33 33 33 33 
255 33 33 33 33 255 33 33 33 33 255 33 33 33 33 255 
33 33 33 33 255 33 33 255 33 33 33 33 255 33 202 33 33 33 202 33 33 33 233 33 
33 33 33 255 33 33 33 33 255 33 33 33 33 255 33 33 
33 33 255 33 33 33 33 255 33 33 33 33 255 33 33 33 
33 255 33 33 33 33 255 33 33 33 33 255 33 33 33 33 
255 33 33 33 33 255 33 33 33 33 255 33 33 33 33 255 
33 33 33 33 255 33 33 33 33 255 33 33 33 33 255 33 
33 33 33 255 33 33 33 33 255 33 33 33 33 255 33 33 
33 33 255 33 33 33 33 255 33 33 33 33 255 33 33 33 
33 255 33 33 33 33 255 33 33 33 33 255 33 33 33 33 
255 33 33 33 33 255 33 33 33 33 255 33 33 33 33 255 
33 33 33 33 247 33 33 33 33 255 33 33 33 33 255 33 
33 33 33 255 33 33 33 33 233 33 33 33 33 177 33 33 
33 33 255 33 33 33 33 255 33 33 33 33 255 33 33 33 
33 255 33 33 33 33 255 33 33 33 33 255 33 33 33 33 
255 33 33 33 33 255 33 33 33 33 255 33 33 33 33 255 
33 33 33 33 255 33 33 255 33 33 33 33 255 33 202 202 202 202 202 33 33 33 240 33 
33 33 33 255 33 33 33 33 255 33 33 33 33 255 33 33 
33 33 255 33 33 33 33 255 33 33 33 33 255 33 33 33 
33 255 33 33 33 33 255 33 33 33 33 255 33 33 33 33 
255 33 33 33 33 255 33 33 33 33 255 33 33 33 33 255 
33 33 33 33 255 33 33 33 33 255 33 33 33 33 255 33 
33 33 33 255 33 33 33 33 255 33 33 33 33 255 33 33 
33 33 255 33 33 33 33 255 33 33 33 33 255 33 33 33 
33 255 33 33 33 33 255 33 33 33 33 255 33 33 33 33 
255 33 33 33 33 255 33 33 33 33 255 33 33 33 33 255 
33 33 33 33 134 33 33 33 33 255 33 33 33 33 255 33 
33 33 33 255 33 33 33 33 112 33 33 33 33 198 33 33 
33 33 255 33 33 33 33 255 33 33 33 33 255 33 33 33 
33 255 33 33 33 33 255 33 33 33 33 255 33 33 33 33 
255 33 33 33 33 255 33 33 33 33 255 33 33 33 33 255 
33 33 33 33 255 33 33 255 33 33 33 33 255 33 33 33 33 33 33 33 33 33 131 33 
33 33 33 255 33 33 33 33 255 33 33 33 33 255 33 33 
33 33 255 33 33 33 33 255 33 33 33 33 255 33 33 33 
33 255 33 33 33 33 255 33 33 33 33 255 33 33 33 33 
255 33 33 33 33 255 33 33 33 33 255 33 33 33 33 255 
33 33 33 33 255 33 33 33 33 255 33 33 33 33 255 33 
33 33 33 255 33 33 33 33 255 33 33 33 33 255 33 33 
33 33 255 33 33 33 33 255 33 33 33 33 255 33 33 33 
33 255 33 33 33 33 255 33 33 33 33 255 33 33 33 33 
255 33 33 33 33 255 33 33 33 33 255 33 33 33 33 255 
33 33 33 33 112 33 33 33 33 255 33 33 33 33 255 33 
33 33 33 255 33 33 33 33 212 33 33 33 33 155 33 33 
33 33 255 33 33 33 33 255 33 33 33 33 255 33 33 33 
33 255 33 33 33 33 255 33 33 33 33 255 33 33 33 33 
255 33 33 33 33 255 33 33 33 33 255 33 33 33 33 255 
33 33 33 33 255 33 33 255 33 33 33 33 255 33 202 202 202 202 33 33 33 33 219 33 
33 33 33 255 33 33 33 33 255 33 33 33 33 255 33 33 
33 33 255 33 33 33 33 255 33 33 33 33 255 33 33 33 
33 255 33 33 33 33 255 33 33 33 33 255 33 33 33 33 
255 33 33 33 33 255 33 33 33 33 255 33 33 33 33 255 
33 33 33 33 255 33 33 33 33 255 33 33 33 33 255 33 
33 33 33 255 33 33 33 33 255 33 33 33 33 255 33 33 
33 33 255 33 33 33 33 255 33 33 33 33 255 33 33 33 
33 255 33 33 33 33 255 33 33 33 33 255 33 33 33 33 
255 33 33 33 33 255 33 33 33 33 255 33 33 33 33 255 
33 33 33 33 148 33 33 33 33 255 33 33 33 33 255 33 
33 33 33 255 33 33 33 33 233 33 33 33 33 177 33 33 
33 33 255 33 33 33 33 255 33 33 33 33 255 33 33 33 
33 255 33 33 33 33 255 33 33 33 33 255 33 33 33 33 
255 33 33 33 33 255 33 33 33 33 255 33 33 33 33 255 
33 33 33 33 255 33 33 255 33 33 33 33 255 33 33 33 33 33 202 33 33 33 240 33 
33 33 33 255 33 33 33 33 255 33 33 33 33 255 33 33 
33 33 255 33 33 33 33 255 33 33 33 33 255 33 33 33 
33 255 33 33 33 33 255 33 33 33 33 255 33 33 33 33 
255 33 33 33 33 255 33 33 33 33 255 33 33 33 33 255 
33 33 33 33 255 33 33 33 33 255 33 33 33 33 255 33 
33 33 33 255 33 33 33 33 255 33 33 33 33 255 33 33 
33 33 255 33 33 33 33 255 33 33 33 33 255 33 33 33 
33 255 33 33 33 33 255 33 33 33 33 255 33 33 33 33 
255 33 33 33 33 255 33 33 33 33 255 33 33 33 33 255 
33 33 33 33 233 33 33 33 33 255 33 33 33 33 255 33 
33 33 33 255 33 33 33 33 191 33 33 33 33 131 33 33 
33 33 255 33 33 33 33 255 33 33 33 33 255 33 33 33 
33 255 33 33 33 33 255 33 33 33 33 255 33 33 33 33 
255 33 33 33 33 255 33 33 33 33 255 33 33 33 33 255 
33 33 33 33 255 33 33 255 33 33 33 33 255 33 33 202 202 202 33 33 33 33 198 33 
33 33 33 255 33 33 33 33 255 33 33 33 33 255 33 33 
33 33 255 33 33 33 33 255 33 33 33 33 255 33 33 33 
33 255 33 33 33 33 255 33 33 33 33 255 33 33 33 33 
255 33 33 33 33 255 33 33 33 33 255 33 33 33 33 255 
33 33 33 33 255 33 33 33 33 255 33 33 33 33 255 33 
33 33 33 255 33 33 33 33 255 33 33 33 33 255 33 33 
33 33 255 33 33 33 33 255 33 33 33 33 255 33 33 33 
33 255 33 33 33 33 255 33 33 33 33 255 33 33 33 33 
255 33 33 33 33 255 33 33 33 33 255 33 33 33 33 255 
33 33 33 33 112 33 33 33 33 255 33 33 33 33 255 33 
33 33 33 255 33 33 33 33 212 33 33 33 33 155 33 33 
33 33 255 33 33 33 33 255 33 33 33 33 255 33 33 33 
33 255 33 33 33 33 255 33 33 33 33 255 33 33 33 33 
255 33 33 33 33 255 33 33 33 33 255 33 33 33 33 255 
33 33 33 33 255 33 33 255 33 33 33 33 255 33 33 33 33 33 202 33 33 33 219 33 
33 33 33 255 33 33 33 33 255 33 33 33 33 255 33 33 
33 33 255 33 33 33 33 255 33 33 33 33 255 33 33 33 
33 255 33 33 33 33 255 33 33 33 33 255 33 33 33 33 
255 33 33 33 33 255 33 33 33 33 255 33 33 33 33 255 
33 33 33 33 255 33 33 33 33 255 33 33 33 33 255 33 
33 33 33 255 33 33 33 33 255 33 33 33 33 255 33 33 
33 33 255 33 33 33 33 255 33 33 33 33 255 33 33 33 
33 255 33 33 33 33 255 33 33 33 33 255 33 33 33 33 
255 33 33 33 33 255 33 33 33 33 255 33 33 33 33 255 
33 33 33 33 131 33 33 33 33 255 33 33 33 33 255 33 
33 33 33 255 33 33 33 33 170 33 33 33 33 240 33 33 
33 33 255 33 33 33 33 255 33 33 33 33 255 33 33 33 
33 255 33 33 33 33 255 33 33 33 33 255 33 33 33 33 
255 33 33 33 33 255 33 33 33 33 255 33 33 33 33 255 
33 33 33 33 255 33 33 255 33 33 33 33 255 33 202 202 202 202 33 33 33 33 226 33 
33 33 33 255 33 33 33 33 255 33 33 33 33 255 33 33 
33 33 255 33 33 33 33 255 33 33 33 33 255 33 33 33 
33 255 33 33 33 33 255 33 33 33 33 255 33 33 33 33 
255 33 33 33 33 255 33 33 33 33 255 33 33 33 33 255 
33 33 33 33 255 33 33 33 33 255 33 33 33 33 255 33 
33 33 33 255 33 33 33 33 255 33 33 33 33 255 33 33 
33 33 255 33 33 33 33 255 33 33 33 33 255 33 33 33 
33 255 33 33 33 33 255 33 33 33 33 255 33 33 33 33 
255 33 33 33 33 255 33 33 33 33 255 33 33 33 33 255 
33 33 33 33 155 33 33 33 33 255 33 33 33 33 255 33 
33 33 33 255 33 33 33 33 191 33 33 33 33 131 33 33 
33 33 255 33 33 33 33 255 33 33 33 33 255 33 33 33 
33 255 33 33 33 33 255 33 33 33 33 255 33 33 33 33 
255 33 33 33 33 255 33 33 33 33 255 33 33 33 33 255 
33 33 33 33 255 33 33 255 33 33 33 33 255 33 33 33 33 33 33 33 33 33 247 33 
33 33 33 255 33 33 33 33 255 33 33 33 33 255 33 33 
33 33 255 33 33 33 33 255 33 33 33 33 255 33 33 33 
33 255 33 33 33 33 255 33 33 33 33 255 33 33 33 33 
255 33 33 33 33 255 33 33 33 33 255 33 33 33 33 255 
33 33 33 33 255 33 33 33 33 255 33 33 33 33 255 33 
33 33 33 255 33 33 33 33 255 33 33 33 33 255 33 33 
33 33 255 33 33 33 33 255 33 33 33 33 255 33 33 33 
33 255 33 33 33 33 255 33 33 33 33 255 33 33 33 33 
255 33 33 33 33 255 33 33 33 33 255 33 33 33 33 255 
33 33 33 33 240 33 33 33 33 255 33 33 33 33 255 33 
33 33 33 255 33 33 33 33 148 33 33 33 33 155 33 33 
33 33 255 33 33 33 33 255 33 33 33 33 255 33 33 33 
33 255 33 33 33 33 255 33 33 33 33 255 33 33 33 33 
255 33 33 33 33 255 33 33 33 33 255 33 33 33 33 255 
33 33 33 33 255 33 33 255 33 33 33 33 255 33 33 33 33 33 33 33 33 33 205 33 
33 33 33 255 33 33 33 33 255 33 33 33 33 255 33 33 
33 33 255 33 33 33 33 255 33 33 33 33 255 33 33 33 
33 255 33 33 33 33 255 33 33 33 33 255 33 33 33 33 
255 33 33 33 33 255 33 33 33 33 255 33 33 33 33 255 
33 33 33 33 255 33 33 33 33 255 33 33 33 33 255 33 
33 33 33 255 33 33 33 33 255 33 33 33 33 255 33 33 
33 33 255 33 33 33 33 255 33 33 33 33 255 33 33 33 
33 255 33 33 33 33 255 33 33 33 33 255 33 33 33 33 
255 33 33 33 33 255 33 33 33 33 255 33 33 33 33 255 
33 33 33 33 131 33 33 33 33 255 33 33 33 33 255 33 
33 33 33 255 33 33 33 33 170 33 33 33 33 112 33 33 
33 33 255 33 33 33 33 255 33 33 33 33 255 33 33 33 
33 255 33 33 33 33 255 33 33 33 33 255 33 33 33 33 
255 33 33 33 33 255 33 33 33 33 255 33 33 33 33 255 
33 33 33 33 255 33 33 255 33 33 33 33 255 33 33 33 33 33 33 33 33 33 226 33 
33 33 33 255 33 33 33 33 255 33 33 33 33 255 33 33 
33 33 255 33 33 33 33 255 33 33 33 33 255 33 33 33 
33 255 33 33 33 33 255 33 33 33 33 255 33 33 33 33 
255 33 33 33 33 255 33 33 33 33 255 33 33 33 33 255 
33 33 33 33 255 33 33 33 33 255 33 33 33 33 255 33 
33 33 33 255 33 33 33 33 255 33 33 33 33 255 33 33 
33 33 255 33 33 33 33 255 33 33 33 33 255 33 33 33 
33 255 33 33 33 33 255 33 33 33 33 255 33 33 33 33 
255 33 33 33 33 255 33 33 33 33 255 33 33 33 33 255 
33 33 33 33 134 33 33 33 33 255 33 33 33 33 255 33 
33 33 33 255 33 33 33 33 112 33 33 33 33 212 33 33 
33 33 255 33 33 33 33 255 33 33 33 33 255 33 33 33 
33 255 33 33 33 33 255 33 33 33 33 255 33 33 33 33 
255 33 33 33 33 255 33 33 33 33 255 33 33 33 33 255 
33 33 33 33 255 33 33 255 33 33 33 33 255 33 33 33 33 33 33 33 33 33 212 33 
33 33 33 255 33 33 33 33 255 33 33 33 33 255 33 33 
33 33 255 33 33 33 33 255 33 33 33 33 255 33 33 33 
33 255 33 33 33 33 255 33 33 33 33 255 33 33 33 33 
255 33 33 33 33 255 33 33 33 33 255 33 33 33 33 255 
33 33 33 33 255 33 33 33 33 255 33 33 33 33 255 33 
33 33 33 255 33 33 33 33 255 33 33 33 33 255 33 33 
33 33 255 33 33 33 33 255 33 33 33 33 255 33 33 33 
33 255 33 33 33 33 255 33 33 33 33 255 33 33 33 33 
255 33 33 33 33 255 33 33 33 33 255 33 33 33 33 255 
33 33 33 33 162 33 33 33 33 255 33 33 33 33 255 33 
33 33 33 255 33 33 33 33 148 33 33 33 33 219 33 33 
33 33 255 33 33 33 33 255 33 33 33 33 255 33 33 33 
33 255 33 33 33 33 255 33 33 33 33 255 33 33 33 33 
255 33 33 33 33 255 33 33 33 33 255 33 33 33 33 255 
33 33 33 33 255 33 33 255 33 33 33 33 255 33 33 33 33 33 33 33 33 33 233 33 
33 33 33 255 33 33 33 33 255 33 33 33 33 255 33 33 
33 33 255 33 33 33 33 255 33 33 33 33 255 33 33 33 
33 255 33 33 33 33 255 33 33 33 33 255 33 33 33 33 
255 33 33 33 33 255 33 33 33 33 255 33 33 33 33 255 
33 33 33 33 255 33 33 33 33 255 33 33 33 33 255 33 
33 33 33 255 33 33 33 33 255 33 33 33 33 255 33 33 
33 33 255 33 33 33 33 255 33 33 33 33 255 33 33 33 
33 255 33 33 33 33 255 33 33 33 33 255 33 33 33 33 
255 33 33 33 33 255 33 33 33 33 255 33 33 33 33 255 
33 33 33 33 247 33 33 33 33 255 33 33 33 33 255 33 
33 33 33 255 33 33 33 33 233 33 33 33 33 177 33 33 
33 33 255 33 33 33 33 255 33 33 33 33 255 33 33 33 
33 255 33 33 33 33 255 33 33 33 33 255 33 33 33 33 
255 33 33 33 33 255 33 33 33 33 255 33 33 33 33 255 
33 33 33 33 255 33 33 255 33 33 33 33 255 33 255 33 33 33 33 33 33 33 191 33 
33 33 33 255 33 33 33 33 255 33 33 33 33 255 33 33 
33 33 255 33 33 33 33 255 33 33 33 33 255 33 33 33 
33 255 33 33 33 33 255 33 33 33 33 255 33 33 33 33 
255 33 33 33 33 255 33 33 33 33 255 33 33 33 33 255 
33 33 33 33 255 33 33 33 33 255 33 33 33 33 255 33 
33 33 33 255 33 33 33 33 255 33 33 33 33 255 33 33 
33 33 255 33 33 33 33 255 33 33 33 33 255 33 33 33 
33 255 33 33 33 33 255 33 33 33 33 255 33 33 33 33 
255 33 33 33 33 255 33 33 33 33 255 33 33 33 33 255 
33 33 33 33 134 33 33 33 33 255 33 33 33 33 255 33 
33 33 33 255 33 33 33 33 112 33 33 33 33 198 33 33 
33 33 255 33 33 33 33 255 33 33 33 33 255 33 33 33 
33 255 33 33 33 33 255 33 33 33 33 255 33 33 33 33 
255 33 33 33 33 255 33 33 33 33 255 33 33 33 33 255 
33 33 33 33 255 33 33 255 33 33 33 33 255 33 33 192 192 33 33 33 33 33 212 33 
33 33 33 255 33 33 33 33 255 33 33 33 33 255 33 33 
33 33 255 33 33 33 33 255 33 33 33 33 255 33 33 33 
33 255 33 33 33 33 255 33 33 33 33 255 33 33 33 33 
255 33 33 33 33 255 33 33 33 33 255 33 33 33 33 255 
33 33 33 33 255 33 33 33 33 255 33 33 33 33 255 33 
33 33 33 255 33 33 33 33 255 33 33 33 33 255 33 33 
33 33 255 33 33 33 33 255 33 33 33 33 255 33 33 33 
33 255 33 33 33 33 255 33 33 33 33 255 33 33 33 33 
255 33 33 33 33 255 33 33 33 33 255 33 33 33 33 255 
33 33 33 33 112 33 33 33 33 255 33 33 33 33 255 33 
33 33 33 255 33 33 33 33 148 33 33 33 33 155 33 33 
33 33 255 33 33 33 33 255 33 33 33 33 255 33 33 33 
33 255 33 33 33 33 255 33 33 33 33 255 33 33 33 33 
255 33 33 33 33 255 33 33 33 33 255 33 33 33 33 255 
33 33 33 33 255 33 33 255 33 33 33 33 255 33 33 33 192 192 192 33 33 33 170 33 
33 33 33 255 33 33 33 33 255 33 33 33 33 255 33 33 
33 33 255 33 33 33 33 255 33 33 33 33 255 33 33 33 
33 255 33 33 33 33 255 33 33 33 33 255 33 33 33 33 
255 33 33 33 33 255 33 33 33 33 255 33 33 33 33 255 
33 33 33 33 255 33 33 33 33 255 33 33 33 33 255 33 
33 33 33 255 33 33 33 33 255 33 33 33 33 255 33 33 
33 33 255 33 33 33 33 255 33 33 33 33 255 33 33 33 
33 255 33 33 33 33 255 33 33 33 33 255 33 33 33 33 
255 33 33 33 33 255 33 33 33 33 255 33 33 33 33 255 
33 33 33 33 148 33 33 33 33 255 33 33 33 33 255 33 
33 33 33 255 33 33 33 33 134 33 33 33 33 177 33 33 
33 33 255 33 33 33 33 255 33 33 33 33 255 33 33 33 
33 255 33 33 33 33 255 33 33 33 33 255 33 33 33 33 
255 33 33 33 33 255 33 33 33 33 255 33 33 33 33 255 
33 33 33 33 255 33 33 255 33 33 33 33 255 33 33 33 192 33 192 192 33 33 191 33 
33 33 33 255 33 33 33 33 255 33 33 33 33 255 33 33 
33 33 255 33 33 33 33 255 33 33 33 33 255 33 33 33 
33 255 33 33 33 33 255 33 33 33 33 255 33 33 33 33 
255 33 33 33 33 255 33 33 33 33 255 33 33 33 33 255 
33 33 33 33 255 33 33 33 33 255 33 33 33 33 255 33 
33 33 33 255 33 33 33 33 255 33 33 33 33 255 33 33 
33 33 255 33 33 33 33 255 33 33 33 33 255 33 33 33 
33 255 33 33 33 33 255 33 33 33 33 255 33 33 33 33 
255 33 33 33 33 255 33 33 33 33 255 33 33 33 33 255 
33 33 33 33 212 33 33 33 33 255 33 33 33 33 255 33 
33 33 33 255 33 33 33 33 131 33 33 33 33 131 33 33 
33 33 255 33 33 33 33 255 33 33 33 33 255 33 33 33 
33 255 33 33 33 33 255 33 33 33 33 255 33 33 33 33 
255 33 33 33 33 255 33 33 33 33 255 33 33 33 33 255 
33 33 33 33 255 33 33 255 33 33 33 33 255 33 33 33 192 33 33 33 255 33 198 33 
33 33 33 255 33 33 33 33 255 33 33 33 33 255 33 33 
33 33 255 33 33 33 33 255 33 33 33 33 255 33 33 33 
33 255 33 33 33 33 255 33 33 33 33 255 33 33 33 33 
255 33 33 33 33 255 33 33 33 33 255 33 33 33 33 255 
33 33 33 33 255 33 33 33 33 255 33 33 33 33 255 33 
33 33 33 255 33 33 33 33 255 33 33 33 33 255 33 33 
33 33 255 33 33 33 33 255 33 33 33 33 255 33 33 33 
33 255 33 33 33 33 255 33 33 33 33 255 33 33 33 33 
255 33 33 33 33 255 33 33 33 33 255 33 33 33 33 255 
33 33 33 33 219 33 33 33 33 255 33 33 33 33 255 33 
33 33 33 255 33 33 33 33 134 33 33 33 33 155 33 33 
33 33 255 33 33 33 33 255 33 33 33 33 255 33 33 33 
33 255 33 33 33 33 255 33 33 33 33 255 33 33 33 33 
255 33 33 33 33 255 33 33 33 33 255 33 33 33 33 255 
33 33 33 33 255 33 33 255 33 33 33 33 255 33 33 33 192 33 192 192 33 33 219 33 
33 33 33 255 33 33 33 33 255 33 33 33 33 255 33 33 
33 33 255 33 33 33 33 255 33 33 33 33 255 33 33 33 
33 255 33 33 33 33 255 33 33 33 33 255 33 33 33 33 
255 33 33 33 33 255 33 33 33 33 255 33 33 33 33 255 
33 33 33 33 255 33 33 33 33 255 33 33 33 33 255 33 
33 33 33 255 33 33 33 33 255 33 33 33 33 255 33 33 
33 33 255 33 33 33 33 255 33 33 33 33 255 33 33 33 
33 255 33 33 33 33 255 33 33 33 33 255 33 33 33 33 
255 33 33 33 33 255 33 33 33 33 255 33 33 33 33 255 
33 33 33 33 177 33 33 33 33 255 33 33 33 33 255 33 
33 33 33 255 33 33 33 33 226 33 33 33 33 240 33 33 
33 33 255 33 33 33 33 255 33 33 33 33 255 33 33 33 
33 255 33 33 33 33 255 33 33 33 33 255 33 33 33 33 
255 33 33 33 33 255 33 33 33 33 255 33 33 33 33 255 
33 33 33 33 255 33 33 255 33 33 33 33 255 33 33 33 192 192 192 33 33 33 177 33 
33 33 33 255 33 33 33 33 255 33 33 33 33 255 33 33 
33 33 255 33 33 33 33 255 33 33 33 33 255 33 33 33 
33 255 33 33 33 33 255 33 33 33 33 255 33 33 33 33 
255 33 33 33 33 255 33 33 33 33 255 33 33 33 33 255 
33 33 33 33 255 33 33 33 33 255 33 33 33 33 255 33 
33 33 33 255 33 33 33 33 255 33 33 33 33 255 33 33 
33 33 255 33 33 33 33 255 33 33 33 33 255 33 33 33 
33 255 33 33 33 33 255 33 33 33 33 255 33 33 33 33 
255 33 33 33 33 255 33 33 33 33 255 33 33 33 33 255 
33 33 33 33 198 33 33 33 33 255 33 33 33 33 255 33 
33 33 33 255 33 33 33 33 247 33 33 33 33 131 33 33 
33 33 255 33 33 33 33 255 33 33 33 33 255 33 33 33 
33 255 33 33 33 33 255 33 33 33 33 255 33 33 33 33 
255 33 33 33 33 255 33 33 33 33 255 33 33 33 33 255 
33 33 33 33 255 33 33 255 33 33 33 33 255 33 33 192 192 33 33 33 33 33 198 33 
33 33 33 255 33 33 33 33 255 33 33 33 33 255 33 33 
33 33 255 33 33 33 33 255 33 33 33 33 255 33 33 33 
33 255 33 33 33 33 255 33 33 33 33 255 33 33 33 33 
255 33 33 33 33 255 33 33 33 33 255 33 33 33 33 255 
33 33 33 33 255 33 33 33 33 255 33 33 33 33 255 33 
33 33 33 255 33 33 33 33 255 33 33 33 33 255 33 33 
33 33 255 33 33 33 33 255 33 33 33 33 255 33 33 33 
33 255 33 33 33 33 255 33 33 33 33 255 33 33 33 33 
255 33 33 33 33 255 33 33 33 33 255 33 33 33 33 255 
33 33 33 33 205 33 33 33 33 255 33 33 33 33 255 33 
33 33 33 255 33 33 33 33 205 33 33 33 33 219 33 33 
33 33 255 33 33 33 33 255 33 33 33 33 255 33 33 33 
33 255 33 33 33 33 255 33 33 33 33 255 33 33 33 33 
255 33 33 33 33 255 33 33 33 33 255 33 33 33 33 255 
33 33 33 33 255 33 33 255 33 33 33 33 255 33 255 33 33 33 33 33 33 33 205 33 
33 33 33 255 33 33 33 33 255 33 33 33 33 255 33 33 
33 33 255 33 33 33 33 255 33 33 33 33 255 33 33 33 
33 255 33 33 33 33 255 33 33 33 33 255 33 33 33 33 
255 33 33 33 33 255 33 33 33 33 255 33 33 33 33 255 
33 33 33 33 255 33 33 33 33 255 33 33 33 33 255 33 
33 33 33 255 33 33 33 33 255 33 33 33 33 255 33 33 
33 33 255 33 33 33 33 255 33 33 33 33 255 33 33 33 
33 255 33 33 33 33 255 33 33 33 33 255 33 33 33 33 
255 33 33 33 33 255 33 33 33 33 255 33 33 33 33 255 
33 33 33 33 226 33 33 33 33 255 33 33 33 33 255 33 
33 33 33 255 33 33 33 33 226 33 33 33 33 240 33 33 
33 33 255 33 33 33 33 255 33 33 33 33 255 33 33 33 
33 255 33 33 33 33 255 33 33 33 33 255 33 33 33 33 
255 33 33 33 33 255 33 33 33 33 255 33 33 33 33 255 
33 33 33 33 255 33 33 255 33 33 33 33 255 33 33 33 33 33 33 33 33 33 226 33 
33 33 33 255 33 33 33 33 255 33 33 33 33 255 33 33 
33 33 255 33 33 33 33 255 33 33 33 33 255 33 33 33 
33 255 33 33 33 33 255 33 33 33 33 255 33 33 33 33 
255 33 33 33 33 255 33 33 33 33 255 33 33 33 33 255 
33 33 33 33 255 33 33 33 33 255 33 33 33 33 255 33 
33 33 33 255 33 33 33 33 255 33 33 33 33 255 33 33 
33 33 255 33 33 33 33 255 33 33 33 33 255 33 33 33 
33 255 33 33 33 33 255 33 33 33 33 255 33 33 33 33 
255 33 33 33 33 255 33 33 33 33 255 33 33 33 33 255 
33 33 33 33 212 33 33 33 33 255 33 33 33 33 255 33 
33 33 33 255 33 33 33 33 184 33 33 33 33 198 33 33 
33 33 255 33 33 33 33 255 33 33 33 33 255 33 33 33 
33 255 33 33 33 33 255 33 33 33 33 255 33 33 33 33 
255 33 33 33 33 255 33 33 33 33 255 33 33 33 33 255 
33 33 33 33 255 33 33 255 33 33 33 33 255 33 33 33 33 33 33 33 33 33 184 33 
33 33 33 255 33 33 33 33 255 33 33 33 33 255 33 33 
33 33 255 33 33 33 33 255 33 33 33 33 255 33 33 33 
33 255 33 33 33 33 255 33 33 33 33 255 33 33 33 33 
255 33 33 33 33 255 33 33 33 33 255 33 33 33 33 255 
33 33 33 33 255 33 33 33 33 255 33 33 33 33 255 33 
33 33 33 255 33 33 33 33 255 33 33 33 33 255 33 33 
33 33 255 33 33 33 33 255 33 33 33 33 255 33 33 33 
33 255 33 33 33 33 255 33 33 33 33 255 33 33 33 33 
255 33 33 33 33 255 33 33 33 33 255 33 33 33 33 255 
33 33 33 33 134 33 33 33 33 255 33 33 33 33 255 33 
33 33 33 255 33 33 33 33 205 33 33 33 33 219 33 33 
33 33 255 33 33 33 33 255 33 33 33 33 255 33 33 33 
33 255 33 33 33 33 255 33 33 33 33 255 33 33 33 33 
255 33 33 33 33 255 33 33 33 33 255 33 33 33 33 255 
33 33 33 33 255 33 33 255 33 33 33 33 255 33 255 255 255 255 255 255 255 33 205 33 
33 33 33 255 33 33 33 33 255 33 33 33 33 255 33 33 
33 33 255 33 33 33 33 255 33 33 33 33 255 33 33 33 
33 255 33 33 33 33 255 33 33 33 33 255 33 33 33 33 
255 33 33 33 33 255 33 33 33 33 255 33 33 33 33 255 
33 33 33 33 255 33 33 33 33 255 33 33 33 33 255 33 
33 33 33 255 33 33 33 33 255 33 33 33 33 255 33 33 
33 33 255 33 33 33 33 255 33 33 33 33 255 33 33 33 
33 255 33 33 33 33 255 33 33 33 33 255 33 33 33 33 
255 33 33 33 33 255 33 33 33 33 255 33 33 33 33 255 
33 33 33 33 112 33 33 33 33 255 33 33 33 33 255 33 
33 33 33 255 33 33 33 33 255 33 33 33 33 131 33 33 
33 33 255 33 33 33 33 255 33 33 33 33 255 33 33 33 
33 255 33 33 33 33 255 33 33 33 33 255 33 33 33 33 
255 33 33 33 33 255 33 33 33 33 255 33 33 33 33 255 
33 33 33 33 255 33 33 255 33 33 33 33 255 33 33 33 33 255 33 33 33 33 191 33 
33 33 33 255 33 33 33 33 255 33 33 33 33 255 33 33 
33 33 255 33 33 33 33 255 33 33 33 33 255 33 33 33 
33 255 33 33 33 33 255 33 33 33 33 255 33 33 33 33 
255 33 33 33 33 255 33 33 33 33 255 33 33 33 33 255 
33 33 33 33 255 33 33 33 33 255 33 33 33 33 255 33 
33 33 33 255 33 33 33 33 255 33 33 33 33 255 33 33 
33 33 255 33 33 33 33 255 33 33 33 33 255 33 33 33 
33 255 33 33 33 33 255 33 33 33 33 255 33 33 33 33 
255 33 33 33 33 255 33 33 33 33 255 33 33 33 33 255 
33 33 33 33 155 33 33 33 33 255 33 33 33 33 255 33 
33 33 33 255 33 33 33 33 255 33 33 33 33 134 33 33 
33 33 255 33 33 33 33 255 33 33 33 33 255 33 33 33 
33 255 33 33 33 33 255 33 33 33 33 255 33 33 33 33 
255 33 33 33 33 255 33 33 33 33 255 33 33 33 33 255 
33 33 33 33 255 33 33 255 33 33 33 33 255 33 33 33 33 255 33 33 33 33 212 33 
33 33 33 255 33 33 33 33 255 33 33 33 33 255 33 33 
33 33 255 33 33 33 33 255 33 33 33 33 255 33 33 33 
33 255 33 33 33 33 255 33 33 33 33 255 33 33 33 33 
255 33 33 33 33 255 33 33 33 33 255 33 33 33 33 255 
33 33 33 33 255 33 33 33 33 255 33 33 33 33 255 33 
33 33 33 255 33 33 33 33 255 33 33 33 33 255 33 33 
33 33 255 33 33 33 33 255 33 33 33 33 255 33 33 33 
33 255 33 33 33 33 255 33 33 33 33 255 33 33 33 33 
255 33 33 33 33 255 33 33 33 33 255 33 33 33 33 255 
33 33 33 33 247 33 33 33 33 255 33 33 33 33 255 33 
33 33 33 255 33 33 33 33 255 33 33 33 33 226 33 33 
33 33 255 33 33 33 33 255 33 33 33 33 255 33 33 33 
33 255 33 33 33 33 255 33 33 33 33 255 33 33 33 33 
255 33 33 33 33 255 33 33 33 33 255 33 33 33 33 255 
33 33 33 33 255 33 33 255 33 33 33 33 255 33 33 33 33 255 33 33 33 33 170 33 
33 33 33 255 33 33 33 33 255 33 33 33 33 255 33 33 
33 33 255 33 33 33 33 255 33 33 33 33 255 33 33 33 
33 255 33 33 33 33 255 33 33 33 33 255 33 33 33 33 
255 33 33 33 33 255 33 33 33 33 255 33 33 33 33 255 
33 33 33 33 255 33 33 33 33 255 33 33 33 33 255 33 
33 33 33 255 33 33 33 33 255 33 33 33 33 255 33 33 
33 33 255 33 33 33 33 255 33 33 33 33 255 33 33 33 
33 255 33 33 33 33 255 33 33 33 33 255 33 33 33 33 
255 33 33 33 33 255 33 33 33 33 255 33 33 33 33 255 
33 33 33 33 134 33 33 33 33 255 33 33 33 33 255 33 
33 33 33 255 33 33 33 33 255 33 33 33 33 247 33 33 
33 33 255 33 33 33 33 255 33 33 33 33 255 33 33 33 
33 255 33 33 33 33 255 33 33 33 33 255 33 33 33 33 
255 33 33 33 33 255 33 33 33 33 255 33 33 33 33 255 
33 33 33 33 255 33 33 255 33 33 33 33 255 33 255 255 255 255 33 33 33 33 191 33 
33 33 33 255 33 33 33 33 255 33 33 33 33 255 33 33 
33 33 255 33 33 33 33 255 33 33 33 33 255 33 33 33 
33 255 33 33 33 33 255 33 33 33 33 255 33 33 33 33 
255 33 33 33 33 255 33 33 33 33 255 33 33 33 33 255 
33 33 33 33 255 33 33 33 33 255 33 33 33 33 255 33 
33 33 33 255 33 33 33 33 255 33 33 33 33 255 33 33 
33 33 255 33 33 33 33 255 33 33 33 33 255 33 33 33 
33 255 33 33 33 33 255 33 33 33 33 255 33 33 33 33 
255 33 33 33 33 255 33 33 33 33 255 33 33 33 33 255 
33 33 33 33 112 33 33 33 33 255 33 33 33 33 255 33 
33 33 33 255 33 33 33 33 255 33 33 33 33 205 33 33 
33 33 255 33 33 33 33 255 33 33 33 33 255 33 33 33 
33 255 33 33 33 33 255 33 33 33 33 255 33 33 33 33 
255 33 33 33 33 255 33 33 33 33 255 33 33 33 33 255 
33 33 33 33 255 33 33 255 33 33 33 33 255 33 33 33 33 33 33 33 33 33 198 33 
33 33 33 255 33 33 33 33 255 33 33 33 33 255 33 33 
33 33 255 33 33 33 33 255 33 33 33 33 255 33 33 33 
33 255 33 33 33 33 255 33 33 33 33 255 33 33 33 33 
255 33 33 33 33 255 33 33 33 33 255 33 33 33 33 255 
33 33 33 33 255 33 33 33 33 255 33 33 33 33 255 33 
33 33 33 255 33 33 33 33 255 33 33 33 33 255 33 33 
33 33 255 33 33 33 33 255 33 33 33 33 255 33 33 33 
33 255 33 33 33 33 255 33 33 33 33 255 33 33 33 33 
255 33 33 33 33 255 33 33 33 33 255 33 33 33 33 255 
33 33 33 33 212 33 33 33 33 255 33 33 33 33 255 33 
33 33 33 255 33 33 33 33 255 33 33 33 33 226 33 33 
33 33 255 33 33 33 33 255 33 33 33 33 255 33 33 33 
33 255 33 33 33 33 255 33 33 33 33 255 33 33 33 33 
255 33 33 33 33 255 33 33 33 33 255 33 33 33 33 255 
33 33 33 33 255 33 33 255 33 33 33 33 255 33 33 33 33 33 33 33 33 33 219 33 
33 33 33 255 33 33 33 33 255 33 33 33 33 255 33 33 
33 33 255 33 33 33 33 255 33 33 33 33 255 33 33 33 
33 255 33 33 33 33 255 33 33 33 33 255 33 33 33 33 
255 33 33 33 33 255 33 33 33 33 255 33 33 33 33 255 
33 33 33 33 255 33 33 33 33 255 33 33 33 33 255 33 
33 33 33 255 33 33 33 33 255 33 33 33 33 255 33 33 
33 33 255 33 33 33 33 255 33 33 33 33 255 33 33 33 
33 255 33 33 33 33 255 33 33 33 33 255 33 33 33 33 
255 33 33 33 33 255 33 33 33 33 255 33 33 33 33 255 
33 33 33 33 233 33 33 33 33 255 33 33 33 33 255 33 
33 33 33 255 33 33 33 33 255 33 33 33 33 184 33 33 
33 33 255 33 33 33 33 255 33 33 33 33 255 33 33 33 
33 255 33 33 33 33 255 33 33 33 33 255 33 33 33 33 
255 33 33 33 33 255 33 33 33 33 255 33 33 33 33 255 
33 33 33 33 255 33 33 255 33 33 33 33 255 33 33 255 255 255 255 33 33 33 177 33 
33 33 33 255 33 33 33 33 255 33 33 33 33 255 33 33 
33 33 255 33 33 33 33 255 33 33 33 33 255 33 33 33 
33 255 33 33 33 33 255 33 33 33 33 255 33 33 33 33 
255 33 33 33 33 255 33 33 33 33 255 33 33 33 33 255 
33 33 33 33 255 33 33 33 33 255 33 33 33 33 255 33 
33 33 33 255 33 33 33 33 255 33 33 33 33 255 33 33 
33 33 255 33 33 33 33 255 33 33 33 33 255 33 33 33 
33 255 33 33 33 33 255 33 33 33 33 255 33 33 33 33 
255 33 33 33 33 255 33 33 33 33 255 33 33 33 33 255 
33 33 33 33 240 33 33 33 33 255 33 33 33 33 255 33 
33 33 33 255 33 33 33 33 255 33 33 33 33 205 33 33 
33 33 255 33 33 33 33 255 33 33 33 33 255 33 33 33 
33 255 33 33 33 33 255 33 33 33 33 255 33 33 33 33 
255 33 33 33 33 255 33 33 33 33 255 33 33 33 33 255 
33 33 33 33 255 33 33 255 33 33 33 33 255 33 255 33 255 17 17 255 33 33 198 33 
33 33 33 255 33 33 33 33 255 33 33 33 33 255 33 33 
33 33 255 33 33 33 33 255 33 33 33 33 255 33 33 33 
33 255 33 33 33 33 255 33 33 33 33 255 33 33 33 33 
255 33 33 33 33 255 33 33 33 33 255 33 33 33 33 255 
33 33 33 33 255 33 33 33 33 255 33 33 33 33 255 33 
33 33 33 255 33 33 33 33 255 33 33 33 33 255 33 33 
33 33 255 33 33 33 33 255 33 33 33 33 255 33 33 33 
33 255 33 33 33 33 255 33 33 33 33 255 33 33 33 33 
255 33 33 33 33 255 33 33 33 33 255 33 33 33 33 255 
33 33 33 33 205 33 33 33 33 255 33 33 33 33 255 33 
33 33 33 255 33 33 33 33 255 33 33 33 33 162 33 33 
33 33 255 33 33 33 33 255 33 33 33 33 255 33 33 33 
33 255 33 33 33 33 255 33 33 33 33 255 33 33 33 33 
255 33 33 33 33 255 33 33 33 33 255 33 33 33 33 255 
33 33 33 33 255 33 33 255 33 33 33 33 255 33 255 33 255 17 17 255 33 33 155 33 
33 33 33 255 33 33 33 33 255 33 33 33 33 255 33 33 
33 33 255 33 33 33 33 255 33 33 33 33 255 33 33 33 
33 255 33 33 33 33 255 33 33 33 33 255 33 33 33 33 
255 33 33 33 33 255 33 33 33 33 255 33 33 33 33 255 
33 33 33 33 255 33 33 33 33 255 33 33 33 33 255 33 
33 33 33 255 33 33 33 33 255 33 33 33 33 255 33 33 
33 33 255 33 33 33 33 255 33 33 33 33 255 33 33 33 
33 255 33 33 33 33 255 33 33 33 33 255 33 33 33 33 
255 33 33 33 33 255 33 33 33 33 255 33 33 33 33 255 
33 33 33 33 162 33 33 33 33 255 33 33 33 33 255 33 
33 33 33 255 33 33 33 33 255 33 33 33 33 184 33 33 
33 33 255 33 33 33 33 255 33 33 33 33 255 33 33 33 
33 255 33 33 33 33 255 33 33 33 33 255 33 33 33 33 
255 33 33 33 33 255 33 33 33 33 255 33 33 33 33 255 
33 33 33 33 255 33 33 255 33 33 33 33 255 33 255 33 255 17 17 255 33 33 177 33 
33 33 33 255 33 33 33 33 255 33 33 33 33 255 33 33 
33 33 255 33 33 33 33 255 33 33 33 33 255 33 33 33 
33 255 33 33 33 33 255 33 33 33 33 255 33 33 33 33 
255 33 33 33 33 255 33 33 33 33 255 33 33 33 33 255 
33 33 33 33 255 33 33 33 33 255 33 33 33 33 255 33 
33 33 33 255 33 33 33 33 255 33 33 33 33 255 33 33 
33 33 255 33 33 33 33 255 33 33 33 33 255 33 33 33 
33 255 33 33 33 33 255 33 33 33 33 255 33 33 33 33 
255 33 33 33 33 255 33 33 33 33 255 33 33 33 33 255 
33 33 33 33 148 33 33 33 33 255 33 33 33 33 255 33 
33 33 33 255 33 33 33 33 255 33 33 33 33 134 33 33 
33 33 255 33 33 33 33 255 33 33 33 33 255 33 33 33 
33 255 33 33 33 33 255 33 33 33 33 255 33 33 33 33 
255 33 33 33 33 255 33 33 33 33 255 33 33 33 33 255 
33 33 33 33 255 33 33 255 33 33 33 33 255 33 255 33 255 17 17 255 33 33 131 33 
33 33 33 255 33 33 33 33 255 33 33 33 33 255 33 33 
33 33 255 33 33 33 33 255 33 33 33 33 255 33 33 33 
33 255 33 33 33 33 255 33 33 33 33 255 33 33 33 33 
255 33 33 33 33 255 33 33 33 33 255 33 33 33 33 255 
33 33 33 33 255 33 33 33 33 255 33 33 33 33 255 33 
33 33 33 255 33 33 33 33 255 33 33 33 33 255 33 33 
33 33 255 33 33 33 33 255 33 33 33 33 255 33 33 33 
33 255 33 33 33 33 255 33 33 33 33 255 33 33 33 33 
255 33 33 33 33 255 33 33 33 33 255 33 33 33 33 255 
33 33 33 33 233 33 33 33 33 255 33 33 33 33 255 33 
33 33 33 255 33 33 33 33 255 33 33 33 33 162 33 33 
33 33 255 33 33 33 33 255 33 33 33 33 255 33 33 33 
33 255 33 33 33 33 255 33 33 33 33 255 33 33 33 33 
255 33 33 33 33 255 33 33 33 33 255 33 33 33 33 255 
33 33 33 33 255 33 33 255 33 33 33 33 255 33 33 33 33 255 255 33 33 33 155 33 
33 33 33 255 33 33 33 33 255 33 33 33 33 255 33 33 
33 33 255 33 33 33 33 255 33 33 33 33 255 33 33 33 
33 255 33 33 33 33 255 33 33 33 33 255 33 33 33 33 
255 33 33 33 33 255 33 33 33 33 255 33 33 33 33 255 
33 33 33 33 255 33 33 33 33 255 33 33 33 33 255 33 
33 33 33 255 33 33 33 33 255 33 33 33 33 255 33 33 
33 33 255 33 33 33 33 255 33 33 33 33 255 33 33 33 
33 255 33 33 33 33 255 33 33 33 33 255 33 33 33 33 
255 33 33 33 33 255 33 33 33 33 255 33 33 33 33 255 
33 33 33 33 112 33 33 33 33 255 33 33 33 33 255 33 
33 33 33 255 33 33 33 33 255 33 33 33 33 247 33 33 
33 33 255 33 33 33 33 255 33 33 33 33 255 33 33 33 
33 255 33 33 33 33 255 33 33 33 33 255 33 33 33 33 
255 33 33 33 33 255 33 33 33 33 255 33 33 33 33 255 
33 33 33 33 255 33 33 255 33 33 33 33 255 33 33 33 33 33 33 33 33 33 162 33 
33 33 33 255 33 33 33 33 255 33 33 33 33 255 33 33 
33 33 255 33 33 33 33 255 33 33 33 33 255 33 33 33 
33 255 33 33 33 33 255 33 33 33 33 255 33 33 33 33 
255 33 33 33 33 255 33 33 33 33 255 33 33 33 33 255 
33 33 33 33 255 33 33 33 33 255 33 33 33 33 255 33 
33 33 33 255 33 33 33 33 255 33 33 33 33 255 33 33 
33 33 255 33 33 33 33 255 33 33 33 33 255 33 33 33 
33 255 33 33 33 33 255 33 33 33 33 255 33 33 33 33 
255 33 33 33 33 255 33 33 33 33 255 33 33 33 33 255 
33 33 33 33 131 33 33 33 33 255 33 33 33 33 255 33 
33 33 33 255 33 33 33 33 255 33 33 33 33 134 33 33 
33 33 255 33 33 33 33 255 33 33 33 33 255 33 33 33 
33 255 33 33 33 33 255 33 33 33 33 255 33 33 33 33 
255 33 33 33 33 255 33 33 33 33 255 33 33 33 33 255 
33 33 33 33 255 33 33 255 33 33 33 33 255 33 33 33 33 33 33 33 33 33 184 33 
33 33 33 255 33 33 33 33 255 33 33 33 33 255 33 33 
33 33 255 33 33 33 33 255 33 33 33 33 255 33 33 33 
33 255 33 33 33 33 255 33 33 33 33 255 33 33 33 33 
255 33 33 33 33 255 33 33 33 33 255 33 33 33 33 255 
33 33 33 33 255 33 33 33 33 255 33 33 33 33 255 33 
33 33 33 255 33 33 33 33 255 33 33 33 33 255 33 33 
33 33 255 33 33 33 33 255 33 33 33 33 255 33 33 33 
33 255 33 33 33 33 255 33 33 33 33 255 33 33 33 33 
255 33 33 33 33 255 33 33 33 33 255 33 33 33 33 255 
33 33 33 33 155 33 33 33 33 255 33 33 33 33 255 33 
33 33 33 255 33 33 33 33 255 33 33 33 33 170 33 33 
33 33 255 33 33 33 33 255 33 33 33 33 255 33 33 33 
33 255 33 33 33 33 255 33 33 33 33 255 33 33 33 33 
255 33 33 33 33 255 33 33 33 33 255 33 33 33 33 255 
33 33 33 33 255 33 33 255 33 33 33 33 255 33 33 255 255 255 255 255 33 33 134 33 
33 33 33 255 33 33 33 33 255 33 33 33 33 255 33 33 
33 33 255 33 33 33 33 255 33 33 33 33 255 33 33 33 
33 255 33 33 33 33 255 33 33 33 33 255 33 33 33 33 
255 33 33 33 33 255 33 33 33 33 255 33 33 33 33 255 
33 33 33 33 255 33 33 33 33 255 33 33 33 33 255 33 
33 33 33 255 33 33 33 33 255 33 33 33 33 255 33 33 
33 33 255 33 33 33 33 255 33 33 33 33 255 33 33 33 
33 255 33 33 33 33 255 33 33 33 33 255 33 33 33 33 
255 33 33 33 33 255 33 33 33 33 255 33 33 33 33 255 
33 33 33 33 240 33 33 33 33 255 33 33 33 33 255 33 
33 33 33 255 33 33 33 33 255 33 33 33 33 177 33 33 
33 33 255 33 33 33 33 255 33 33 33 33 255 33 33 33 
33 255 33 33 33 33 255 33 33 33 33 255 33 33 33 33 
255 33 33 33 33 255 33 33 33 33 255 33 33 33 33 255 
33 33 33 33 255 33 33 255 33 33 33 33 255 33 255 33 33 33 33 33 33 33 162 33 
33 33 33 255 33 33 33 33 255 33 33 33 33 255 33 33 
33 33 255 33 33 33 33 255 33 33 33 33 255 33 33 33 
33 255 33 33 33 33 255 33 33 33 33 255 33 33 33 33 
255 33 33 33 33 255 33 33 33 33 255 33 33 33 33 255 
33 33 33 33 255 33 33 33 33 255 33 33 33 33 255 33 
33 33 33 255 33 33 33 33 255 33 33 33 33 255 33 33 
33 33 255 33 33 33 33 255 33 33 33 33 255 33 33 33 
33 255 33 33 33 33 255 33 33 33 33 255 33 33 33 33 
255 33 33 33 33 255 33 33 33 33 255 33 33 33 33 255 
33 33 33 33 131 33 33 33 33 255 33 33 33 33 255 33 
33 33 33 255 33 33 33 33 255 33 33 33 33 131 33 33 
33 33 255 33 33 33 33 255 33 33 33 33 255 33 33 33 
33 255 33 33 33 33 255 33 33 33 33 255 33 33 33 33 
255 33 33 33 33 255 33 33 33 33 255 33 33 33 33 255 
33 33 33 33 255 33 33 255 33 33 33 33 255 33 255 33 33 33 33 33 33 33 148 33 
33 33 33 255 33 33 33 33 255 33 33 33 33 255 33 33 
33 33 255 33 33 33 33 255 33 33 33 33 255 33 33 33 
33 255 33 33 33 33 255 33 33 33 33 255 33 33 33 33 
255 33 33 33 33 255 33 33 33 33 255 33 33 33 33 255 
33 33 33 33 255 33 33 33 33 255 33 33 33 33 255 33 
33 33 33 255 33 33 33 33 255 33 33 33 33 255 33 33 
33 33 255 33 33 33 33 255 33 33 33 33 255 33 33 33 
33 255 33 33 33 33 255 33 33 33 33 255 33 33 33 33 
255 33 33 33 33 255 33 33 33 33 255 33 33 33 33 255 
33 33 33 33 134 33 33 33 33 255 33 33 33 33 255 33 
33 33 33 255 33 33 33 33 255 33 33 33 33 155 33 33 
33 33 255 33 33 33 33 255 33 33 33 33 255 33 33 33 
33 255 33 33 33 33 255 33 33 33 33 255 33 33 33 33 
255 33 33 33 33 255 33 33 33 33 255 33 33 33 33 255 
33 33 33 33 255 33 33 255 33 33 33 33 255 33 255 33 33 33 33 33 33 33 170 33 
33 33 33 255 33 33 33 33 255 33 33 33 33 255 33 33 
33 33 255 33 33 33 33 255 33 33 33 33 255 33 33 33 
33 255 33 33 33 33 255 33 33 33 33 255 33 33 33 33 
255 33 33 33 33 255 33 33 33 33 255 33 33 33 33 255 
33 33 33 33 255 33 33 33 33 255 33 33 33 33 255 33 
33 33 33 255 33 33 33 33 255 33 33 33 33 255 33 33 
33 33 255 33 33 33 33 255 33 33 33 33 255 33 33 33 
33 255 33 33 33 33 255 33 33 33 33 255 33 33 33 33 
255 33 33 33 33 255 33 33 33 33 255 33 33 33 33 255 
33 33 33 33 162 33 33 33 33 255 33 33 33 33 255 33 
33 33 33 255 33 33 33 33 255 33 33 33 33 240 33 33 
33 33 255 33 33 33 33 255 33 33 33 33 255 33 33 33 
33 255 33 33 33 33 255 33 33 33 33 255 33 33 33 33 
255 33 33 33 33 255 33 33 33 33 255 33 33 33 33 255 
33 33 33 33 255 33 33 255 33 33 33 33 255 33 33 255 255 255 255 255 33 33 112 33 
33 33 33 255 33 33 33 33 255 33 33 33 33 255 33 33 
33 33 255 33 33 33 33 255 33 33 33 33 255 33 33 33 
33 255 33 33 33 33 255 33 33 33 33 255 33 33 33 33 
255 33 33 33 33 255 33 33 33 33 255 33 33 33 33 255 
33 33 33 33 255 33 33 33 33 255 33 33 33 33 255 33 
33 33 33 255 33 33 33 33 255 33 33 33 33 255 33 33 
33 33 255 33 33 33 33 255 33 33 33 33 255 33 33 33 
33 255 33 33 33 33 255 33 33 33 33 255 33 33 33 33 
255 33 33 33 33 255 33 33 33 33 255 33 33 33 33 255 
33 33 33 33 247 33 33 33 33 255 33 33 33 33 255 33 
33 33 33 255 33 33 33 33 255 33 33 33 33 131 33 33 
33 33 255 33 33 33 33 255 33 33 33 33 255 33 33 33 
33 255 33 33 33 33 255 33 33 33 33 255 33 33 33 33 
255 33 33 33 33 255 33 33 33 33 255 33 33 33 33 255 
33 33 33 33 255 33 33 255 33 33 33 33 255 33 33 33 33 33 33 33 33 33 148 33 
33 33 33 255 33 33 33 33 255 33 33 33 33 255 33 33 
33 33 255 33 33 33 33 255 33 33 33 33 255 33 33 33 
33 255 33 33 33 33 255 33 33 33 33 255 33 33 33 33 
255 33 33 33 33 255 33 33 33 33 255 33 33 33 33 255 
33 33 33 33 255 33 33 33 33 255 33 33 33 33 255 33 
33 33 33 255 33 33 33 33 255 33 33 33 33 255 33 33 
33 33 255 33 33 33 33 255 33 33 33 33 255 33 33 33 
33 255 33 33 33 33 255 33 33 33 33 255 33 33 33 33 
255 33 33 33 33 255 33 33 33 33 255 33 33 33 33 255 
33 33 33 33 134 33 33 33 33 255 33 33 33 33 255 33 
33 33 33 255 33 33 33 33 255 33 33 33 33 219 33 33 
33 33 255 33 33 33 33 255 33 33 33 33 255 33 33 33 
33 255 33 33 33 33 255 33 33 33 33 255 33 33 33 33 
255 33 33 33 33 255 33 33 33 33 255 33 33 33 33 255 
33 33 33 33 255 33 33 255 33 33 33 33 255 33 33 33 33 33 33 33 33 33 233 33 
33 33 33 255 33 33 33 33 255 33 33 33 33 255 33 33 
33 33 255 33 33 33 33 255 33 33 33 33 255 33 33 33 
33 255 33 33 33 33 255 33 33 33 33 255 33 33 33 33 
255 33 33 33 33 255 33 33 33 33 255 33 33 33 33 255 
33 33 33 33 255 33 33 33 33 255 33 33 33 33 255 33 
33 33 33 255 33 33 33 33 255 33 33 33 33 255 33 33 
33 33 255 33 33 33 33 255 33 33 33 33 255 33 33 33 
33 255 33 33 33 33 255 33 33 33 33 255 33 33 33 33 
255 33 33 33 33 255 33 33 33 33 255 33 33 33 33 255 
33 33 33 33 112 33 33 33 33 255 33 33 33 33 255 33 
33 33 33 255 33 33 33 33 255 33 33 33 33 240 33 33 
33 33 255 33 33 33 33 255 33 33 33 33 255 33 33 33 
33 255 33 33 33 33 255 33 33 33 33 255 33 33 33 33 
255 33 33 33 33 255 33 33 33 33 255 33 33 33 33 255 
33 33 33 33 255 33 33 255 33 33 33 33 255 33 33 33 33 33 33 33 33 33 112 33 
33 33 33 255 33 33 33 33 255 33 33 33 33 255 33 33 
33 33 255 33 33 33 33 255 33 33 33 33 255 33 33 33 
33 255 33 33 33 33 255 33 33 33 33 255 33 33 33 33 
255 33 33 33 33 255 33 33 33 33 255 33 33 33 33 255 
33 33 33 33 255 33 33 33 33 255 33 33 33 33 255 33 
33 33 33 255 33 33 33 33 255 33 33 33 33 255 33 33 
33 33 255 33 33 33 33 255 33 33 33 33 255 33 33 33 
33 255 33 33 33 33 255 33 33 33 33 255 33 33 33 33 
255 33 33 33 33 255 33 33 33 33 255 33 33 33 33 255 
33 33 33 33 148 33 33 33 33 255 33 33 33 33 255 33 
33 33 33 255 33 33 33 33 255 33 33 33 33 198 33 33 
33 33 255 33 33 33 33 255 33 33 33 33 255 33 33 33 
33 255 33 33 33 33 255 33 33 33 33 255 33 33 33 33 
255 33 33 33 33 255 33 33 33 33 255 33 33 33 33 255 
33 33 33 33 255 33 33 255 33 33 33 33 255 33 255 255 255 255 255 33 255 33 131 33 
33 33 33 255 33 33 33 33 255 33 33 33 33 255 33 33 
33 33 255 33 33 33 33 255 33 33 33 33 255 33 33 33 
33 255 33 33 33 33 255 33 33 33 33 255 33 33 33 33 
255 33 33 33 33 255 33 33 33 33 255 33 33 33 33 255 
33 33 33 33 255 33 33 33 33 255 33 33 33 33 255 33 
33 33 33 255 33 33 33 33 255 33 33 33 33 255 33 33 
33 33 255 33 33 33 33 255 33 33 33 33 255 33 33 33 
33 255 33 33 33 33 255 33 33 33 33 255 33 33 33 33 
255 33 33 33 33 255 33 33 33 33 255 33 33 33 33 255 
33 33 33 33 233 33 33 33 33 255 33 33 33 33 255 33 
33 33 33 255 33 33 33 33 255 33 33 33 33 219 33 33 
33 33 255 33 33 33 33 255 33 33 33 33 255 33 33 33 
33 255 33 33 33 33 255 33 33 33 33 255 33 33 33 33 
255 33 33 33 33 255 33 33 33 33 255 33 33 33 33 255 
33 33 33 33 255 33 33 255 33 33 33 33 255 33 33 33 33 33 33 33 33 33 155 33 
33 33 33 255 33 33 33 33 255 33 33 33 33 255 33 33 
33 33 255 33 33 33 33 255 33 33 33 33 255 33 33 33 
33 255 33 33 33 33 255 33 33 33 33 255 33 33 33 33 
255 33 33 33 33 255 33 33 33 33 255 33 33 33 33 255 
33 33 33 33 255 33 33 33 33 255 33 33 33 33 255 33 
33 33 33 255 33 33 33 33 255 33 33 33 33 255 33 33 
33 33 255 33 33 33 33 255 33 33 33 33 255 33 33 33 
33 255 33 33 33 33 255 33 33 33 33 255 33 33 33 33 
255 33 33 33 33 255 33 33 33 33 255 33 33 33 33 255 
33 33 33 33 112 33 33 33 33 255 33 33 33 33 255 33 
33 33 33 255 33 33 33 33 255 33 33 33 33 177 33 33 
33 33 255 33 33 33 33 255 33 33 33 33 255 33 33 33 
33 255 33 33 33 33 255 33 33 33 33 255 33 33 33 33 
255 33 33 33 33 255 33 33 33 33 255 33 33 33 33 255 
33 33 33 33 255 33 33 255 33 33 33 33 255 33 4 33 33 33 33 33 4 33 240 33 
33 33 33 255 33 33 33 33 255 33 33 33 33 255 33 33 
33 33 255 33 33 33 33 255 33 33 33 33 255 33 33 33 
33 255 33 33 33 33 255 33 33 33 33 255 33 33 33 33 
255 33 33 33 33 255 33 33 33 33 255 33 33 33 33 255 
33 33 33 33 255 33 33 33 33 255 33 33 33 33 255 33 
33 33 33 255 33 33 33 33 255 33 33 33 33 255 33 33 
33 33 255 33 33 33 33 255 33 33 33 33 255 33 33 33 
33 255 33 33 33 33 255 33 33 33 33 255 33 33 33 33 
255 33 33 33 33 255 33 33 33 33 255 33 33 33 33 255 
33 33 33 33 131 33 33 33 33 255 33 33 33 33 255 33 
33 33 33 255 33 33 33 33 255 33 33 33 33 198 33 33 
33 33 255 33 33 33 33 255 33 33 33 33 255 33 33 33 
33 255 33 33 33 33 255 33 33 33 33 255 33 33 33 33 
255 33 33 33 33 255 33 33 33 33 255 33 33 33 33 255 
33 33 33 33 255 33 33 255 33 33 33 33 255 33 33 4 33 33 33 4 33 33 131 33 
33 33 33 255 33 33 33 33 255 33 33 33 33 255 33 33 
33 33 255 33 33 33 33 255 33 33 33 33 255 33 33 33 
33 255 33 33 33 33 255 33 33 33 33 255 33 33 33 33 
255 33 33 33 33 255 33 33 33 33 255 33 33 33 33 255 
33 33 33 33 255 33 33 33 33 255 33 33 33 33 255 33 
33 33 33 255 33 33 33 33 255 33 33 33 33 255 33 33 
33 33 255 33 33 33 33 255 33 33 33 33 255 33 33 33 
33 255 33 33 33 33 255 33 33 33 33 255 33 33 33 33 
255 33 33 33 33 255 33 33 33 33 255 33 33 33 33 255 
33 33 33 33 155 33 33 33 33 255 33 33 33 33 255 33 
33 33 33 255 33 33 33 33 255 33 33 33 33 155 33 33 
33 33 255 33 33 33 33 255 33 33 33 33 255 33 33 33 
33 255 33 33 33 33 255 33 33 33 33 255 33 33 33 33 
255 33 33 33 33 255 33 33 33 33 255 33 33 33 33 255 
33 33 33 33 255 33 33 255 33 33 33 33 255 33 33 33 4 4 4 33 33 33 219 33 
33 33 33 255 33 33 33 33 255 33 33 33 33 255 33 33 
33 33 255 33 33 33 33 255 33 33 33 33 255 33 33 33 
33 255 33 33 33 33 255 33 33 33 33 255 33 33 33 33 
255 33 33 33 33 255 33 33 33 33 255 33 33 33 33 255 
33 33 33 33 255 33 33 33 33 255 33 33 33 33 255 33 
33 33 33 255 33 33 33 33 255 33 33 33 33 255 33 33 
33 33 255 33 33 33 33 255 33 33 33 33 255 33 33 33 
33 255 33 33 33 33 255 33 33 33 33 255 33 33 33 33 
255 33 33 33 33 255 33 33 33 33 255 33 33 33 33 255 
33 33 33 33 240 33 33 33 33 255 33 33 33 33 255 33 
33 33 33 255 33 33 33 33 255 33 33 33 33 177 33 33 
33 33 255 33 33 33 33 255 33 33 33 33 255 33 33 33 
33 255 33 33 33 33 255 33 33 33 33 255 33 33 33 33 
255 33 33 33 33 255 33 33 33 33 255 33 33 33 33 255 
33 33 33 33 255 33 33 255 33 33 33 33 255 33 33 33 33 33 33 33 33 33 240 33 
33 33 33 255 33 33 33 33 255 33 33 33 33 255 33 33 
33 33 255 33 33 33 33 255 33 33 33 33 255 33 33 33 
33 255 33 33 33 33 255 33 33 33 33 255 33 33 33 33 
255 33 33 33 33 255 33 33 33 33 255 33 33 33 33 255 
33 33 33 33 255 33 33 33 33 255 33 33 33 33 255 33 
33 33 33 255 33 33 33 33 255 33 33 33 33 255 33 33 
33 33 255 33 33 33 33 255 33 33 33 33 255 33 33 33 
33 255 33 33 33 33 255 33 33 33 33 255 33 33 33 33 
255 33 33 33 33 255 33 33 33 33 255 33 33 33 33 255 
33 33 33 33 131 33 33 33 33 255 33 33 33 33 255 33 
33 33 33 255 33 33 33 33 255 33 33 33 33 131 33 33 
33 33 255 33 33 33 33 255 33 33 33 33 255 33 33 33 
33 255 33 33 33 33 255 33 33 33 33 255 33 33 33 33 
255 33 33 33 33 255 33 33 33 33 255 33 33 33 33 255 
33 33 33 33 255 33 33 255 33 33 33 33 255 33 33 33 33 33 33 33 33 33 198 33 
33 33 33 255 33 33 33 33 255 33 33 33 33 255 33 33 
33 33 255 33 33 33 33 255 33 33 33 33 255 33 33 33 
33 255 33 33 33 33 255 33 33 33 33 255 33 33 33 33 
255 33 33 33 33 255 33 33 33 33 255 33 33 33 33 255 
33 33 33 33 255 33 33 33 33 255 33 33 33 33 255 33 
33 33 33 255 33 33 33 33 255 33 33 33 33 255 33 33 
33 33 255 33 33 33 33 255 33 33 33 33 255 33 33 33 
33 255 33 33 33 33 255 33 33 33 33 255 33 33 33 33 
255 33 33 33 33 255 33 33 33 33 255 33 33 33 33 255 
33 33 33 33 134 33 33 33 33 255 33 33 33 33 255 33 
33 33 33 255 33 33 33 33 255 33 33 33 33 155 33 33 
33 33 255 33 33 33 33 255 33 33 33 33 255 33 33 33 
33 255 33 33 33 33 255 33 33 33 33 255 33 33 33 33 
255 33 33 33 33 255 33 33 33 33 255 33 33 33 33 255 
33 33 33 33 255 33 33 255 33 33 33 33 255 33 33 33 33 33 33 33 33 33 219 33 
33 33 33 255 33 33 33 33 255 33 33 33 33 255 33 33 
33 33 255 33 33 33 33 255 33 33 33 33 255 33 33 33 
33 255 33 33 33 33 255 33 33 33 33 255 33 33 33 33 
255 33 33 33 33 255 33 33 33 33 255 33 33 33 33 255 
33 33 33 33 255 33 33 33 33 255 33 33 33 33 255 33 
33 33 33 255 33 33 33 33 255 33 33 33 33 255 33 33 
33 33 255 33 33 33 33 255 33 33 33 33 255 33 33 33 
33 255 33 33 33 33 255 33 33 33 33 255 33 33 33 33 
255 33 33 33 33 255 33 33 33 33 255 33 33 33 33 255 
33 33 33 33 162 33 33 33 33 255 33 33 33 33 255 33 
33 33 33 255 33 33 33 33 255 33 33 33 33 177 33 33 
33 33 255 33 33 33 33 255 33 33 33 33 255 33 33 33 
33 255 33 33 33 33 255 33 33 33 33 255 33 33 33 33 
255 33 33 33 33 255 33 33 33 33 255 33 33 33 33 255 
33 33 33 33 255 33 33 255 33 33 33 33 255 33 33 33 33 33 33 33 33 33 177 33 
33 33 33 255 33 33 33 33 255 33 33 33 33 255 33 33 
33 33 255 33 33 33 33 255 33 33 33 33 255 33 33 33 
33 255 33 33 33 33 255 33 33 33 33 255 33 33 33 33 
255 33 33 33 33 255 33 33 33 33 255 33 33 33 33 255 
33 33 33 33 255 33 33 33 33 255 33 33 33 33 255 33 
33 33 33 255 33 33 33 33 255 33 33 33 33 255 33 33 
33 33 255 33 33 33 33 255 33 33 33 33 255 33 33 33 
33 255 33 33 33 33 255 33 33 33 33 255 33 33 33 33 
255 33 33 33 33 255 33 33 33 33 255 33 33 33 33 255 
33 33 33 33 247 33 33 33 33 255 33 33 33 33 255 33 
33 33 33 255 33 33 33 33 255 33 33 33 33 148 33 33 
33 33 255 33 33 33 33 255 33 33 33 33 255 33 33 33 
33 255 33 33 33 33 255 33 33 33 33 255 33 33 33 33 
255 33 33 33 33 255 33 33 33 33 255 33 33 33 33 255 
33 33 33 33 255 33 33 255 33 33 33 33 255 33 33 33 33 33 33 33 33 33 198 33 
33 33 33 255 33 33 33 33 255 33 33 33 33 255 33 33 
33 33 255 33 33 33 33 255 33 33 33 33 255 33 33 33 
33 255 33 33 33 33 255 33 33 33 33 255 33 33 33 33 
255 33 33 33 33 255 33 33 33 33 255 33 33 33 33 255 
33 33 33 33 255 33 33 33 33 255 33 33 33 33 255 33 
33 33 33 255 33 33 33 33 255 33 33 33 33 255 33 33 
33 33 255 33 33 33 33 255 33 33 33 33 255 33 33 33 
33 255 33 33 33 33 255 33 33 33 33 255 33 33 33 33 
255 33 33 33 33 255 33 33 33 33 255 33 33 33 33 255 
33 33 33 33 134 33 33 33 33 255 33 33 33 33 255 33 
33 33 33 255 33 33 33 33 255 33 33 33 33 233 33 33 
33 33 255 33 33 33 33 255 33 33 33 33 255 33 33 33 
33 255 33 33 33 33 255 33 33 33 33 255 33 33 33 33 
255 33 33 33 33 255 33 33 33 33 255 33 33 33 33 255 
33 33 33 33 255 33 33 255 33 33 33 33 255 33 33 33 33 33 33 33 33 33 205 33 
33 33 33 255 33 33 33 33 255 33 33 33 33 255 33 33 
33 33 255 33 33 33 33 255 33 33 33 33 255 33 33 33 
33 255 33 33 33 33 255 33 33 33 33 255 33 33 33 33 
255 33 33 33 33 255 33 33 33 33 255 33 33 33 33 255 
33 33 33 33 255 33 33 33 33 255 33 33 33 33 255 33 
33 33 33 255 33 33 33 33 255 33 33 33 33 255 33 33 
33 33 255 33 33 33 33 255 33 33 33 33 255 33 33 33 
33 255 33 33 33 33 255 33 33 33 33 255 33 33 33 33 
255 33 33 33 33 255 33 33 33 33 255 33 33 33 33 255 
33 33 33 33 112 33 33 33 33 255 33 33 33 33 255 33 
33 33 33 255 33 33 33 33 255 33 33 33 33 240 33 33 
33 33 255 33 33 33 33 255 33 33 33 33 255 33 33 33 
33 255 33 33 33 33 255 33 33 33 33 255 33 33 33 33 
255 33 33 33 33 255 33 33 33 33 255 33 33 33 33 255 
33 33 33 33 255 33 33 255 33 33 33 33 255 33 33 33 33 33 33 33 33 33 226 33 
33 33 33 255 33 33 33 33 255 33 33 33 33 255 33 33 
33 33 255 33 33 33 33 255 33 33 33 33 255 33 33 33 
33 255 33 33 33 33 255 33 33 33 33 255 33 33 33 33 
255 33 33 33 33 255 33 33 33 33 255 33 33 33 33 255 
33 33 33 33 255 33 33 33 33 255 33 33 33 33 255 33 
33 33 33 255 33 33 33 33 255 33 33 33 33 255 33 33 
33 33 255 33 33 33 33 255 33 33 33 33 255 33 33 33 
33 255 33 33 33 33 255 33 33 33 33 255 33 33 33 33 
255 33 33 33 33 255 33 33 33 33 255 33 33 33 33 255 
33 33 33 33 148 33 33 33 33 255 33 33 33 33 255 33 
33 33 33 255 33 33 33 33 255 33 33 33 33 198 33 33 
33 33 255 33 33 33 33 255 33 33 33 33 255 33 33 33 
33 255 33 33 33 33 255 33 33 33 33 255 33 33 33 33 
255 33 33 33 33 255 33 33 33 33 255 33 33 33 33 255 
33 33 33 33 255 33 33 255 33 33 33 33 255 33 33 33 33 33 33 33 33 33 184 33 
33 33 33 255 33 33 33 33 255 33 33 33 33 255 33 33 
33 33 255 33 33 33 33 255 33 33 33 33 255 33 33 33 
33 255 33 33 33 33 255 33 33 33 33 255 33 33 33 33 
255 33 33 33 33 255 33 33 33 33 255 33 33 33 33 255 
33 33 33 33 255 33 33 33 33 255 33 33 33 33 255 33 
33 33 33 255 33 33 33 33 255 33 33 33 33 255 33 33 
33 33 255 33 33 33 33 255 33 33 33 33 255 33 33 33 
33 255 33 33 33 33 255 33 33 33 33 255 33 33 33 33 
255 33 33 33 33 255 33 33 33 33 255 33 33 33 33 255 
33 33 33 33 233 33 33 33 33 255 33 33 33 33 255 33 
33 33 33 255 33 33 33 33 255 33 33 33 33 219 33 33 
33 33 255 33 33 33 33 255 33 33 33 33 255 33 33 33 
33 255 33 33 33 33 255 33 33 33 33 255 33 33 33 33 
255 33 33 33 33 255 33 33 33 33 255 33 33 33 33 255 
33 33 33 33 255 33 33 255 33 33 33 33 255 33 33 33 33 33 33 33 33 33 205 33 
33 33 33 255 33 33 33 33 255 33 33 33 33 255 33 33 
33 33 255 33 33 33 33 255 33 33 33 33 255 33 33 33 
33 255 33 33 33 33 255 33 33 33 33 255 33 33 33 33 
255 33 33 33 33 255 33 33 33 33 255 33 33 33 33 255 
33 33 33 33 255 33 33 33 33 255 33 33 33 33 255 33 
33 33 33 255 33 33 33 33 255 33 33 33 33 255 33 33 
33 33 255 33 33 33 33 255 33 33 33 33 255 33 33 33 
33 255 33 33 33 33 255 33 33 33 33 255 33 33 33 33 
255 33 33 33 33 255 33 33 33 33 255 33 33 33 33 255 
33 33 33 33 112 33 33 33 33 255 33 33 33 33 255 33 
33 33 33 255 33 33 33 33 255 33 33 33 33 177 33 33 
33 33 255 33 33 33 33 255 33 33 33 33 255 33 33 33 
33 255 33 33 33 33 255 33 33 33 33 255 33 33 33 33 
255 33 33 33 33 255 33 33 33 33 255 33 33 33 33 255 
33 33 33 33 255 33 33 255 33 33 33 33 255 33 33 33 33 33 33 33 33 33 162 33 
33 33 33 255 33 33 33 33 255 33 33 33 33 255 33 33 
33 33 255 33 33 33 33 255 33 33 33 33 255 33 33 33 
33 255 33 33 33 33 255 33 33 33 33 255 33 33 33 33 
255 33 33 33 33 255 33 33 33 33 255 33 33 33 33 255 
33 33 33 33 255 33 33 33 33 255 33 33 33 33 255 33 
33 33 33 255 33 33 33 33 255 33 33 33 33 255 33 33 
33 33 255 33 33 33 33 255 33 33 33 33 255 33 33 33 
33 255 33 33 33 33 255 33 33 33 33 255 33 33 33 33 
255 33 33 33 33 255 33 33 33 33 255 33 33 33 33 255 
33 33 33 33 131 33 33 33 33 255 33 33 33 33 255 33 
33 33 33 255 33 33 33 33 255 33 33 33 33 198 33 33 
33 33 255 33 33 33 33 255 33 33 33 33 255 33 33 33 
33 255 33 33 33 33 255 33 33 33 33 255 33 33 33 33 
255 33 33 33 33 255 33 33 33 33 255 33 33 33 33 255 
33 33 33 33 255 33 33 255 33 33 33 33 255 33 33 33 33 33 33 33 33 33 184 33 
33 33 33 255 33 33 33 33 255 33 33 33 33 255 33 33 
33 33 255 33 33 33 33 255 33 33 33 33 255 33 33 33 
33 255 33 33 33 33 255 33 33 33 33 255 33 33 33 33 
255 33 33 33 33 255 33 33 33 33 255 33 33 33 33 255 
33 33 33 33 255 33 33 33 33 255 33 33 33 33 255 33 
33 33 33 255 33 33 33 33 255 33 33 33 33 255 33 33 
33 33 255 33 33 33 33 255 33 33 33 33 255 33 33 33 
33 255 33 33 33 33 255 33 33 33 33 255 33 33 33 33 
255 33 33 33 33 255 33 33 33 33 255 33 33 33 33 255 
33 33 33 33 155 33 33 33 33 255 33 33 33 33 255 33 
33 33 33 255 33 33 33 33 255 33 33 33 33 155 33 33 
33 33 255 33 33 33 33 255 33 33 33 33 255 33 33 33 
33 255 33 33 33 33 255 33 33 33 33 255 33 33 33 33 
255 33 33 33 33 255 33 33 33 33 255 33 33 33 33 255 
33 33 33 33 255 33 33 255 33 33 33 33 255 33 33 33 33 33 33 33 33 33 170 33 
33 33 33 255 33 33 33 33 255 33 33 33 33 255 33 33 
33 33 255 33 33 33 33 255 33 33 33 33 255 33 33 33 
33 255 33 33 33 33 255 33 33 33 33 255 33 33 33 33 
255 33 33 33 33 255 33 33 33 33 255 33 33 33 33 255 
33 33 33 33 255 33 33 33 33 255 33 33 33 33 255 33 
33 33 33 255 33 33 33 33 255 33 33 33 33 255 33 33 
33 33 255 33 33 33 33 255 33 33 33 33 255 33 33 33 
33 255 33 33 33 33 255 33 33 33 33 255 33 33 33 33 
255 33 33 33 33 255 33 33 33 33 255 33 33 33 33 255 
33 33 33 33 240 33 33 33 33 255 33 33 33 33 255 33 
33 33 33 255 33 33 33 33 255 33 33 33 33 177 33 33 
33 33 255 33 33 33 33 255 33 33 33 33 255 33 33 33 
33 255 33 33 33 33 255 33 33 33 33 255 33 33 33 33 
255 33 33 33 33 255 33 33 33 33 255 33 33 33 33 255 
33 33 33 33 255 33 33 255 33 33 33 33 255 33 33 33 33 33 33 33 33 33 191 33 
33 33 33 255 33 33 33 33 255 33 33 33 33 255 33 33 
33 33 255 33 33 33 33 255 33 33 33 33 255 33 33 33 
33 255 33 33 33 33 255 33 33 33 33 255 33 33 33 33 
255 33 33 33 33 255 33 33 33 33 255 33 33 33 33 255 
33 33 33 33 255 33 33 33 33 255 33 33 33 33 255 33 
33 33 33 255 33 33 33 33 255 33 33 33 33 255 33 33 
33 33 255 33 33 33 33 255 33 33 33 33 255 33 33 33 
33 255 33 33 33 33 255 33 33 33 33 255 33 33 33 33 
255 33 33 33 33 255 33 33 33 33 255 33 33 33 33 255 
33 33 33 33 131 33 33 33 33 255 33 33 33 33 255 33 
33 33 33 255 33 33 33 33 255 33 33 33 33 131 33 33 
33 33 255 33 33 33 33 255 33 33 33 33 255 33 33 33 
33 255 33 33 33 33 255 33 33 33 33 255 33 33 33 33 
255 33 33 33 33 255 33 33 33 33 255 33 33 33 33 255 
33 33 33 33 255 33 33 255 33 33 33 33 255 33 33 33 33 33 33 33 33 33 148 33 
33 33 33 255 33 33 33 33 255 33 33 33 33 255 33 33 
33 33 255 33 33 33 33 255 33 33 33 33 255 33 33 33 
33 255 33 33 33 33 255 33 33 33 33 255 33 33 33 33 
255 33 33 33 33 255 33 33 33 33 255 33 33 33 33 255 
33 33 33 33 255 33 33 33 33 255 33 33 33 33 255 33 
33 33 33 255 33 33 33 33 255 33 33 33 33 255 33 33 
33 33 255 33 33 33 33 255 33 33 33 33 255 33 33 33 
33 255 33 33 33 33 255 33 33 33 33 255 33 33 33 33 
255 33 33 33 33 255 33 33 33 33 255 33 33 33 33 255 
33 33 33 33 134 33 33 33 33 255 33 33 33 33 255 33 
33 33 33 255 33 33 33 33 255 33 33 33 33 155 33 33 
33 33 255 33 33 33 33 255 33 33 33 33 255 33 33 33 
33 255 33 33 33 33 255 33 33 33 33 255 33 33 33 33 
255 33 33 33 33 255 33 33 33 33 255 33 33 33 33 255 
33 33 33 33 255 33 33 255 33 33 33 33 255 33 33 33 33 33 33 33 33 33 170 33 
33 33 33 255 33 33 33 33 255 33 33 33 33 255 33 33 
33 33 255 33 33 33 33 255 33 33 33 33 255 33 33 33 
33 255 33 33 33 33 255 33 33 33 33 255 33 33 33 33 
255 33 33 33 33 255 33 33 33 33 255 33 33 33 33 255 
33 33 33 33 255 33 33 33 33 255 33 33 33 33 255 33 
33 33 33 255 33 33 33 33 255 33 33 33 33 255 33 33 
33 33 255 33 33 33 33 255 33 33 33 33 255 33 33 33 
33 255 33 33 33 33 255 33 33 33 33 255 33 33 33 33 
255 33 33 33 33 255 33 33 33 33 255 33 33 33 33 255 
33 33 33 33 162 33 33 33 33 255 33 33 33 33 255 33 
33 33 33 255 33 33 33 33 255 33 33 33 33 240 33 33 
33 33 255 33 33 33 33 255 33 33 33 33 255 33 33 33 
33 255 33 33 33 33 255 33 33 33 33 255 33 33 33 33 
255 33 33 33 33 255 33 33 33 33 255 33 33 33 33 255 
33 33 33 33 255 33 33 255 33 33 33 33 255 33 33 33 33 33 33 33 33 33 177 33 
33 33 33 255 33 33 33 33 255 33 33 33 33 255 33 33 
33 33 255 33 33 33 33 255 33 33 33 33 255 33 33 33 
33 255 33 33 33 33 255 33 33 33 33 255 33 33 33 33 
255 33 33 33 33 255 33 33 33 33 255 33 33 33 33 255 
33 33 33 33 255 33 33 33 33 255 33 33 33 33 255 33 
33 33 33 255 33 33 33 33 255 33 33 33 33 255 33 33 
33 33 255 33 33 33 33 255 33 33 33 33 255 33 33 33 
33 255 33 33 33 33 255 33 33 33 33 255 33 33 33 33 
255 33 33 33 33 255 33 33 33 33 255 33 33 33 33 255 
33 33 33 33 247 33 33 33 33 255 33 33 33 33 255 33 
33 33 33 255 33 33 33 33 255 33 33 33 33 131 33 33 
33 33 255 33 33 33 33 255 33 33 33 33 255 33 33 33 
33 255 33 33 33 33 255 33 33 33 33 255 33 33 33 33 
255 33 33 33 33 255 33 33 33 33 255 33 33 33 33 255 
33 33 33 33 255 33 33 255 33 33 33 33 255 33 33 33 33 33 33 33 33 33 198 33 
33 33 33 255 33 33 33 33 255 33 33 33 33 255 33 33 
33 33 255 33 33 33 33 255 33 33 33 33 255 33 33 33 
33 255 33 33 33 33 255 33 33 33 33 255 33 33 33 33 
255 33 33 33 33 255 33 33 33 33 255 33 33 33 33 255 
33 33 33 33 255 33 33 33 33 255 33 33 33 33 255 33 
33 33 33 255 33 33 33 33 255 33 33 33 33 255 33 33 
33 33 255 33 33 33 33 255 33 33 33 33 255 33 33 33 
33 255 33 33 33 33 255 33 33 33 33 255 33 33 33 33 
255 33 33 33 33 255 33 33 33 33 255 33 33 33 33 255 
33 33 33 33 134 33 33 33 33 255 33 33 33 33 255 33 
33 33 33 255 33 33 33 33 255 33 33 33 33 219 33 33 
33 33 255 33 33 33 33 255 33 33 33 33 255 33 33 33 
33 255 33 33 33 33 255 33 33 33 33 255 33 33 33 33 
255 33 33 33 33 255 33 33 33 33 255 33 33 33 33 255 
33 33 33 33 255 33 33 255 33 33 33 33 255 33 33 33 33 33 33 33 33 33 155 33 
33 33 33 255 33 33 33 33 255 33 33 33 33 255 33 33 
33 33 255 33 33 33 33 255 33 33 33 33 255 33 33 33 
33 255 33 33 33 33 255 33 33 33 33 255 33 33 33 33 
255 33 33 33 33 255 33 33 33 33 255 33 33 33 33 255 
33 33 33 33 255 33 33 33 33 255 33 33 33 33 255 33 
33 33 33 255 33 33 33 33 255 33 33 33 33 255 33 33 
33 33 255 33 33 33 33 255 33 33 33 33 255 33 33 33 
33 255 33 33 33 33 255 33 33 33 33 255 33 33 33 33 
255 33 33 33 33 255 33 33 33 33 255 33 33 33 33 255 
33 33 33 33 112 33 33 33 33 255 33 33 33 33 255 33 
33 33 33 255 33 33 33 33 255 33 33 33 33 240 33 33 
33 33 255 33 33 33 33 255 33 33 33 33 255 33 33 33 
33 255 33 33 33 33 255 33 33 33 33 255 33 33 33 33 
255 33 33 33 33 255 33 33 33 33 255 33 33 33 33 255 
33 33 33 33 255 33 33 255 33 33 33 33 255 33 33 33 33 33 33 33 33 33 177 33 
33 33 33 255 33 33 33 33 255 33 33 33 33 255 33 33 
33 33 255 33 33 33 33 255 33 33 33 33 255 33 33 33 
33 255 33 33 33 33 255 33 33 33 33 255 33 33 33 33 
255 33 33 33 33 255 33 33 33 33 255 33 33 33 33 255 
33 33 33 33 255 33 33 33 33 255 33 33 33 33 255 33 
33 33 33 255 33 33 33 33 255 33 33 33 33 255 33 33 
33 33 255 33 33 33 33 255 33 33 33 33 255 33 33 33 
33 255 33 33 33 33 255 33 33 33 33 255 33 33 33 33 
255 33 33 33 33 255 33 33 33 33 255 33 33 33 33 255 
33 33 33 33 148 33 33 33 33 255 33 33 33 33 255 33 
33 33 33 255 33 33 33 33 255 33 33 33 33 162 33 33 
33 33 255 33 33 33 33 255 33 33 33 33 255 33 33 33 
33 255 33 33 33 33 255 33 33 33 33 255 33 33 33 33 
255 33 33 33 33 255 33 33 33 33 255 33 33 33 33 255 
33 33 33 33 255 33 33 255 33 33 33 33 255 33 33 33 33 33 33 33 33 33 131 33 
33 33 33 255 33 33 33 33 255 33 33 33 33 255 33 33 
33 33 255 33 33 33 33 255 33 33 33 33 255 33 33 33 
33 255 33 33 33 33 255 33 33 33 33 255 33 33 33 33 
255 33 33 33 33 255 33 33 33 33 255 33 33 33 33 255 
33 33 33 33 255 33 33 33 33 255 33 33 33 33 255 33 
33 33 33 255 33 33 33 33 255 33 33 33 33 255 33 33 
33 33 255 33 33 33 33 255 33 33 33 33 255 33 33 33 
33 255 33 33 33 33 255 33 33 33 33 255 33 33 33 33 
255 33 33 33 33 255 33 33 33 33 255 33 33 33 33 255 
33 33 33 33 233 33 33 33 33 255 33 33 33 33 255 33 
33 33 33 255 33 33 33 33 255 33 33 33 33 148 33 33 
33 33 255 33 33 33 33 255 33 33 33 33 255 33 33 33 
33 255 33 33 33 33 255 33 33 33 33 255 33 33 33 33 
255 33 33 33 33 255 33 33 33 33 255 33 33 33 33 255 
33 33 33 33 255 33 33 255 33 33 33 33 255 33 33 33 33 33 33 33 33 33 155 33 
33 33 33 255 33 33 33 33 255 33 33 33 33 255 33 33 
33 33 255 33 33 33 33 255 33 33 33 33 255 33 33 33 
33 255 33 33 33 33 255 33 33 33 33 255 33 33 33 33 
255 33 33 33 33 255 33 33 33 33 255 33 33 33 33 255 
33 33 33 33 255 33 33 33 33 255 33 33 33 33 255 33 
33 33 33 255 33 33 33 33 255 33 33 33 33 255 33 33 
33 33 255 33 33 33 33 255 33 33 33 33 255 33 33 33 
33 255 33 33 33 33 255 33 33 33 33 255 33 33 33 33 
255 33 33 33 33 255 33 33 33 33 255 33 33 33 33 255 
33 33 33 33 112 33 33 33 33 255 33 33 33 33 255 33 
33 33 33 255 33 33 33 33 255 33 33 33 33 233 33 33 
33 33 255 33 33 33 33 255 33 33 33 33 255 33 33 33 
33 255 33 33 33 33 255 33 33 33 33 255 33 33 33 33 
255 33 33 33 33 255 33 33 33 33 255 33 33 33 33 255 
33 33 33 33 255 33 33 255 33 33 33 33 255 33 33 33 33 33 33 33 33 33 240 33 
33 33 33 255 33 33 33 33 255 33 33 33 33 255 33 33 
33 33 255 33 33 33 33 255 33 33 33 33 255 33 33 33 
33 255 33 33 33 33 255 33 33 33 33 255 33 33 33 33 
255 33 33 33 33 255 33 33 33 33 255 33 33 33 33 255 
33 33 33 33 255 33 33 33 33 255 33 33 33 33 255 33 
33 33 33 255 33 33 33 33 255 33 33 33 33 255 33 33 
33 33 255 33 33 33 33 255 33 33 33 33 255 33 33 33 
33 255 33 33 33 33 255 33 33 33 33 255 33 33 33 33 
255 33 33 33 33 255 33 33 33 33 255 33 33 33 33 255 
33 33 33 33 131 33 33 33 33 255 33 33 33 33 255 33 
33 33 33 255 33 33 33 33 255 33 33 33 33 112 33 33 
33 33 255 33 33 33 33 255 33 33 33 33 255 33 33 33 
33 255 33 33 33 33 255 33 33 33 33 255 33 33 33 33 
255 33 33 33 33 255 33 33 33 33 255 33 33 33 33 255 
33 33 33 33 255 33 33 255 33 33 33 33 255 33 33 33 33 33 33 33 33 33 131 33 
33 33 33 255 33 33 33 33 255 33 33 33 33 255 33 33 
33 33 255 33 33 33 33 255 33 33 33 33 255 33 33 33 
33 255 33 33 33 33 255 33 33 33 33 255 33 33 33 33 
255 33 33 33 33 255 33 33 33 33 255 33 33 33 33 255 
33 33 33 33 255 33 33 33 33 255 33 33 33 33 255 33 
33 33 33 255 33 33 33 33 255 33 33 33 33 255 33 33 
33 33 255 33 33 33 33 255 33 33 33 33 255 33 33 33 
33 255 33 33 33 33 255 33 33 33 33 255 33 33 33 33 
255 33 33 33 33 255 33 33 33 33 255 33 33 33 33 255 
33 33 33 33 155 33 33 33 33 255 33 33 33 33 255 33 
33 33 33 255 33 33 33 33 255 33 33 33 33 212 33 33 
33 33 255 33 33 33 33 255 33 33 33 33 255 33 33 33 
33 255 33 33 33 33 255 33 33 33 33 255 33 33 33 33 
255 33 33 33 33 255 33 33 33 33 255 33 33 33 33 255 
33 33 33 33 255 33 33 255 33 33 33 33 255 33 33 33 33 33 33 33 33 33 219 33 
33 33 33 255 33 33 33 33 255 33 33 33 33 255 33 33 
33 33 255 33 33 33 33 255 33 33 33 33 255 33 33 33 
33 255 33 33 33 33 255 33 33 33 33 255 33 33 33 33 
255 33 33 33 33 255 33 33 33 33 255 33 33 33 33 255 
33 33 33 33 255 33 33 33 33 255 33 33 33 33 255 33 
33 33 33 255 33 33 33 33 255 33 33 33 33 255 33 33 
33 33 255 33 33 33 33 255 33 33 33 33 255 33 33 33 
33 255 33 33 33 33 255 33 33 33 33 255 33 33 33 33 
255 33 33 33 33 255 33 33 33 33 255 33 33 33 33 255 
33 33 33 33 219 33 33 33 33 255 33 33 33 33 255 33 
33 33 33 255 33 33 33 33 255 33 33 33 33 233 33 33 
33 33 255 33 33 33 33 255 33 33 33 33 255 33 33 33 
33 255 33 33 33 33 255 33 33 33 33 255 33 33 33 33 
255 33 33 33 33 255 33 33 33 33 255 33 33 33 33 255 
33 33 33 33 255 33 33 255 33 33 33 33 255 33 33 33 33 33 33 33 33 33 240 33 
33 33 33 255 33 33 33 33 255 33 33 33 33 255 33 33 
33 33 255 33 33 33 33 255 33 33 33 33 255 33 33 33 
33 255 33 33 33 33 255 33 33 33 33 255 33 33 33 33 
255 33 33 33 33 255 33 33 33 33 255 33 33 33 33 255 
33 33 33 33 255 33 33 33 33 255 33 33 33 33 255 33 
33 33 33 255 33 33 33 33 255 33 33 33 33 255 33 33 
33 33 255 33 33 33 33 255 33 33 33 33 255 33 33 33 
33 255 33 33 33 33 255 33 33 33 33 255 33 33 33 33 
255 33 33 33 33 255 33 33 33 33 255 33 33 33 33 255 
33 33 33 33 226 33 33 33 33 255 33 33 33 33 255 33 
33 33 33 255 33 33 33 33 255 33 33 33 33 191 33 33 
33 33 255 33 33 33 33 255 33 33 33 33 255 33 33 33 
33 255 33 33 33 33 255 33 33 33 33 255 33 33 33 33 
255 33 33 33 33 255 33 33 33 33 255 33 33 33 33 255 
33 33 33 33 255 33 33 255 33 33 33 33 255 33 33 33 33 33 33 33 33 33 247 33 
33 33 33 255 33 33 33 33 255 33 33 33 33 255 33 33 
33 33 255 33 33 33 33 255 33 33 33 33 255 33 33 33 
33 255 33 33 33 33 255 33 33 33 33 255 33 33 33 33 
255 33 33 33 33 255 33 33 33 33 255 33 33 33 33 255 
33 33 33 33 255 33 33 33 33 255 33 33 33 33 255 33 
33 33 33 255 33 33 33 33 255 33 33 33 33 255 33 33 
33 33 255 33 33 33 33 255 33 33 33 33 255 33 33 33 
33 255 33 33 33 33 255 33 33 33 33 255 33 33 33 33 
255 33 33 33 33 255 33 33 33 33 255 33 33 33 33 255 
33 33 33 33 184 33 33 33 33 255 33 33 33 33 255 33 
33 33 33 255 33 33 33 33 255 33 33 33 33 212 33 33 
33 33 255 33 33 33 33 255 33 33 33 33 255 33 33 33 
33 255 33 33 33 33 255 33 33 33 33 255 33 33 33 33 
255 33 33 33 33 255 33 33 33 33 255 33 33 33 33 255 
33 33 33 33 255 33 33 255 33 33 33 33 255 33 33 33 33 33 33 33 33 33 134 33 
33 33 33 255 33 33 33 33 255 33 33 33 33 255 33 33 
33 33 255 33 33 33 33 255 33 33 33 33 255 33 33 33 
33 255 33 33 33 33 255 33 33 33 33 255 33 33 33 33 
255 33 33 33 33 255 33 33 33 33 255 33 33 33 33 255 
33 33 33 33 255 33 33 33 33 255 33 33 33 33 255 33 
33 33 33 255 33 33 33 33 255 33 33 33 33 255 33 33 
33 33 255 33 33 33 33 255 33 33 33 33 255 33 33 33 
33 255 33 33 33 33 255 33 33 33 33 255 33 33 33 33 
255 33 33 33 33 255 33 33 33 33 255 33 33 33 33 255 
33 33 33 33 205 33 33 33 33 255 33 33 33 33 255 33 
33 33 33 255 33 33 33 33 255 33 33 33 33 170 33 33 
33 33 255 33 33 33 33 255 33 33 33 33 255 33 33 33 
33 255 33 33 33 33 255 33 33 33 33 255 33 33 33 33 
255 33 33 33 33 255 33 33 33 33 255 33 33 33 33 255 
33 33 33 33 255 33 33 255 33 33 33 33 255 33 33 33 33 33 33 33 33 33 148 33 
33 33 33 255 33 33 33 33 255 33 33 33 33 255 33 33 
33 33 255 33 33 33 33 255 33 33 33 33 255 33 33 33 
33 255 33 33 33 33 255 33 33 33 33 255 33 33 33 33 
255 33 33 33 33 255 33 33 33 33 255 33 33 33 33 255 
33 33 33 33 255 33 33 33 33 255 33 33 33 33 255 33 
33 33 33 255 33 33 33 33 255 33 33 33 33 255 33 33 
33 33 255 33 33 33 33 255 33 33 33 33 255 33 33 33 
33 255 33 33 33 33 255 33 33 33 33 255 33 33 33 33 
255 33 33 33 33 255 33 33 33 33 255 33 33 33 33 255 
33 33 33 33 191 33 33 33 33 255 33 33 33 33 255 33 
33 33 33 255 33 33 33 33 255 33 33 33 33 191 33 33 
33 33 255 33 33 33 33 255 33 33 33 33 255 33 33 33 
33 255 33 33 33 33 255 33 33 33 33 255 33 33 33 33 
255 33 33 33 33 255 33 33 33 33 255 33 33 33 33 255 
33 33 33 33 255 33 33 255 33 33 33 33 255 33 33 33 33 33 33 33 33 33 177 33 
33 33 33 255 33 33 33 33 255 33 33 33 33 255 33 33 
33 33 255 33 33 33 33 255 33 33 33 33 255 33 33 33 
33 255 33 33 33 33 255 33 33 33 33 255 33 33 33 33 
255 33 33 33 33 255 33 33 33 33 255 33 33 33 33 255 
33 33 33 33 255 33 33 33 33 255 33 33 33 33 255 33 
33 33 33 255 33 33 33 33 255 33 33 33 33 255 33 33 
33 33 255 33 33 33 33 255 33 33 33 33 255 33 33 33 
33 255 33 33 33 33 255 33 33 33 33 255 33 33 33 33 
255 33 33 33 33 255 33 33 33 33 255 33 33 33 33 255 
33 33 33 33 212 33 33 33 33 255 33 33 33 33 255 33 
33 33 33 255 33 33 33 33 255 33 33 33 33 148 33 33 
33 33 255 33 33 33 33 255 33 33 33 33 255 33 33 33 
33 255 33 33 33 33 255 33 33 33 33 255 33 33 33 33 
255 33 33 33 33 255 33 33 33 33 255 33 33 33 33 255 
33 33 33 33 255 33 33 255 33 33 33 33 255 33 33 33 33 33 33 33 33 33 212 33 
33 33 33 255 33 33 33 33 255 33 33 33 33 255 33 33 
33 33 255 33 33 33 33 255 33 33 33 33 255 33 33 33 
33 255 33 33 33 33 255 33 33 33 33 255 33 33 33 33 
255 33 33 33 33 255 33 33 33 33 255 33 33 33 33 255 
33 33 33 33 255 33 33 33 33 255 33 33 33 33 255 33 
33 33 33 255 33 33 33 33 255 33 33 33 33 255 33 33 
33 33 255 33 33 33 33 255 33 33 33 33 255 33 33 33 
33 255 33 33 33 33 255 33 33 33 33 255 33 33 33 33 
255 33 33 33 33 255 33 33 33 33 255 33 33 33 33 255 
33 33 33 33 219 33 33 33 33 255 33 33 33 33 255 33 
33 33 33 255 33 33 33 33 255 33 33 33 33 170 33 33 
33 33 255 33 33 33 33 255 33 33 33 33 255 33 33 33 
33 255 33 33 33 33 255 33 33 33 33 255 33 33 33 33 
255 33 33 33 33 255 33 33 33 33 255 33 33 33 33 255 
33 33 33 33 255 33 33 255 33 33 33 33 255 33 33 33 33 33 33 33 33 33 219 33 
33 33 33 255 33 33 33 33 255 33 33 33 33 255 33 33 
33 33 255 33 33 33 33 255 33 33 33 33 255 33 33 33 
33 255 33 33 33 33 255 33 33 33 33 255 33 33 33 33 
255 33 33 33 33 255 33 33 33 33 255 33 33 33 33 255 
33 33 33 33 255 33 33 33 33 255 33 33 33 33 255 33 
33 33 33 255 33 33 33 33 255 33 33 33 33 255 33 33 
33 33 255 33 33 33 33 255 33 33 33 33 255 33 33 33 
33 255 33 33 33 33 255 33 33 33 33 255 33 33 33 33 
255 33 33 33 33 255 33 33 33 33 255 33 33 33 33 255 
33 33 33 33 112 33 33 33 33 255 33 33 33 33 255 33 
33 33 33 255 33 33 33 33 255 33 33 33 33 112 33 33 
33 33 255 33 33 33 33 255 33 33 33 33 255 33 33 33 
33 255 33 33 33 33 255 33 33 33 33 255 33 33 33 33 
255 33 33 33 33 255 33 33 33 33 255 33 33 33 33 255 
33 33 33 33 255 33 33 255 33 33 33 33 255 33 33 33 33 33 33 33 33 33 233 33 
33 33 33 255 33 33 33 33 255 33 33 33 33 255 33 33 
33 33 255 33 33 33 33 255 33 33 33 33 255 33 33 33 
33 255 33 33 33 33 255 33 33 33 33 255 33 33 33 33 
255 33 33 33 33 255 33 33 33 33 255 33 33 33 33 255 
33 33 33 33 255 33 33 33 33 255 33 33 33 33 255 33 
33 33 33 255 33 33 33 33 255 33 33 33 33 255 33 33 
33 33 255 33 33 33 33 255 33 33 33 33 255 33 33 33 
33 255 33 33 33 33 255 33 33 33 33 255 33 33 33 33 
255 33 33 33 33 255 33 33 33 33 255 33 33 33 33 255 
33 33 33 33 131 33 33 33 33 255 33 33 33 33 255 33 
33 33 33 255 33 33 33 33 255 33 33 33 33 148 33 33 
33 33 255 33 33 33 33 255 33 33 33 33 255 33 33 33 
33 255 33 33 33 33 255 33 33 33 33 255 33 33 33 33 
255 33 33 33 33 255 33 33 33 33 255 33 33 33 33 255 
33 33 33 33 255 33 33 255 33 33 33 33 255 33 33 33 33 33 33 33 33 33 240 33 
33 33 33 255 33 33 33 33 255 33 33 33 33 255 33 33 
33 33 255 33 33 33 33 255 33 33 33 33 255 33 33 33 
33 255 33 33 33 33 255 33 33 33 33 255 33 33 33 33 
255 33 33 33 33 255 33 33 33 33 255 33 33 33 33 255 
33 33 33 33 255 33 33 33 33 255 33 33 33 33 255 33 
33 33 33 255 33 33 33 33 255 33 33 33 33 255 33 33 
33 33 255 33 33 33 33 255 33 33 33 33 255 33 33 33 
33 255 33 33 33 33 255 33 33 33 33 255 33 33 33 33 
255 33 33 33 33 255 33 33 33 33 255 33 33 33 33 255 
33 33 33 33 162 33 33 33 33 255 33 33 33 33 255 33 
33 33 33 255 33 33 33 33 255 33 33 33 33 233 33 33 
33 33 255 33 33 33 33 255 33 33 33 33 255 33 33 33 
33 255 33 33 33 33 255 33 33 33 33 255 33 33 33 33 
255 33 33 33 33 255 33 33 33 33 255 33 33 33 33 255 
33 33 33 33 255 33 33 255 33 33 33 33 255 33 33 33 33 33 33 33 33 33 198 33 
33 33 33 255 33 33 33 33 255 33 33 33 33 255 33 33 
33 33 255 33 33 33 33 255 33 33 33 33 255 33 33 33 
33 255 33 33 33 33 255 33 33 33 33 255 33 33 33 33 
255 33 33 33 33 255 33 33 33 33 255 33 33 33 33 255 
33 33 33 33 255 33 33 33 33 255 33 33 33 33 255 33 
33 33 33 255 33 33 33 33 255 33 33 33 33 255 33 33 
33 33 255 33 33 33 33 255 33 33 33 33 255 33 33 33 
33 255 33 33 33 33 255 33 33 33 33 255 33 33 33 33 
255 33 33 33 33 255 33 33 33 33 255 33 33 33 33 255 
33 33 33 33 233 33 33 33 33 255 33 33 33 33 255 33 
33 33 33 255 33 33 33 33 255 33 33 33 33 112 33 33 
33 33 255 33 33 33 33 255 33 33 33 33 255 33 33 33 
33 255 33 33 33 33 255 33 33 33 33 255 33 33 33 33 
255 33 33 33 33 255 33 33 33 33 255 33 33 33 33 255 
33 33 33 33 255 33 33 255 33 33 33 33 255 33 33 33 33 33 33 33 33 33 219 33 
33 33 33 255 33 33 33 33 255 33 33 33 33 255 33 33 
33 33 255 33 33 33 33 255 33 33 33 33 255 33 33 33 
33 255 33 33 33 33 255 33 33 33 33 255 33 33 33 33 
255 33 33 33 33 255 33 33 33 33 255 33 33 33 33 255 
33 33 33 33 255 33 33 33 33 255 33 33 33 33 255 33 
33 33 33 255 33 33 33 33 255 33 33 33 33 255 33 33 
33 33 255 33 33 33 33 255 33 33 33 33 255 33 33 33 
33 255 33 33 33 33 255 33 33 33 33 255 33 33 33 33 
255 33 33 33 33 255 33 33 33 33 255 33 33 33 33 255 
33 33 33 33 112 33 33 33 33 255 33 33 33 33 255 33 
33 33 33 255 33 33 33 33 255 33 33 33 33 148 33 33 
33 33 255 33 33 33 33 255 33 33 33 33 255 33 33 33 
33 255 33 33 33 33 255 33 33 33 33 255 33 33 33 33 
255 33 33 33 33 255 33 33 33 33 255 33 33 33 33 255 
33 33 33 33 255 33 33 255 33 33 33 33 255 33 33 33 33 33 33 33 33 33 226 33 
33 33 33 255 33 33 33 33 255 33 33 33 33 255 33 33 
33 33 255 33 33 33 33 255 33 33 33 33 255 33 33 33 
33 255 33 33 33 33 255 33 33 33 33 255 33 33 33 33 
255 33 33 33 33 255 33 33 33 33 255 33 33 33 33 255 
33 33 33 33 255 33 33 33 33 255 33 33 33 33 255 33 
33 33 33 255 33 33 33 33 255 33 33 33 33 255 33 33 
33 33 255 33 33 33 33 255 33 33 33 33 255 33 33 33 
33 255 33 33 33 33 255 33 33 33 33 255 33 33 33 33 
255 33 33 33 33 255 33 33 33 33 255 33 33 33 33 255 
33 33 33 33 131 33 33 33 33 255 33 33 33 33 255 33 
33 33 33 255 33 33 33 33 255 33 33 33 33 134 33 33 
33 33 255 33 33 33 33 255 33 33 33 33 255 33 33 33 
33 255 33 33 33 33 255 33 33 33 33 255 33 33 33 33 
255 33 33 33 33 255 33 33 33 33 255 33 33 33 33 255 
33 33 33 33 255 33 33 255 33 33 33 33 255 33 33 33 33 33 33 33 33 33 247 33 
33 33 33 255 33 33 33 33 255 33 33 33 33 255 33 33 
33 33 255 33 33 33 33 255 33 33 33 33 255 33 33 33 
33 255 33 33 33 33 255 33 33 33 33 255 33 33 33 33 
255 33 33 33 33 255 33 33 33 33 255 33 33 33 33 255 
33 33 33 33 255 33 33 33 33 255 33 33 33 33 255 33 
33 33 33 255 33 33 33 33 255 33 33 33 33 255 33 33 
33 33 255 33 33 33 33 255 33 33 33 33 255 33 33 33 
33 255 33 33 33 33 255 33 33 33 33 255 33 33 33 33 
255 33 33 33 33 255 33 33 33 33 255 33 33 33 33 255 
33 33 33 33 219 33 33 33 33 255 33 33 33 33 255 33 
33 33 33 255 33 33 33 33 255 33 33 33 33 131 33 33 
33 33 255 33 33 33 33 255 33 33 33 33 255 33 33 33 
33 255 33 33 33 33 255 33 33 33 33 255 33 33 33 33 
255 33 33 33 33 255 33 33 33 33 255 33 33 33 33 255 
33 33 33 33 255 33 33 255 33 33 33 33 255 33 33 33 33 33 33 33 33 33 205 33 
33 33 33 255 33 33 33 33 255 33 33 33 33 255 33 33 
33 33 255 33 33 33 33 255 33 33 33 33 255 33 33 33 
33 255 33 33 33 33 255 33 33 33 33 255 33 33 33 33 
255 33 33 33 33 255 33 33 33 33 255 33 33 33 33 255 
33 33 33 33 255 33 33 33 33 255 33 33 33 33 255 33 
33 33 33 255 33 33 33 33 255 33 33 33 33 255 33 33 
33 33 255 33 33 33 33 255 33 33 33 33 255 33 33 33 
33 255 33 33 33 33 255 33 33 33 33 255 33 33 33 33 
255 33 33 33 33 255 33 33 33 33 255 33 33 33 33 255 
33 33 33 33 240 33 33 33 33 255 33 33 33 33 255 33 
33 33 33 255 33 33 33 33 255 33 33 33 33 134 33 33 
33 33 255 33 33 33 33 255 33 33 33 33 255 33 33 33 
33 255 33 33 33 33 255 33 33 33 33 255 33 33 33 33 
255 33 33 33 33 255 33 33 33 33 255 33 33 33 33 255 
33 33 33 33 255 33 33 255 33 33 33 33 255 33 33 33 33 33 33 33 33 33 226 33 
33 33 33 255 33 33 33 33 255 33 33 33 33 255 33 33 
33 33 255 33 33 33 33 255 33 33 33 33 255 33 33 33 
33 255 33 33 33 33 255 33 33 33 33 255 33 33 33 33 
255 33 33 33 33 255 33 33 33 33 255 33 33 33 33 255 
33 33 33 33 255 33 33 33 33 255 33 33 33 33 255 33 
33 33 33 255 33 33 33 33 255 33 33 33 33 255 33 33 
33 33 255 33 33 33 33 255 33 33 33 33 255 33 33 33 
33 255 33 33 33 33 255 33 33 33 33 255 33 33 33 33 
255 33 33 33 33 255 33 33 33 33 255 33 33 33 33 255 
33 33 33 33 247 33 33 33 33 255 33 33 33 33 255 33 
33 33 33 255 33 33 33 33 255 33 33 33 33 226 33 33 
33 33 255 33 33 33 33 255 33 33 33 33 255 33 33 33 
33 255 33 33 33 33 255 33 33 33 33 255 33 33 33 33 
255 33 33 33 33 255 33 33 33 33 255 33 33 33 33 255 
33 33 33 33 255 33 33 255 33 33 33 33 255 33 33 33 33 33 33 33 33 33 184 33 
33 33 33 255 33 33 33 33 255 33 33 33 33 255 33 33 
33 33 255 33 33 33 33 255 33 33 33 33 255 33 33 33 
33 255 33 33 33 33 255 33 33 33 33 255 33 33 33 33 
255 33 33 33 33 255 33 33 33 33 255 33 33 33 33 255 
33 33 33 33 255 33 33 33 33 255 33 33 33 33 255 33 
33 33 33 255 33 33 33 33 255 33 33 33 33 255 33 33 
33 33 255 33 33 33 33 255 33 33 33 33 255 33 33 33 
33 255 33 33 33 33 255 33 33 33 33 255 33 33 33 33 
255 33 33 33 33 255 33 33 33 33 255 33 33 33 33 255 
33 33 33 33 191 33 33 33 33 255 33 33 33 33 255 33 
33 33 33 255 33 33 33 33 255 33 33 33 33 247 33 33 
33 33 255 33 33 33 33 255 33 33 33 33 255 33 33 33 
33 255 33 33 33 33 255 33 33 33 33 255 33 33 33 33 
255 33 33 33 33 255 33 33 33 33 255 33 33 33 33 255 
33 33 33 33 255 33 33 255 33 33 33 33 255 33 33 33 33 33 33 33 33 33 205 33 
33 33 33 255 33 33 33 33 255 33 33 33 33 255 33 33 
33 33 255 33 33 33 33 255 33 33 33 33 255 33 33 33 
33 255 33 33 33 33 255 33 33 33 33 255 33 33 33 33 
255 33 33 33 33 255 33 33 33 33 255 33 33 33 33 255 
33 33 33 33 255 33 33 33 33 255 33 33 33 33 255 33 
33 33 33 255 33 33 33 33 255 33 33 33 33 255 33 33 
33 33 255 33 33 33 33 255 33 33 33 33 255 33 33 33 
33 255 33 33 33 33 255 33 33 33 33 255 33 33 33 33 
255 33 33 33 33 255 33 33 33 33 255 33 33 33 33 255 
33 33 33 33 148 33 33 33 33 255 33 33 33 33 255 33 
33 33 33 255 33 33 33 33 255 33 33 33 33 205 33 33 
33 33 255 33 33 33 33 255 33 33 33 33 255 33 33 33 
33 255 33 33 33 33 255 33 33 33 33 255 33 33 33 33 
255 33 33 33 33 255 33 33 33 33 255 33 33 33 33 255 
33 33 33 33 255 33 33 255 33 33 33 33 255 33 33 33 33 33 33 33 33 33 191 33 
33 33 33 255 33 33 33 33 255 33 33 33 33 255 33 33 
33 33 255 33 33 33 33 255 33 33 33 33 255 33 33 33 
33 255 33 33 33 33 255 33 33 33 33 255 33 33 33 33 
255 33 33 33 33 255 33 33 33 33 255 33 33 33 33 255 
33 33 33 33 255 33 33 33 33 255 33 33 33 33 255 33 
33 33 33 255 33 33 33 33 255 33 33 33 33 255 33 33 
33 33 255 33 33 33 33 255 33 33 33 33 255 33 33 33 
33 255 33 33 33 33 255 33 33 33 33 255 33 33 33 33 
255 33 33 33 33 255 33 33 33 33 255 33 33 33 33 255 
33 33 33 33 155 33 33 33 33 255 33 33 33 33 255 33 
33 33 33 255 33 33 33 33 255 33 33 33 33 226 33 33 
33 33 255 33 33 33 33 255 33 33 33 33 255 33 33 33 
33 255 33 33 33 33 255 33 33 33 33 255 33 33 33 33 
255 33 33 33 33 255 33 33 33 33 255 33 33 33 33 255 
33 33 33 33 255 33 33 255 33 33 33 33 255 33 33 33 33 33 33 33 33 33 212 33 
33 33 33 255 33 33 33 33 255 33 33 33 33 255 33 33 
33 33 255 33 33 33 33 255 33 33 33 33 255 33 33 33 
33 255 33 33 33 33 255 33 33 33 33 255 33 33 33 33 
255 33 33 33 33 255 33 33 33 33 255 33 33 33 33 255 
33 33 33 33 255 33 33 33 33 255 33 33 33 33 255 33 
33 33 33 255 33 33 33 33 255 33 33 33 33 255 33 33 
33 33 255 33 33 33 33 255 33 33 33 33 255 33 33 33 
33 255 33 33 33 33 255 33 33 33 33 255 33 33 33 33 
255 33 33 33 33 255 33 33 33 33 255 33 33 33 33 255 
33 33 33 33 240 33 33 33 33 255 33 33 33 33 255 33 
33 33 33 255 33 33 33 33 255 33 33 33 33 184 33 33 
33 33 255 33 33 33 33 255 33 33 33 33 255 33 33 33 
33 255 33 33 33 33 255 33 33 33 33 255 33 33 33 33 
255 33 33 33 33 255 33 33 33 33 255 33 33 33 33 255 
33 33 33 33 255 33 33 255 33 33 33 33 255 33 33 33 33 33 33 33 33 33 170 33 
33 33 33 255 33 33 33 33 255 33 33 33 33 255 33 33 
33 33 255 33 33 33 33 255 33 33 33 33 255 33 33 33 
33 255 33 33 33 33 255 33 33 33 33 255 33 33 33 33 
255 33 33 33 33 255 33 33 33 33 255 33 33 33 33 255 
33 33 33 33 255 33 33 33 33 255 33 33 33 33 255 33 
33 33 33 255 33 33 33 33 255 33 33 33 33 255 33 33 
33 33 255 33 33 33 33 255 33 33 33 33 255 33 33 33 
33 255 33 33 33 33 255 33 33 33 33 255 33 33 33 33 
255 33 33 33 33 255 33 33 33 33 255 33 33 33 33 255 
33 33 33 33 131 33 33 33 33 255 33 33 33 33 255 33 
33 33 33 255 33 33 33 33 255 33 33 33 33 205 33 33 
33 33 255 33 33 33 33 255 33 33 33 33 255 33 33 33 
33 255 33 33 33 33 255 33 33 33 33 255 33 33 33 33 
255 33 33 33 33 255 33 33 33 33 255 33 33 33 33 255 
33 33 33 33 255 33 33 255 33 33 33 33 255 33 33 33 33 33 33 33 33 33 191 33 
33 33 33 255 33 33 33 33 255 33 33 33 33 255 33 33 
33 33 255 33 33 33 33 255 33 33 33 33 255 33 33 33 
33 255 33 33 33 33 255 33 33 33 33 255 33 33 33 33 
255 33 33 33 33 255 33 33 33 33 255 33 33 33 33 255 
33 33 33 33 255 33 33 33 33 255 33 33 33 33 255 33 
33 33 33 255 33 33 33 33 255 33 33 33 33 255 33 33 
33 33 255 33 33 33 33 255 33 33 33 33 255 33 33 33 
33 255 33 33 33 33 255 33 33 33 33 255 33 33 33 33 
255 33 33 33 33 255 33 33 33 33 255 33 33 33 33 255 
33 33 33 33 134 33 33 33 33 255 33 33 33 33 255 33 
33 33 33 255 33 33 33 33 255 33 33 33 33 255 33 33 
33 33 255 33 33 33 33 255 33 33 33 33 255 33 33 33 
33 255 33 33 33 33 255 33 33 33 33 255 33 33 33 33 
255 33 33 33 33 255 33 33 33 33 255 33 33 33 33 255 
33 33 33 33 255 33 33 255 33 33 33 33 255 33 33 33 33 33 33 33 33 33 212 33 
33 33 33 255 33 33 33 33 255 33 33 33 33 255 33 33 
33 33 255 33 33 33 33 255 33 33 33 33 255 33 33 33 
33 255 33 33 33 33 255 33 33 33 33 255 33 33 33 33 
255 33 33 33 33 255 33 33 33 33 255 33 33 33 33 255 
33 33 33 33 255 33 33 33 33 255 33 33 33 33 255 33 
33 33 33 255 33 33 33 33 255 33 33 33 33 255 33 33 
33 33 255 33 33 33 33 255 33 33 33 33 255 33 33 33 
33 255 33 33 33 33 255 33 33 33 33 255 33 33 33 33 
255 33 33 33 33 255 33 33 33 33 255 33 33 33 33 255 
33 33 33 33 162 33 33 33 33 255 33 33 33 33 255 33 
33 33 33 255 33 33 33 33 255 33 33 33 33 255 33 33 
33 33 255 33 33 33 33 255 33 33 33 33 255 33 33 33 
33 255 33 33 33 33 255 33 33 33 33 255 33 33 33 33 
255 33 33 33 33 255 33 33 33 33 255 33 33 33 33 255 
33 33 33 33 255 33 33 255 33 33 33 33 255 33 33 33 33 33 33 33 33 33 255 33 
33 33 33 255 33 33 33 33 255 33 33 33 33 255 33 33 
33 33 255 33 33 33 33 255 33 33 33 33 255 33 33 33 
33 255 33 33 33 33 255 33 33 33 33 255 33 33 33 33 
255 33 33 33 33 255 33 33 33 33 255 33 33 33 33 255 
33 33 33 33 255 33 33 33 33 255 33 33 33 33 255 33 
33 33 33 255 33 33 33 33 255 33 33 33 33 255 33 33 
33 33 255 33 33 33 33 255 33 33 33 33 255 33 33 33 
33 255 33 33 33 33 255 33 33 33 33 255 33 33 33 33 
255 33 33 33 33 255 33 33 33 33 255 33 33 33 33 255 
33 33 33 33 247 33 33 33 33 255 33 33 33 33 255 33 
33 33 33 255 33 33 33 33 255 33 33 33 33 255 33 33 
33 33 255 33 33 33 33 255 33 33 33 33 255 33 33 33 
33 255 33 33 33 33 255 33 33 33 33 255 33 33 33 33 
255 33 33 33 33 255 33 33 33 33 255 33 33 33 33 255 
33 33 33 33 255 33 33 255 33 33 33 33 255 33 33 33 33 33 33 33 33 33 255 33 
33 33 33 255 33 33 33 33 255 33 33 33 33 255 33 33 
33 33 255 33 33 33 33 255 33 33 33 33 255 33 33 33 
33 255 33 33 33 33 255 33 33 33 33 255 33 33 33 33 
255 33 33 33 33 255 33 33 33 33 255 33 33 33 33 255 
33 33 33 33 255 33 33 33 33 255 33 33 33 33 255 33 
33 33 33 255 33 33 33 33 255 33 33 33 33 255 33 33 
33 33 255 33 33 33 33 255 33 33 33 33 255 33 33 33 
33 255 33 33 33 33 255 33 33 33 33 255 33 33 33 33 
255 33 33 33 33 255 33 33 33 33 255 33 33 33 33 255 
33 33 33 33 134 33 33 33 33 255 33 33 33 33 255 33 
33 33 33 255 33 33 33 33 255 33 33 33 33 255 33 33 
33 33 255 33 33 33 33 255 33 33 33 33 255 33 33 33 
33 255 33 33 33 33 255 33 33 33 33 255 33 33 33 33 
255 33 33 33 33 255 33 33 33 33 255 33 33 33 33 255 
33 33 33 33 255 33 33 255 33 33 33 33 255 33 33 33 33 33 33 33 33 33 255 33 
33 33 33 255 33 33 33 33 255 33 33 33 33 255 33 33 
33 33 255 33 33 33 33 255 33 33 33 33 255 33 33 33 
33 255 33 33 33 33 255 33 33 33 33 255 33 33 33 33 
255 33 33 33 33 255 33 33 33 33 255 33 33 33 33 255 
33 33 33 33 255 33 33 33 33 255 33 33 33 33 255 33 
33 33 33 255 33 33 33 33 255 33 33 33 33 255 33 33 
33 33 255 33 33 33 33 255 33 33 33 33 255 33 33 33 
33 255 33 33 33 33 255 33 33 33 33 255 33 33 33 33 
255 33 33 33 33 255 33 33 33 33 255 33 33 33 33 255 
33 33 33 33 112 33 33 33 33 255 33 33 33 33 255 33 
33 33 33 255 33 33 33 33 255 33 33 33 33 255 33 33 
33 33 255 33 33 33 33 255 33 33 33 33 255 33 33 33 
33 255 33 33 33 33 255 33 33 33 33 255 33 33 33 33 
255 33 33 33 33 255 33 33 33 33 255 33 33 33 33 255 
33 33 33 33 255 33 33 255 33 33 33 33 255 33 33 33 33 33 33 33 33 33 255 33 
33 33 33 255 33 33 33 33 255 33 33 33 33 255 33 33 
33 33 255 33 33 33 33 255 33 33 33 33 255 33 33 33 
33 255 33 33 33 33 255 33 33 33 33 255 33 33 33 33 
255 33 33 33 33 255 33 33 33 33 255 33 33 33 33 255 
33 33 33 33 255 33 33 33 33 255 33 33 33 33 255 33 
33 33 33 255 33 33 33 33 255 33 33 33 33 255 33 33 
33 33 255 33 33 33 33 255 33 33 33 33 255 33 33 33 
33 255 33 33 33 33 255 33 33 33 33 255 33 33 33 33 
255 33 33 33 33 255 33 33 33 33 255 33 33 33 33 255 
33 33 33 33 148 33 33 33 33 255 33 33 33 33 255 33 
33 33 33 255 33 33 33 33 255 33 33 33 33 255 33 33 
33 33 255 33 33 33 33 255 33 33 33 33 255 33 33 33 
33 255 33 33 33 33 255 33 33 33 33 255 33 33 33 33 
255 33 33 33 33 255 33 33 33 33 255 33 33 33 33 255 
33 33 33 33 255 33 33 255 33 33 33 33 255 33 33 33 33 33 33 33 33 33 255 33 
33 33 33 255 33 33 33 33 255 33 33 33 33 255 33 33 
33 33 255 33 33 33 33 255 33 33 33 33 255 33 33 33 
33 255 33 33 33 33 255 33 33 33 33 255 33 33 33 33 
255 33 33 33 33 255 33 33 33 33 255 33 33 33 33 255 
33 33 33 33 255 33 33 33 33 255 33 33 33 33 255 33 
33 33 33 255 33 33 33 33 255 33 33 33 33 255 33 33 
33 33 255 33 33 33 33 255 33 33 33 33 255 33 33 33 
33 255 33 33 33 33 255 33 33 33 33 255 33 33 33 33 
255 33 33 33 33 255 33 33 33 33 255 33 33 33 33 255 
33 33 33 33 233 33 33 33 33 255 33 33 33 33 255 33 
33 33 33 255 33 33 33 33 255 33 33 33 33 255 33 33 
33 33 255 33 33 33 33 255 33 33 33 33 255 33 33 33 
33 255 33 33 33 33 255 33 33 33 33 255 33 33 33 33 
255 33 33 33 33 255 33 33 33 33 255 33 33 33 33 255 
33 33 33 33 255 33 33 255 33 33 33 33 255 33 33 33 33 33 33 33 33 33 255 33 
33 33 33 255 33 33 33 33 255 33 33 33 33 255 33 33 
33 33 255 33 33 33 33 255 33 33 33 33 255 33 33 33 
33 255 33 33 33 33 255 33 33 33 33 255 33 33 33 33 
255 33 33 33 33 255 33 33 33 33 255 33 33 33 33 255 
33 33 33 33 255 33 33 33 33 255 33 33 33 33 255 33 
33 33 33 255 33 33 33 33 255 33 33 33 33 255 33 33 
33 33 255 33 33 33 33 255 33 33 33 33 255 33 33 33 
33 255 33 33 33 33 255 33 33 33 33 255 33 33 33 33 
255 33 33 33 33 255 33 33 33 33 255 33 33 33 33 255 
33 33 33 33 112 33 33 33 33 255 33 33 33 33 255 33 
33 33 33 255 33 33 33 33 255 33 33 33 33 255 33 33 
33 33 255 33 33 33 33 255 33 33 33 33 255 33 33 33 
33 255 33 33 33 33 255 33 33 33 33 255 33 33 33 33 
255 33 33 33 33 255 33 33 33 33 255 33 33 33 33 255 
33 33 33 33 255 33 33 255 33 33 33 33 255 33 33 33 33 33 33 33 33 33 255 33 
33 33 33 255 33 33 33 33 255 33 33 33 33 255 33 33 
33 33 255 33 33 33 33 255 33 33 33 33 255 33 33 33 
33 255 33 33 33 33 255 33 33 33 33 255 33 33 33 33 
255 33 33 33 33 255 33 33 33 33 255 33 33 33 33 255 
33 33 33 33 255 33 33 33 33 255 33 33 33 33 255 33 
33 33 33 255 33 33 33 33 255 33 33 33 33 255 33 33 
33 33 255 33 33 33 33 255 33 33 33 33 255 33 33 33 
33 255 33 33 33 33 255 33 33 33 33 255 33 33 33 33 
255 33 33 33 33 255 33 33 33 33 255 33 33 33 33 255 
33 33 33 33 131 33 33 33 33 255 33 33 33 33 255 33 
33 33 33 255 33 33 33 33 255 33 33 33 33 255 33 33 
33 33 255 33 33 33 33 255 33 33 33 33 255 33 33 33 
33 255 33 33 33 33 255 33 33 33 33 255 33 33 33 33 
255 33 33 33 33 255 33 33 33 33 255 33 33 33 33 255 
33 33 33 33 255 33 33 255 33 33 33 33 255 33 33 33 33 33 33 33 33 33 255 33 
33 33 33 255 33 33 33 33 255 33 33 33 33 255 33 33 
33 33 255 33 33 33 33 255 33 33 33 33 255 33 33 33 
33 255 33 33 33 33 255 33 33 33 33 255 33 33 33 33 
255 33 33 33 33 255 33 33 33 33 255 33 33 33 33 255 
33 33 33 33 255 33 33 33 33 255 33 33 33 33 255 33 
33 33 33 255 33 33 33 33 255 33 33 33 33 255 33 33 
33 33 255 33 33 33 33 255 33 33 33 33 255 33 33 33 
33 255 33 33 33 33 255 33 33 33 33 255 33 33 33 33 
255 33 33 33 33 255 33 33 33 33 255 33 33 33 33 255 
33 33 33 33 155 33 33 33 33 255 33 33 33 33 255 33 
33 33 33 255 33 33 33 33 255 33 33 33 33 255 33 33 
33 33 255 33 33 33 33 255 33 33 33 33 255 33 33 33 
33 255 33 33 33 33 255 33 33 33 33 255 33 33 33 33 
255 33 33 33 33 255 33 33 33 33 255 33 33 33 33 255 
33 33 33 33 255 33 33 255 33 33 33 33 255 33 33 33 33 33 33 33 33 33 255 33 
33 33 33 255 33 33 33 33 255 33 33 33 33 255 33 33 
33 33 255 33 33 33 33 255 33 33 33 33 255 33 33 33 
33 255 33 33 33 33 255 33 33 33 33 255 33 33 33 33 
255 33 33 33 33 255 33 33 33 33 255 33 33 33 33 255 
33 33 33 33 255 33 33 33 33 255 33 33 33 33 255 33 
33 33 33 255 33 33 33 33 255 33 33 33 33 255 33 33 
33 33 255 33 33 33 33 255 33 33 33 33 255 33 33 33 
33 255 33 33 33 33 255 33 33 33 33 255 33 33 33 33 
255 33 33 33 33 255 33 33 33 33 255 33 33 33 33 255 
33 33 33 33 240 33 33 33 33 255 33 33 33 33 255 33 
33 33 33 255 33 33 33 33 255 33 33 33 33 255 33 33 
33 33 255 33 33 33 33 255 33 33 33 33 255 33 33 33 
33 255 33 33 33 33 255 33 33 33 33 255 33 33 33 33 
255 33 33 33 33 255 33 33 33 33 255 33 33 33 33 255 
33 33 33 33 255 33 33 255 33 33 33 33 255 33 33 33 33 33 33 33 33 33 255 33 
33 33 33 255 33 33 33 33 255 33 33 33 33 255 33 33 
33 33 255 33 33 33 33 255 33 33 33 33 255 33 33 33 
33 255 33 33 33 33 255 33 33 33 33 255 33 33 33 33 
255 33 33 33 33 255 33 33 33 33 255 33 33 33 33 255 
33 33 33 33 255 33 33 33 33 255 33 33 33 33 255 33 
33 33 33 255 33 33 33 33 255 33 33 33 33 255 33 33 
33 33 255 33 33 33 33 255 33 33 33 33 255 33 33 33 
33 255 33 33 33 33 255 33 33 33 33 255 33 33 33 33 
255 33 33 33 33 255 33 33 33 33 255 33 33 33 33 255 
33 33 33 33 131 33 33 33 33 255 33 33 33 33 255 33 
33 33 33 255 33 33 33 33 255 33 33 33 33 255 33 33 
33 33 255 33 33 33 33 255 33 33 33 33 255 33 33 33 
33 255 33 33 33 33 255 33 33 33 33 255 33 33 33 33 
255 33 33 33 33 255 33 33 33 33 255 33 33 33 33 255 
33 33 33 33 255 33 33 255 33 33 33 33 255 33 33 33 33 33 33 33 33 33 255 33 
33 33 33 255 33 33 33 33 255 33 33 33 33 255 33 33 
33 33 255 33 33 33 33 255 33 33 33 33 255 33 33 33 
33 255 33 33 33 33 255 33 33 33 33 255 33 33 33 33 
255 33 33 33 33 255 33 33 33 33 255 33 33 33 33 255 
33 33 33 33 255 33 33 33 33 255 33 33 33 33 255 33 
33 33 33 255 33 33 33 33 255 33 33 33 33 255 33 33 
33 33 255 33 33 33 33 255 33 33 33 33 255 33 33 33 
33 255 33 33 33 33 255 33 33 33 33 255 33 33 33 33 
255 33 33 33 33 255 33 33 33 33 255 33 33 33 33 255 
33 33 33 33 134 33 33 33 33 255 33 33 33 33 255 33 
33 33 33 255 33 33 33 33 255 33 33 33 33 255 33 33 
33 33 255 33 33 33 33 255 33 33 33 33 255 33 33 33 
33 255 33 33 33 33 255 33 33 33 33 255 33 33 33 33 
255 33 33 33 33 255 33 33 33 33 255 33 33 33 33 255 
33 33 33 33 255 33 33 255 33 33 33 33 255 33 33 33 33 33 33 33 33 33 255 33 
33 33 33 255 33 33 33 33 255 33 33 33 33 255 33 33 
33 33 255 33 33 33 33 255 33 33 33 33 255 33 33 33 
33 255 33 33 33 33 255 33 33 33 33 255 33 33 33 33 
255 33 33 33 33 255 33 33 33 33 255 33 33 33 33 255 
33 33 33 33 255 33 33 33 33 255 33 33 33 33 255 33 
33 33 33 255 33 33 33 33 255 33 33 33 33 255 33 33 
33 33 255 33 33 33 33 255 33 33 33 33 255 33 33 33 
33 255 33 33 33 33 255 33 33 33 33 255 33 33 33 33 
255 33 33 33 33 255 33 33 33 33 255 33 33 33 33 255 
33 33 33 33 162 33 33 33 33 255 33 33 33 33 255 33 
33 33 33 255 33 33 33 33 255 33 33 33 33 255 33 33 
33 33 255 33 33 33 33 255 33 33 33 33 255 33 33 33 
33 255 33 33 33 33 255 33 33 33 33 255 33 33 33 33 
255 33 33 33 33 255 33 33 33 33 255 33 33 33 33 255 
33 33 33 33 255 33 33 255 33 33 33 33 255 33 33 33 33 33 33 33 33 33 255 33 
33 33 33 255 33 33 33 33 255 33 33 33 33 255 33 33 
33 33 255 33 33 33 33 255 33 33 33 33 255 33 33 33 
33 255 33 33 33 33 255 33 33 33 33 255 33 33 33 33 
255 33 33 33 33 255 33 33 33 33 255 33 33 33 33 255 
33 33 33 33 255 33 33 33 33 255 33 33 33 33 255 33 
33 33 33 255 33 33 33 33 255 33 33 33 33 255 33 33 
33 33 255 33 33 33 33 255 33 33 33 33 255 33 33 33 
33 255 33 33 33 33 255 33 33 33 33 255 33 33 33 33 
255 33 33 33 33 255 33 33 33 33 255 33 33 33 33 255 
33 33 33 33 247 33 33 33 33 255 33 33 33 33 255 33 
33 33 33 255 33 33 33 33 255 33 33 33 33 255 33 33 
33 33 255 33 33 33 33 255 33 33 33 33 255 33 33 33 
33 255 33 33 33 33 255 33 33 33 33 255 33 33 33 33 
255 33 33 33 33 255 33 33 33 33 255 33 33 33 33 255 
33 33 33 33 255 33 33 255 33 33 33 33 255 33 33 33 33 33 33 33 33 33 255 33 
33 33 33 255 33 33 33 33 255 33 33 33 33 255 33 33 
33 33 255 33 33 33 33 255 33 33 33 33 255 33 33 33 
33 255 33 33 33 33 255 33 33 33 33 255 33 33 33 33 
255 33 33 33 33 255 33 33 33 33 255 33 33 33 33 255 
33 33 33 33 255 33 33 33 33 255 33 33 33 33 255 33 
33 33 33 255 33 33 33 33 255 33 33 33 33 255 33 33 
33 33 255 33 33 33 33 255 33 33 33 33 255 33 33 33 
33 255 33 33 33 33 255 33 33 33 33 255 33 33 33 33 
255 33 33 33 33 255 33 33 33 33 255 33 33 33 33 255 
33 33 33 33 134 33 33 33 33 255 33 33 33 33 255 33 
33 33 33 255 33 33 33 33 255 33 33 33 33 255 33 33 
33 33 255 33 33 33 33 255 33 33 33 33 255 33 33 33 
33 255 33 33 33 33 255 33 33 33 33 255 33 33 33 33 
255 33 33 33 33 255 33 33 33 33 255 33 33 33 33 255 
33 33 33 33 255 33 33 255 33 33 33 33 255 33 33 33 33 33 33 33 33 33 255 33 
33 33 33 255 33 33 33 33 255 33 33 33 33 255 33 33 
33 33 255 33 33 33 33 255 33 33 33 33 255 33 33 33 
33 255 33 33 33 33 255 33 33 33 33 255 33 33 33 33 
255 33 33 33 33 255 33 33 33 33 255 33 33 33 33 255 
33 33 33 33 255 33 33 33 33 255 33 33 33 33 255 33 
33 33 33 255 33 33 33 33 255 33 33 33 33 255 33 33 
33 33 255 33 33 33 33 255 33 33 33 33 255 33 33 33 
33 255 33 33 33 33 255 33 33 33 33 255 33 33 33 33 
255 33 33 33 33 255 33 33 33 33 255 33 33 33 33 255 
33 33 33 33 112 33 33 33 33 255 33 33 33 33 255 33 
33 33 33 255 33 33 33 33 255 33 33 33 33 255 33 33 
33 33 255 33 33 33 33 255 33 33 33 33 255 33 33 33 
33 255 33 33 33 33 255 33 33 33 33 255 33 33 33 33 
255 33 33 33 33 255 33 33 33 33 255 33 33 33 33 255 
33 33 33 33 255 33 33 255 33 33 33 33 255 33 33 33 33 33 33 33 33 33 255 33 
33 33 33 255 33 33 33 33 255 33 33 33 33 255 33 33 
33 33 255 33 33 33 33 255 33 33 33 33 255 33 33 33 
33 255 33 33 33 33 255 33 33 33 33 255 33 33 33 33 
255 33 33 33 33 255 33 33 33 33 255 33 33 33 33 255 
33 33 33 33 255 33 33 33 33 255 33 33 33 33 255 33 
33 33 33 255 33 33 33 33 255 33 33 33 33 255 33 33 
33 33 255 33 33 33 33 255 33 33 33 33 255 33 33 33 
33 255 33 33 33 33 255 33 33 33 33 255 33 33 33 33 
255 33 33 33 33 255 33 33 33 33 255 33 33 33 33 255 
33 33 33 33 148 33 33 33 33 255 33 33 33 33 255 33 
33 33 33 255 33 33 33 33 255 33 33 33 33 255 33 33 
33 33 255 33 33 33 33 255 33 33 33 33 255 33 33 33 
33 255 33 33 33 33 255 33 33 33 33 255 33 33 33 33 
255 33 33 33 33 255 33 33 33 33 255 33 33 33 33 255 
33 33 33 33 255 33 33 255 33 33 33 33 255 33 33 33 33 33 33 33 33 33 255 33 
33 33 33 255 33 33 33 33 255 33 33 33 33 255 33 33 
33 33 255 33 33 33 33 255 33 33 33 33 255 33 33 33 
33 255 33 33 33 33 255 33 33 33 33 255 33 33 33 33 
255 33 33 33 33 255 33 33 33 33 255 33 33 33 33 255 
33 33 33 33 255 33 33 33 33 255 33 33 33 33 255 33 
33 33 33 255 33 33 33 33 255 33 33 33 33 255 33 33 
33 33 255 33 33 33 33 255 33 33 33 33 255 33 33 33 
33 255 33 33 33 33 255 33 33 33 33 255 33 33 33 33 
255 33 33 33 33 255 33 33 33 33 255 33 33 33 33 255 
33 33 33 33 233 33 33 33 33 255 33 33 33 33 255 33 
33 33 33 255 33 33 33 33 255 33 33 33 33 255 33 33 
33 33 255 33 33 33 33 255 33 33 33 33 255 33 33 33 
33 255 33 33 33 33 255 33 33 33 33 255 33 33 33 33 
255 33 33 33 33 255 33 33 33 33 255 33 33 33 33 255 
33 33 33 33 255 33 33 255 33 33 33 33 255 33 33 33 33 33 33 33 33 33 255 33 
33 33 33 255 33 33 33 33 255 33 33 33 33 255 33 33 
33 33 255 33 33 33 33 255 33 33 33 33 255 33 33 33 
33 255 33 33 33 33 255 33 33 33 33 255 33 33 33 33 
255 33 33 33 33 255 33 33 33 33 255 33 33 33 33 255 
33 33 33 33 255 33 33 33 33 255 33 33 33 33 255 33 
33 33 33 255 33 33 33 33 255 33 33 33 33 255 33 33 
33 33 255 33 33 33 33 255 33 33 33 33 255 33 33 33 
33 255 33 33 33 33 255 33 33 33 33 255 33 33 33 33 
255 33 33 33 33 255 33 33 33 33 255 33 33 33 33 255 
33 33 33 33 112 33 33 33 33 255 33 33 33 33 255 33 
33 33 33 255 33 33 33 33 255 33 33 33 33 255 33 33 
33 33 255 33 33 33 33 255 33 33 33 33 255 33 33 33 
33 255 33 33 33 33 255 33 33 33 33 255 33 33 33 33 
255 33 33 33 33 255 33 33 33 33 255 33 33 33 33 255 
33 33 33 33 255 33 33 255 33 33 33 33 255 33 33 33 33 33 33 33 33 33 255 33 
33 33 33 255 33 33 33 33 255 33 33 33 33 255 33 33 
33 33 255 33 33 33 33 255 33 33 33 33 255 33 33 33 
33 255 33 33 33 33 255 33 33 33 33 255 33 33 33 33 
255 33 33 33 33 255 33 33 33 33 255 33 33 33 33 255 
33 33 33 33 255 33 33 33 33 255 33 33 33 33 255 33 
33 33 33 255 33 33 33 33 255 33 33 33 33 255 33 33 
33 33 255 33 33 33 33 255 33 33 33 33 255 33 33 33 
33 255 33 33 33 33 255 33 33 33 33 255 33 33 33 33 
255 33 33 33 33 255 33 33 33 33 255 33 33 33 33 255 
33 33 33 33 131 33 33 33 33 255 33 33 33 33 255 33 
33 33 33 255 33 33 33 33 255 33 33 33 33 255 33 33 
33 33 255 33 33 33 33 255 33 33 33 33 255 33 33 33 
33 255 33 33 33 33 255 33 33 33 33 255 33 33 33 33 
255 33 33 33 33 255 33 33 33 33 255 33 33 33 33 255 
33 33 33 33 255 33 33 255 33 33 33 33 255 33 33 33 33 33 33 33 33 33 255 33 
33 33 33 255 33 33 33 33 255 33 33 33 33 255 33 33 
33 33 255 33 33 33 33 255 33 33 33 33 255 33 33 33 
33 255 33 33 33 33 255 33 33 33 33 255 33 33 33 33 
255 33 33 33 33 255 33 33 33 33 255 33 33 33 33 255 
33 33 33 33 255 33 33 33 33 255 33 33 33 33 255 33 
33 33 33 255 33 33 33 33 255 33 33 33 33 255 33 33 
33 33 255 33 33 33 33 255 33 33 33 33 255 33 33 33 
33 255 33 33 33 33 255 33 33 33 33 255 33 33 33 33 
255 33 33 33 33 255 33 33 33 33 255 33 33 33 33 255 
33 33 33 33 155 33 33 33 33 255 33 33 33 33 255 33 
33 33 33 255 33 33 33 33 255 33 33 33 33 255 33 33 
33 33 255 33 33 33 33 255 33 33 33 33 255 33 33 33 
33 255 33 33 33 33 255 33 33 33 33 255 33 33 33 33 
255 33 33 33 33 255 33 33 33 33 255 33 33 33 33 255 
33 33 33 33 255 33 33 255 33 33 33 33 255 33 33 33 33 33 33 33 33 33 255 33 
33 33 33 255 33 33 33 33 255 33 33 33 33 255 33 33 
33 33 255 33 33 33 33 255 33 33 33 33 255 33 33 33 
33 255 33 33 33 33 255 33 33 33 33 255 33 33 33 33 
255 33 33 33 33 255 33 33 33 33 255 33 33 33 33 255 
33 33 33 33 255 33 33 33 33 255 33 33 33 33 255 33 
33 33 33 255 33 33 33 33 255 33 33 33 33 255 33 33 
33 33 255 33 33 33 33 255 33 33 33 33 255 33 33 33 
33 255 33 33 33 33 255 33 33 33 33 255 33 33 33 33 
255 33 33 33 33 255 33 33 33 33 255 33 33 33 33 255 
33 33 33 33 240 33 33 33 33 255 33 33 33 33 255 33 
33 33 33 255 33 33 33 33 255 33 33 33 33 255 33 33 
33 33 255 33 33 33 33 255 33 33 33 33 255 33 33 33 
33 255 33 33 33 33 255 33 33 33 33 255 33 33 33 33 
255 33 33 33 33 255 33 33 33 33 255 33 33 33 33 255 
33 33 33 33 255 33 33 255 33 33 33 33 255 33 33 33 33 33 33 33 33 33 255 33 
33 33 33 255 33 33 33 33 255 33 33 33 33 255 33 33 
33 33 255 33 33 33 33 255 33 33 33 33 255 33 33 33 
33 255 33 33 33 33 255 33 33 33 33 255 33 33 33 33 
255 33 33 33 33 255 33 33 33 33 255 33 33 33 33 255 
33 33 33 33 255 33 33 33 33 255 33 33 33 33 255 33 
33 33 33 255 33 33 33 33 255 33 33 33 33 255 33 33 
33 33 255 33 33 33 33 255 33 33 33 33 255 33 33 33 
33 255 33 33 33 33 255 33 33 33 33 255 33 33 33 33 
255 33 33 33 33 255 33 33 33 33 255 33 33 33 33 255 
33 33 33 33 131 33 33 33 33 255 33 33 33 33 255 33 
33 33 33 255 33 33 33 33 255 33 33 33 33 255 33 33 
33 33 255 33 33 33 33 255 33 33 33 33 255 33 33 33 
33 255 33 33 33 33 255 33 33 33 33 255 33 33 33 33 
255 33 33 33 33 255 33 33 33 33 255 33 33 33 33 255 
33 33 33 33 255 33 33 255 33 33 33 33 255 33 33 33 33 33 33 33 33 33 255 33 
33 33 33 255 33 33 33 33 255 33 33 33 33 255 33 33 
33 33 255 33 33 33 33 255 33 33 33 33 255 33 33 33 
33 255 33 33 33 33 255 33 33 33 33 255 33 33 33 33 
255 33 33 33 33 255 33 33 33 33 255 33 33 33 33 255 
33 33 33 33 255 33 33 33 33 255 33 33 33 33 255 33 
33 33 33 255 33 33 33 33 255 33 33 33 33 255 33 33 
33 33 255 33 33 33 33 255 33 33 33 33 255 33 33 33 
33 255 33 33 33 33 255 33 33 33 33 255 33 33 33 33 
255 33 33 33 33 255 33 33 33 33 255 33 33 33 33 255 
33 33 33 33 134 33 33 33 33 255 33 33 33 33 255 33 
33 33 33 255 33 33 33 33 255 33 33 33 33 255 33 33 
33 33 255 33 33 33 33 255 33 33 33 33 255 33 33 33 
33 255 33 33 33 33 255 33 33 33 33 255 33 33 33 33 
255 33 33 33 33 255 33 33 33 33 255 33 33 33 33 255 
33 33 33 33 255 33 33 255 33 33 33 33 255 33 33 33 33 33 33 33 33 33 255 33 
33 33 33 255 33 33 33 33 255 33 33 33 33 255 33 33 
33 33 255 33 33 33 33 255 33 33 33 33 255 33 33 33 
33 255 33 33 33 33 255 33 33 33 33 255 33 33 33 33 
255 33 33 33 33 255 33 33 33 33 255 33 33 33 33 255 
33 33 33 33 255 33 33 33 33 255 33 33 33 33 255 33 
33 33 33 255 33 33 33 33 255 33 33 33 33 255 33 33 
33 33 255 33 33 33 33 255 33 33 33 33 255 33 33 33 
33 255 33 33 33 33 255 33 33 33 33 255 33 33 33 33 
255 33 33 33 33 255 33 33 33 33 255 33 33 33 33 255 
33 33 33 33 162 33 33 33 33 255 33 33 33 33 255 33 
33 33 33 255 33 33 33 33 255 33 33 33 33 255 33 33 
33 33 255 33 33 33 33 255 33 33 33 33 255 33 33 33 
33 255 33 33 33 33 255 33 33 33 33 255 33 33 33 33 
255 33 33 33 33 255 33 33 33 33 255 33 33 33 33 255 
33 33 33 33 255 33 33 255 33 33 33 33 255 33 33 33 33 33 33 33 33 33 255 33 
33 33 33 255 33 33 33 33 255 33 33 33 33 255 33 33 
33 33 255 33 33 33 33 255 33 33 33 33 255 33 33 33 
33 255 33 33 33 33 255 33 33 33 33 255 33 33 33 33 
255 33 33 33 33 255 33 33 33 33 255 33 33 33 33 255 
33 33 33 33 255 33 33 33 33 255 33 33 33 33 255 33 
33 33 33 255 33 33 33 33 255 33 33 33 33 255 33 33 
33 33 255 33 33 33 33 255 33 33 33 33 255 33 33 33 
33 255 33 33 33 33 255 33 33 33 33 255 33 33 33 33 
255 33 33 33 33 255 33 33 33 33 255 33 33 33 33 255 
33 33 33 33 247 33 33 33 33 255 33 33 33 33 255 33 
33 33 33 255 33 33 33 33 255 33 33 33 33 255 33 33 
33 33 255 33 33 33 33 255 33 33 33 33 255 33 33 33 
33 255 33 33 33 33 255 33 33 33 33 255 33 33 33 33 
255 33 33 33 33 255 33 33 33 33 255 33 33 33 33 255 
33 33 33 33 255 33 33 255 33 33 33 33 255 33 33 33 33 33 33 33 33 33 255 33 
33 33 33 255 33 33 33 33 255 33 33 33 33 255 33 33 
33 33 255 33 33 33 33 255 33 33 33 33 255 33 33 33 
33 255 33 33 33 33 255 33 33 33 33 255 33 33 33 33 
255 33 33 33 33 255 33 33 33 33 255 33 33 33 33 255 
33 33 33 33 255 33 33 33 33 255 33 33 33 33 255 33 
33 33 33 255 33 33 33 33 255 33 33 33 33 255 33 33 
33 33 255 33 33 33 33 255 33 33 33 33 255 33 33 33 
33 255 33 33 33 33 255 33 33 33 33 255 33 33 33 33 
255 33 33 33 33 255 33 33 33 33 255 33 33 33 33 255 
33 33 33 33 134 33 33 33 33 255 33 33 33 33 255 33 
33 33 33 255 33 33 33 33 255 33 33 33 33 255 33 33 
33 33 255 33 33 33 33 255 33 33 33 33 255 33 33 33 
33 255 33 33 33 33 255 33 33 33 33 255 33 33 33 33 
255 33 33 33 33 255 33 33 33 33 255 33 33 33 33 255 
33 33 33 33 255 33 33 255 33 33 33 33 255 33 33 33 33 33 33 33 33 33 255 33 
33 33 33 255 33 33 33 33 255 33 33 33 33 255 33 33 
33 33 255 33 33 33 33 255 33 33 33 33 255 33 33 33 
33 255 33 33 33 33 255 33 33 33 33 255 33 33 33 33 
255 33 33 33 33 255 33 33 33 33 255 33 33 33 33 255 
33 33 33 33 255 33 33 33 33 255 33 33 33 33 255 33 
33 33 33 255 33 33 33 33 255 33 33 33 33 255 33 33 
33 33 255 33 33 33 33 255 33 33 33 33 255 33 33 33 
33 255 33 33 33 33 255 33 33 33 33 255 33 33 33 33 
255 33 33 33 33 255 33 33 33 33 255 33 33 33 33 255 
33 33 33 33 112 33 33 33 33 255 33 33 33 33 255 33 
33 33 33 255 33 33 33 33 255 33 33 33 33 255 33 33 
33 33 255 33 33 33 33 255 33 33 33 33 255 33 33 33 
33 255 33 33 33 33 255 33 33 33 33 255 33 33 33 33 
255 33 33 33 33 255 33 33 33 33 255 33 33 33 33 255 
33 33 33 33 255 33 33 255 33 33 33 33 255 33 33 33 33 33 33 33 33 33 255 33 
33 33 33 255 33 33 33 33 255 33 33 33 33 255 33 33 
33 33 255 33 33 33 33 255 33 33 33 33 255 33 33 33 
33 255 33 33 33 33 255 33 33 33 33 255 33 33 33 33 
255 33 33 33 33 255 33 33 33 33 255 33 33 33 33 255 
33 33 33 33 255 33 33 33 33 255 33 33 33 33 255 33 
33 33 33 255 33 33 33 33 255 33 33 33 33 255 33 33 
33 33 255 33 33 33 33 255 33 33 33 33 255 33 33 33 
33 255 33 33 33 33 255 33 33 33 33 255 33 33 33 33 
255 33 33 33 33 255 33 33 33 33 255 33 33 33 33 255 
33 33 33 33 148 33 33 33 33 255 33 33 33 33 255 33 
33 33 33 255 33 33 33 33 255 33 33 33 33 255 33 33 
33 33 255 33 33 33 33 255 33 33 33 33 255 33 33 33 
33 255 33 33 33 33 255 33 33 33 33 255 33 33 33 33 
255 33 33 33 33 255 33 33 33 33 255 33 33 33 33 255 
33 33 33 33 255 33 33 255 33 33 33 33 255 33 33 33 33 33 33 33 33 33 255 33 
33 33 33 255 33 33 33 33 255 33 33 33 33 255 33 33 
33 33 255 33 33 33 33 255 33 33 33 33 255 33 33 33 
33 255 33 33 33 33 255 33 33 33 33 255 33 33 33 33 
255 33 33 33 33 255 33 33 33 33 255 33 33 33 33 255 
33 33 33 33 255 33 33 33 33 255 33 33 33 33 255 33 
33 33 33 255 33 33 33 33 255 33 33 33 33 255 33 33 
33 33 255 33 33 33 33 255 33 33 33 33 255 33 33 33 
33 255 33 33 33 33 255 33 33 33 33 255 33 33 33 33 
255 33 33 33 33 255 33 33 33 33 255 33 33 33 33 255 
33 33 33 33 233 33 33 33 33 255 33 33 33 33 255 33 
33 33 33 255 33 33 33 33 255 33 33 33 33 255 33 33 
33 33 255 33 33 33 33 255 33 33 33 33 255 33 33 33 
33 255 33 33 33 33 255 33 33 33 33 255 33 33 33 33 
255 33 33 33 33 255 33 33 33 33 255 33 33 33 33 255 
33 33 33 33 255 33 33 255 33 33 33 33 255 33 33 33 33 33 33 33 33 33 255 33 
33 33 33 255 33 33 33 33 255 33 33 33 33 255 33 33 
33 33 255 33 33 33 33 255 33 33 33 33 255 33 33 33 
33 255 33 33 33 33 255 33 33 33 33 255 33 33 33 33 
255 33 33 33 33 255 33 33 33 33 255 33 33 33 33 255 
33 33 33 33 255 33 33 33 33 255 33 33 33 33 255 33 
33 33 33 255 33 33 33 33 255 33 33 33 33 255 33 33 
33 33 255 33 33 33 33 255 33 33 33 33 255 33 33 33 
33 255 33 33 33 33 255 33 33 33 33 255 33 33 33 33 
255 33 33 33 33 255 33 33 33 33 255 33 33 33 33 255 
33 33 33 33 112 33 33 33 33 255 33 33 33 33 255 33 
33 33 33 255 33 33 33 33 255 33 33 33 33 255 33 33 
33 33 255 33 33 33 33 255 33 33 33 33 255 33 33 33 
33 255 33 33 33 33 255 33 33 33 33 255 33 33 33 33 
255 33 33 33 33 255 33 33 33 33 255 33 33 33 33 255 
33 33 33 33 255 33 33 255 33 33 33 33 255 33 33 33 33 33 33 33 33 33 255 33 
33 33 33 255 33 33 33 33 255 33 33 33 33 255 33 33 
33 33 255 33 33 33 33 255 33 33 33 33 255 33 33 33 
33 255 33 33 33 33 255 33 33 33 33 255 33 33 33 33 
255 33 33 33 33 255 33 33 33 33 255 33 33 33 33 255 
33 33 33 33 255 33 33 33 33 255 33 33 33 33 255 33 
33 33 33 255 33 33 33 33 255 33 33 33 33 255 33 33 
33 33 255 33 33 33 33 255 33 33 33 33 255 33 33 33 
33 255 33 33 33 33 255 33 33 33 33 255 33 33 33 33 
255 33 33 33 33 255 33 33 33 33 255 33 33 33 33 255 
33 33 33 33 131 33 33 33 33 255 33 33 33 33 255 33 
33 33 33 255 33 33 33 33 255 33 33 33 33 255 33 33 
33 33 255 33 33 33 33 255 33 33 33 33 255 33 33 33 
33 255 33 33 33 33 255 33 33 33 33 255 33 33 33 33 
255 33 33 33 33 255 33 33 33 33 255 33 33 33 33 255 
33 33 33 33 255 33 33 255 33 33 33 33 255 33 33 33 33 33 33 33 33 33 255 33 
33 33 33 255 33 33 33 33 255 33 33 33 33 255 33 33 
33 33 255 33 33 33 33 255 33 33 33 33 255 33 33 33 
33 255 33 33 33 33 255 33 33 33 33 255 33 33 33 33 
255 33 33 33 33 255 33 33 33 33 255 33 33 33 33 255 
33 33 33 33 255 33 33 33 33 255 33 33 33 33 255 33 
33 33 33 255 33 33 33 33 255 33 33 33 33 255 33 33 
33 33 255 33 33 33 33 255 33 33 33 33 255 33 33 33 
33 255 33 33 33 33 255 33 33 33 33 255 33 33 33 33 
255 33 33 33 33 255 33 33 33 33 255 33 33 33 33 255 
33 33 33 33 155 33 33 33 33 255 33 33 33 33 255 33 
33 33 33 255 33 33 33 33 255 33 33 33 33 255 33 33 
33 33 255 33 33 33 33 255 33 33 33 33 255 33 33 33 
33 255 33 33 33 33 255 33 33 33 33 255 33 33 33 33 
255 33 33 33 33 255 33 33 33 33 255 33 33 33 33 255 
33 33 33 33 255 33 33 255 33 33 33 33 255 33 33 33 33 33 33 33 33 33 255 33 
33 33 33 255 33 33 33 33 255 33 33 33 33 255 33 33 
33 33 255 33 33 33 33 255 33 33 33 33 255 33 33 33 
33 255 33 33 33 33 255 33 33 33 33 255 33 33 33 33 
255 33 33 33 33 255 33 33 33 33 255 33 33 33 33 255 
33 33 33 33 255 33 33 33 33 255 33 33 33 33 255 33 
33 33 33 255 33 33 33 33 255 33 33 33 33 255 33 33 
33 33 255 33 33 33 33 255 33 33 33 33 255 33 33 33 
33 255 33 33 33 33 255 33 33 33 33 255 33 33 33 33 
255 33 33 33 33 255 33 33 33 33 255 33 33 33 33 255 
33 33 33 33 240 33 33 33 33 255 33 33 33 33 255 33 
33 33 33 255 33 33 33 33 255 33 33 33 33 255 33 33 
33 33 255 33 33 33 33 255 33 33 33 33 255 33 33 33 
33 255 33 33 33 33 255 33 33 33 33 255 33 33 33 33 
255 33 33 33 33 255 33 33 33 33 255 33 33 33 33 255 
33 33 33 33 255 33 33 255 33 33 33 33 255 33 33 33 33 33 33 33 33 33 255 33 
33 33 33 255 33 33 33 33 255 33 33 33 33 255 33 33 
33 33 255 33 33 33 33 255 33 33 33 33 255 33 33 33 
33 255 33 33 33 33 255 33 33 33 33 255 33 33 33 33 
255 33 33 33 33 255 33 33 33 33 255 33 33 33 33 255 
33 33 33 33 255 33 33 33 33 255 33 33 33 33 255 33 
33 33 33 255 33 33 33 33 255 33 33 33 33 255 33 33 
33 33 255 33 33 33 33 255 33 33 33 33 255 33 33 33 
33 255 33 33 33 33 255 33 33 33 33 255 33 33 33 33 
255 33 33 33 33 255 33 33 33 33 255 33 33 33 33 255 
33 33 33 33 131 33 33 33 33 255 33 33 33 33 255 33 
33 33 33 255 33 33 33 33 255 33 33 33 33 255 33 33 
33 33 255 33 33 33 33 255 33 33 33 33 255 33 33 33 
33 255 33 33 33 33 255 33 33 33 33 255 33 33 33 33 
255 33 33 33 33 255 33 33 33 33 255 33 33 33 33 255 
33 33 33 33 255 33 33 255 33 33 33 33 255 33 33 33 33 33 33 33 33 33 255 33 
33 33 33 255 33 33 33 33 255 33 33 33 33 255 33 33 
33 33 255 33 33 33 33 255 33 33 33 33 255 33 33 33 
33 255 33 33 33 33 255 33 33 33 33 255 33 33 33 33 
255 33 33 33 33 255 33 33 33 33 255 33 33 33 33 255 
33 33 33 33 255 33 33 33 33 255 33 33 33 33 255 33 
33 33 33 255 33 33 33 33 255 33 33 33 33 255 33 33 
33 33 255 33 33 33 33 255 33 33 33 33 255 33 33 33 
33 255 33 33 33 33 255 33 33 33 33 255 33 33 33 33 
255 33 33 33 33 255 33 33 33 33 255 33 33 33 33 255 
33 33 33 33 134 33 33 33 33 255 33 33 33 33 255 33 
33 33 33 255 33 33 33 33 255 33 33 33 33 255 33 33 
33 33 255 33 33 33 33 255 33 33 33 33 255 33 33 33 
33 255 33 33 33 33 255 33 33 33 33 255 33 33 33 33 
255 33 33 33 33 255 33 33 33 33 255 33 33 33 33 255 
33 33 33 33 255 33 33 255 33 33 33 33 255 33 33 33 33 33 33 33 33 33 255 33 
33 33 33 255 33 33 33 33 255 33 33 33 33 255 33 33 
33 33 255 33 33 33 33 255 33 33 33 33 255 33 33 33 
33 255 33 33 33 33 255 33 33 33 33 255 33 33 33 33 
255 33 33 33 33 255 33 33 33 33 255 33 33 33 33 255 
33 33 33 33 255 33 33 33 33 255 33 33 33 33 255 33 
33 33 33 255 33 33 33 33 255 33 33 33 33 255 33 33 
33 33 255 33 33 33 33 255 33 33 33 33 255 33 33 33 
33 255 33 33 33 33 255 33 33 33 33 255 33 33 33 33 
255 33 33 33 33 255 33 33 33 33 255 33 33 33 33 255 
33 33 33 33 162 33 33 33 33 255 33 33 33 33 255 33 
33 33 33 255 33 33 33 33 255 33 33 33 33 255 33 33 
33 33 255 33 33 33 33 255 33 33 33 33 255 33 33 33 
33 255 33 33 33 33 255 33 33 33 33 255 33 33 33 33 
255 33 33 33 33 255 33 33 33 33 255 33 33 33 33 255 
33 33 33 33 255 33 33 255 33 33 33 33 255 33 33 33 33 33 33 33 33 33 255 33 
33 33 33 255 33 33 33 33 255 33 33 33 33 255 33 33 
33 33 255 33 33 33 33 255 33 33 33 33 255 33 33 33 
33 255 33 33 33 33 255 33 33 33 33 255 33 33 33 33 
255 33 33 33 33 255 33 33 33 33 255 33 33 33 33 255 
33 33 33 33 255 33 33 33 33 255 33 33 33 33 255 33 
33 33 33 255 33 33 33 33 255 33 33 33 33 255 33 33 
33 33 255 33 33 33 33 255 33 33 33 33 255 33 33 33 
33 255 33 33 33 33 255 33 33 33 33 255 33 33 33 33 
255 33 33 33 33 255 33 33 33 33 255 33 33 33 33 255 
33 33 33 33 247 33 33 33 33 255 33 33 33 33 255 33 
33 33 33 255 33 33 33 33 255 33 33 33 33 255 33 33 
33 33 255 33 33 33 33 255 33 33 33 33 255 33 33 33 
33 255 33 33 33 33 255 33 33 33 33 255 33 33 33 33 
255 33 33 33 33 255 33 33 33 33 255 33 33 33 33 255 
33 33 33 33 255 33 33 255 33 33 33 33 255 33 33 33 33 33 33 33 33 33 255 33 
33 33 33 255 33 33 33 33 255 33 33 33 33 255 33 33 
33 33 255 33 33 33 33 255 33 33 33 33 255 33 33 33 
33 255 33 33 33 33 255 33 33 33 33 255 33 33 33 33 
255 33 33 33 33 255 33 33 33 33 255 33 33 33 33 255 
33 33 33 33 255 33 33 33 33 255 33 33 33 33 255 33 
33 33 33 255 33 33 33 33 255 33 33 33 33 255 33 33 
33 33 255 33 33 33 33 255 33 33 33 33 255 33 33 33 
33 255 33 33 33 33 255 33 33 33 33 255 33 33 33 33 
255 33 33 33 33 255 33 33 33 33 255 33 33 33 33 255 
33 33 33 33 134 33 33 33 33 255 33 33 33 33 255 33 
33 33 33 255 33 33 33 33 255 33 33 33 33 255 33 33 
33 33 255 33 33 33 33 255 33 33 33 33 255 33 33 33 
33 255 33 33 33 33 255 33 33 33 33 255 33 33 33 33 
255 33 33 33 33 255 33 33 33 33 255 33 33 33 33 255 
33 33 33 33 255 33 33 255 33 33 33 33 255 33 33 33 33 33 33 33 33 33 255 33 
33 33 33 255 33 33 33 33 255 33 33 33 33 255 33 33 
33 33 255 33 33 33 33 255 33 33 33 33 255 33 33 33 
33 255 33 33 33 33 255 33 33 33 33 255 33 33 33 33 
255 33 33 33 33 255 33 33 33 33 255 33 33 33 33 255 
33 33 33 33 255 33 33 33 33 255 33 33 33 33 255 33 
33 33 33 255 33 33 33 33 255 33 33 33 33 255 33 33 
33 33 255 33 33 33 33 255 33 33 33 33 255 33 33 33 
33 255 33 33 33 33 255 33 33 33 33 255 33 33 33 33 
255 33 33 33 33 255 33 33 33 33 255 33 33 33 33 255 
33 33 33 33 112 33 33 33 33 255 33 33 33 33 255 33 
33 33 33 255 33 33 33 33 255 33 33 33 33 255 33 33 
33 33 255 33 33 33 33 255 33 33 33 33 255 33 33 33 
33 255 33 33 33 33 255 33 33 33 33 255 33 33 33 33 
255 33 33 33 33 255 33 33 33 33 255 33 33 33 33 255 
33 33 33 33 255 33 33 255 33 33 33 33 255 33 33 33 33 33 33 33 33 33 255 33 
33 33 33 255 33 33 33 33 255 33 33 33 33 255 33 33 
33 33 255 33 33 33 33 255 33 33 33 33 255 33 33 33 
33 255 33 33 33 33 255 33 33 33 33 255 33 33 33 33 
255 33 33 33 33 255 33 33 33 33 255 33 33 33 33 255 
33 33 33 33 255 33 33 33 33 255 33 33 33 33 255 33 
33 33 33 255 33 33 33 33 255 33 33 33 33 255 33 33 
33 33 255 33 33 33 33 255 33 33 33 33 255 33 33 33 
33 255 33 33 33 33 255 33 33 33 33 255 33 33 33 33 
255 33 33 33 33 255 33 33 33 33 255 33 33 33 33 255 
33 33 33 33 148 33 33 33 33 255 33 33 33 33 255 33 
33 33 33 255 33 33 33 33 255 33 33 33 33 255 33 33 
33 33 255 33 33 33 33 255 33 33 33 33 255 33 33 33 
33 255 33 33 33 33 255 33 33 33 33 255 33 33 33 33 
255 33 33 33 33 255 33 33 33 33 255 33 33 33 33 255 
33 33 33 33 255 33 33 255 33 33 33 33 255 33 33 33 33 33 33 33 33 33 255 33 
33 33 33 255 33 33 33 33 255 33 33 33 33 255 33 33 
33 33 255 33 33 33 33 255 33 33 33 33 255 33 33 33 
33 255 33 33 33 33 255 33 33 33 33 255 33 33 33 33 
255 33 33 33 33 255 33 33 33 33 255 33 33 33 33 255 
33 33 33 33 255 33 33 33 33 255 33 33 33 33 255 33 
33 33 33 255 33 33 33 33 255 33 33 33 33 255 33 33 
33 33 255 33 33 33 33 255 33 33 33 33 255 33 33 33 
33 255 33 33 33 33 255 33 33 33 33 255 33 33 33 33 
255 33 33 33 33 255 33 33 33 33 255 33 33 33 33 255 
33 33 33 33 233 33 33 33 33 255 33 33 33 33 255 33 
33 33 33 255 33 33 33 33 255 33 33 33 33 255 33 33 
33 33 255 33 33 33 33 255 33 33 33 33 255 33 33 33 
33 255 33 33 33 33 255 33 33 33 33 255 33 33 33 33 
255 33 33 33 33 255 33 33 33 33 255 33 33 33 33 255 
33 33 33 33 255 33 33 255 33 33 33 33 255 33 33 33 33 33 33 33 33 33 255 33 
33 33 33 255 33 33 33 33 255 33 33 33 33 255 33 33 
33 33 255 33 33 33 33 255 33 33 33 33 255 33 33 33 
33 255 33 33 33 33 255 33 33 33 33 255 33 33 33 33 
255 33 33 33 33 255 33 33 33 33 255 33 33 33 33 255 
33 33 33 33 255 33 33 33 33 255 33 33 33 33 255 33 
33 33 33 255 33 33 33 33 255 33 33 33 33 255 33 33 
33 33 255 33 33 33 33 255 33 33 33 33 255 33 33 33 
33 255 33 33 33 33 255 33 33 33 33 255 33 33 33 33 
255 33 33 33 33 255 33 33 33 33 255 33 33 33 33 255 
33 33 33 33 112 33 33 33 33 255 33 33 33 33 255 33 
33 33 33 255 33 33 33 33 255 33 33 33 33 255 33 33 
33 33 255 33 33 33 33 255 33 33 33 33 255 33 33 33 
33 255 33 33 33 33 255 33 33 33 33 255 33 33 33 33 
255 33 33 33 33 255 33 33 33 33 255 33 33 33 33 255 
33 33 33 33 255 33 33 255 33 33 33 33 255 33 33 33 33 33 33 33 33 33 255 33 
33 33 33 255 33 33 33 33 255 33 33 33 33 255 33 33 
33 33 255 33 33 33 33 255 33 33 33 33 255 33 33 33 
33 255 33 33 33 33 255 33 33 33 33 255 33 33 33 33 
255 33 33 33 33 255 33 33 33 33 255 33 33 33 33 255 
33 33 33 33 255 33 33 33 33 255 33 33 33 33 255 33 
33 33 33 255 33 33 33 33 255 33 33 33 33 255 33 33 
33 33 255 33 33 33 33 255 33 33 33 33 255 33 33 33 
33 255 33 33 33 33 255 33 33 33 33 255 33 33 33 33 
255 33 33 33 33 255 33 33 33 33 255 33 33 33 33 255 
33 33 33 33 131 33 33 33 33 255 33 33 33 33 255 33 
33 33 33 255 33 33 33 33 255 33 33 33 33 255 33 33 
33 33 255 33 33 33 33 255 33 33 33 33 255 33 33 33 
33 255 33 33 33 33 255 33 33 33 33 255 33 33 33 33 
255 33 33 33 33 255 33 33 33 33 255 33 33 33 33 255 
33 33 33 33 255 33 33 255 33 33 33 33 255 33 33 33 33 33 33 33 33 33 255 33 
33 33 33 255 33 33 33 33 255 33 33 33 33 255 33 33 
33 33 255 33 33 33 33 255 33 33 33 33 255 33 33 33 
33 255 33 33 33 33 255 33 33 33 33 255 33 33 33 33 
255 33 33 33 33 255 33 33 33 33 255 33 33 33 33 255 
33 33 33 33 255 33 33 33 33 255 33 33 33 33 255 33 
33 33 33 255 33 33 33 33 255 33 33 33 33 255 33 33 
33 33 255 33 33 33 33 255 33 33 33 33 255 33 33 33 
33 255 33 33 33 33 255 33 33 33 33 255 33 33 33 33 
255 33 33 33 33 255 33 33 33 33 255 33 33 33 33 255 
33 33 33 33 155 33 33 33 33 255 33 33 33 33 255 33 
33 33 33 255 33 33 33 33 255 33 33 33 33 255 33 33 
33 33 255 33 33 33 33 255 33 33 33 33 255 33 33 33 
33 255 33 33 33 33 255 33 33 33 33 255 33 33 33 33 
255 33 33 33 33 255 33 33 33 33 255 33 33 33 33 255 
33 33 33 33 255 33 33 255 33 33 33 33 255 33 33 33 33 33 33 33 33 33 255 33 
33 33 33 255 33 33 33 33 255 33 33 33 33 255 33 33 
33 33 255 33 33 33 33 255 33 33 33 33 255 33 33 33 
33 255 33 33 33 33 255 33 33 33 33 255 33 33 33 33 
255 33 33 33 33 255 33 33 33 33 255 33 33 33 33 255 
33 33 33 33 255 33 33 33 33 255 33 33 33 33 255 33 
33 33 33 255 33 33 33 33 255 33 33 33 33 255 33 33 
33 33 255 33 33 33 33 255 33 33 33 33 255 33 33 33 
33 255 33 33 33 33 255 33 33 33 33 255 33 33 33 33 
255 33 33 33 33 255 33 33 33 33 255 33 33 33 33 255 
33 33 33 33 240 33 33 33 33 255 33 33 33 33 255 33 
33 33 33 255 33 33 33 33 255 33 33 33 33 255 33 33 
33 33 255 33 33 33 33 255 33 33 33 33 255 33 33 33 
33 255 33 33 33 33 255 33 33 33 33 255 33 33 33 33 
255 33 33 33 33 255 33 33 33 33 255 33 33 33 33 255 
33 33 33 33 255 33 33 255 33 33 33 33 255 33 33 33 33 33 33 33 33 33 255 33 
33 33 33 255 33 33 33 33 255 33 33 33 33 255 33 33 
33 33 255 33 33 33 33 255 33 33 33 33 255 33 33 33 
33 255 33 33 33 33 255 33 33 33 33 255 33 33 33 33 
255 33 33 33 33 255 33 33 33 33 255 33 33 33 33 255 
33 33 33 33 255 33 33 33 33 255 33 33 33 33 255 33 
33 33 33 255 33 33 33 33 255 33 33 33 33 255 33 33 
33 33 255 33 33 33 33 255 33 33 33 33 255 33 33 33 
33 255 33 33 33 33 255 33 33 33 33 255 33 33 33 33 
255 33 33 33 33 255 33 33 33 33 255 33 33 33 33 255 
33 33 33 33 131 33 33 33 33 255 33 33 33 33 255 33 
33 33 33 255 33 33 33 33 255 33 33 33 33 255 33 33 
33 33 255 33 33 33 33 255 33 33 33 33 255 33 33 33 
33 255 33 33 33 33 255 33 33 33 33 255 33 33 33 33 
255 33 33 33 33 255 33 33 33 33 255 33 33 33 33 255 
33 33 33 33 255 33 33 255 33 33 33 33 255 33 33 33 33 33 33 33 33 33 255 33 
33 33 33 255 33 33 33 33 255 33 33 33 33 255 33 33 
33 33 255 33 33 33 33 255 33 33 33 33 255 33 33 33 
33 255 33 33 33 33 255 33 33 33 33 255 33 33 33 33 
255 33 33 33 33 255 33 33 33 33 255 33 33 33 33 255 
33 33 33 33 255 33 33 33 33 255 33 33 33 33 255 33 
33 33 33 255 33 33 33 33 255 33 33 33 33 255 33 33 
33 33 255 33 33 33 33 255 33 33 33 33 255 33 33 33 
33 255 33 33 33 33 255 33 33 33 33 255 33 33 33 33 
255 33 33 33 33 255 33 33 33 33 255 33 33 33 33 255 
33 33 33 33 134 33 33 33 33 255 33 33 33 33 255 33 
33 33 33 255 33 33 33 33 255 33 33 33 33 255 33 33 
33 33 255 33 33 33 33 255 33 33 33 33 255 33 33 33 
33 255 33 33 33 33 255 33 33 33 33 255 33 33 33 33 
255 33 33 33 33 255 33 33 33 33 255 33 33 33 33 255 
33 33 33 33 255 33 33 255 33 33 33 33 255 33 33 33 33 33 33 33 33 33 255 33 
33 33 33 255 33 33 33 33 255 33 33 33 33 255 33 33 
33 33 255 33 33 33 33 255 33 33 33 33 255 33 33 33 
33 255 33 33 33 33 255 33 33 33 33 255 33 33 33 33 
255 33 33 33 33 255 33 33 33 33 255 33 33 33 33 255 
33 33 33 33 255 33 33 33 33 255 33 33 33 33 255 33 
33 33 33 255 33 33 33 33 255 33 33 33 33 255 33 33 
33 33 255 33 33 33 33 255 33 33 33 33 255 33 33 33 
33 255 33 33 33 33 255 33 33 33 33 255 33 33 33 33 
255 33 33 33 33 255 33 33 33 33 255 33 33 33 33 255 
33 33 33 33 162 33 33 33 33 255 33 33 33 33 255 33 
33 33 33 255 33 33 33 33 255 33 33 33 33 255 33 33 
33 33 255 33 33 33 33 255 33 33 33 33 255 33 33 33 
33 255 33 33 33 33 255 33 33 33 33 255 33 33 33 33 
255 33 33 33 33 255 33 33 33 33 255 33 33 33 33 255 
33 33 33 33 255 33 33 255 33 33 33 33 255 33 33 33 33 33 33 33 33 33 255 33 
33 33 33 255 33 33 33 33 255 33 33 33 33 255 33 33 
33 33 255 33 33 33 33 255 33 33 33 33 255 33 33 33 
33 255 33 33 33 33 255 33 33 33 33 255 33 33 33 33 
255 33 33 33 33 255 33 33 33 33 255 33 33 33 33 255 
33 33 33 33 255 33 33 33 33 255 33 33 33 33 255 33 
33 33 33 255 33 33 33 33 255 33 33 33 33 255 33 33 
33 33 255 33 33 33 33 255 33 33 33 33 255 33 33 33 
33 255 33 33 33 33 255 33 33 33 33 255 33 33 33 33 
255 33 33 33 33 255 33 33 33 33 255 33 33 33 33 255 
33 33 33 33 247 33 33 33 33 255 33 33 33 33 255 33 
33 33 33 255 33 33 33 33 255 33 33 33 33 255 33 33 
33 33 255 33 33 33 33 255 33 33 33 33 255 33 33 33 
33 255 33 33 33 33 255 33 33 33 33 255 33 33 33 33 
255 33 33 33 33 255 33 33 33 33 255 33 33 33 33 255 
33 33 33 33 255 33 33 255 33 33 33 33 255 33 33 33 33 33 33 33 33 33 255 33 
33 33 33 255 33 33 33 33 255 33 33 33 33 255 33 33 
33 33 255 33 33 33 33 255 33 33 33 33 255 33 33 33 
33 255 33 33 33 33 255 33 33 33 33 255 33 33 33 33 
255 33 33 33 33 255 33 33 33 33 255 33 33 33 33 255 
33 33 33 33 255 33 33 33 33 255 33 33 33 33 255 33 
33 33 33 255 33 33 33 33 255 33 33 33 33 255 33 33 
33 33 255 33 33 33 33 255 33 33 33 33 255 33 33 33 
33 255 33 33 33 33 255 33 33 33 33 255 33 33 33 33 
255 33 33 33 33 255 33 33 33 33 255 33 33 33 33 255 
33 33 33 33 134 33 33 33 33 255 33 33 33 33 255 33 
33 33 33 255 33 33 33 33 255 33 33 33 33 255 33 33 
33 33 255 33 33 33 33 255 33 33 33 33 255 33 33 33 
33 255 33 33 33 33 255 33 33 33 33 255 33 33 33 33 
255 33 33 33 33 255 33 33 33 33 255 33 33 33 33 255 
33 33 33 33 255 33 33 255 33 33 33 33 255 33 33 33 33 33 33 33 33 33 255 33 
33 33 33 255 33 33 33 33 255 33 33 33 33 255 33 33 
33 33 255 33 33 33 33 255 33 33 33 33 255 33 33 33 
33 255 33 33 33 33 255 33 33 33 33 255 33 33 33 33 
255 33 33 33 33 255 33 33 33 33 255 33 33 33 33 255 
33 33 33 33 255 33 33 33 33 255 33 33 33 33 255 33 
33 33 33 255 33 33 33 33 255 33 33 33 33 255 33 33 
33 33 255 33 33 33 33 255 33 33 33 33 255 33 33 33 
33 255 33 33 33 33 255 33 33 33 33 255 33 33 33 33 
255 33 33 33 33 255 33 33 33 33 255 33 33 33 33 255 
33 33 33 33 112 33 33 33 33 255 33 33 33 33 255 33 
33 33 33 255 33 33 33 33 255 33 33 33 33 255 33 33 
33 33 255 33 33 33 33 255 33 33 33 33 255 33 33 33 
33 255 33 33 33 33 255 33 33 33 33 255 33 33 33 33 
255 33 33 33 33 255 33 33 33 33 255 33 33 33 33 255 
33 33 33 33 255 33 33 255 33 33 33 33 255 33 33 33 33 33 33 33 33 33 255 33 
33 33 33 255 33 33 33 33 255 33 33 33 33 255 33 33 
33 33 255 33 33 33 33 255 33 33 33 33 255 33 33 33 
33 255 33 33 33 33 255 33 33 33 33 255 33 33 33 33 
255 33 33 33 33 255 33 33 33 33 255 33 33 33 33 255 
33 33 33 33 255 33 33 33 33 255 33 33 33 33 255 33 
33 33 33 255 33 33 33 33 255 33 33 33 33 255 33 33 
33 33 255 33 33 33 33 255 33 33 33 33 255 33 33 33 
33 255 33 33 33 33 255 33 33 33 33 255 33 33 33 33 
255 33 33 33 33 255 33 33 33 33 255 33 33 33 33 255 
33 33 33 33 148 33 33 33 33 255 33 33 33 33 255 33 
33 33 33 255 33 33 33 33 255 33 33 33 33 255 33 33 
33 33 255 33 33 33 33 255 33 33 33 33 255 33 33 33 
33 255 33 33 33 33 255 33 33 33 33 255 33 33 33 33 
255 33 33 33 33 255 33 33 33 33 255 33 33 33 33 255 
33 33 33 33 255 33 33 255 33 33 33 33 255 33 33 33 33 33 33 33 33 33 255 33 
33 33 33 255 33 33 33 33 255 33 33 33 33 255 33 33 
33 33 255 33 33 33 33 255 33 33 33 33 255 33 33 33 
33 255 33 33 33 33 255 33 33 33 33 255 33 33 33 33 
255 33 33 33 33 255 33 33 33 33 255 33 33 33 33 255 
33 33 33 33 255 33 33 33 33 255 33 33 33 33 255 33 
33 33 33 255 33 33 33 33 255 33 33 33 33 255 33 33 
33 33 255 33 33 33 33 255 33 33 33 33 255 33 33 33 
33 255 33 33 33 33 255 33 33 33 33 255 33 33 33 33 
255 33 33 33 33 255 33 33 33 33 255 33 33 33 33 255 
33 33 33 33 233 33 33 33 33 255 33 33 33 33 255 33 
33 33 33 255 33 33 33 33 255 33 33 33 33 255 33 33 
33 33 255 33 33 33 33 255 33 33 33 33 255 33 33 33 
33 255 33 33 33 33 255 33 33 33 33 255 33 33 33 33 
255 33 33 33 33 255 33 33 33 33 255 33 33 33 33 255 
33 33 33 33 255 33 33 255 33 33 33 33 255 33 33 33 33 33 33 33 33 33 255 33 
33 33 33 255 33 33 33 33 255 33 33 33 33 255 33 33 
33 33 255 33 33 33 33 255 33 33 33 33 255 33 33 33 
33 255 33 33 33 33 255 33 33 33 33 255 33 33 33 33 
255 33 33 33 33 255 33 33 33 33 255 33 33 33 33 255 
33 33 33 33 255 33 33 33 33 255 33 33 33 33 255 33 
33 33 33 255 33 33 33 33 255 33 33 33 33 255 33 33 
33 33 255 33 33 33 33 255 33 33 33 33 255 33 33 33 
33 255 33 33 33 33 255 33 33 33 33 255 33 33 33 33 
255 33 33 33 33 255 33 33 33 33 255 33 33 33 33 255 
33 33 33 33 112 33 33 33 33 255 33 33 33 33 255 33 
33 33 33 255 33 33 33 33 255 33 33 33 33 255 33 33 
33 33 255 33 33 33 33 255 33 33 33 33 255 33 33 33 
33 255 33 33 33 33 255 33 33 33 33 255 33 33 33 33 
255 33 33 33 33 255 33 33 33 33 255 33 33 33 33 255 
33 33 33 33 255 33 33 255 33 33 33 33 255 33 33 33 33 33 33 33 33 33 255 33 
33 33 33 255 33 33 33 33 255 33 33 33 33 255 33 33 
33 33 255 33 33 33 33 255 33 33 33 33 255 33 33 33 
33 255 33 33 33 33 255 33 33 33 33 255 33 33 33 33 
255 33 33 33 33 255 33 33 33 33 255 33 33 33 33 255 
33 33 33 33 255 33 33 33 33 255 33 33 33 33 255 33 
33 33 33 255 33 33 33 33 255 33 33 33 33 255 33 33 
33 33 255 33 33 33 33 255 33 33 33 33 255 33 33 33 
33 255 33 33 33 33 255 33 33 33 33 255 33 33 33 33 
255 33 33 33 33 255 33 33 33 33 255 33 33 33 33 255 
33 33 33 33 131 33 33 33 33 255 33 33 33 33 255 33 
33 33 33 255 33 33 33 33 255 33 33 33 33 255 33 33 
33 33 255 33 33 33 33 255 33 33 33 33 255 33 33 33 
33 255 33 33 33 33 255 33 33 33 33 255 33 33 33 33 
255 33 33 33 33 255 33 33 33 33 255 33 33 33 33 255 
33 33 33 33 255 33 33 255 33 33 33 33 255 33 33 33 33 33 33 33 33 33 255 33 
33 33 33 255 33 33 33 33 255 33 33 33 33 255 33 33 
33 33 255 33 33 33 33 255 33 33 33 33 255 33 33 33 
33 255 33 33 33 33 255 33 33 33 33 255 33 33 33 33 
255 33 33 33 33 255 33 33 33 33 255 33 33 33 33 255 
33 33 33 33 255 33 33 33 33 255 33 33 33 33 255 33 
33 33 33 255 33 33 33 33 255 33 33 33 33 255 33 33 
33 33 255 33 33 33 33 255 33 33 33 33 255 33 33 33 
33 255 33 33 33 33 255 33 33 33 33 255 33 33 33 33 
255 33 33 33 33 255 33 33 33 33 255 33 33 33 33 255 
33 33 33 33 155 33 33 33 33 255 33 33 33 33 255 33 
33 33 33 255 33 33 33 33 255 33 33 33 33 255 33 33 
33 33 255 33 33 33 33 255 33 33 33 33 255 33 33 33 
33 255 33 33 33 33 255 33 33 33 33 255 33 33 33 33 
255 33 33 33 33 255 33 33 33 33 255 33 33 33 33 255 
33 33 33 33 255 33 33 255 33 33 33 33 255 33 33 33 33 33 33 33 33 33 255 33 
33 33 33 255 33 33 33 33 255 33 33 33 33 255 33 33 
33 33 255 33 33 33 33 255 33 33 33 33 255 33 33 33 
33 255 33 33 33 33 255 33 33 33 33 255 33 33 33 33 
255 33 33 33 33 255 33 33 33 33 255 33 33 33 33 255 
33 33 33 33 255 33 33 33 33 255 33 33 33 33 255 33 
33 33 33 255 33 33 33 33 255 33 33 33 33 255 33 33 
33 33 255 33 33 33 33 255 33 33 33 33 255 33 33 33 
33 255 33 33 33 33 255 33 33 33 33 255 33 33 33 33 
255 33 33 33 33 255 33 33 33 33 255 33 33 33 33 255 
33 33 33 33 219 33 33 33 33 255 33 33 33 33 255 33 
33 33 33 255 33 33 33 33 255 33 33 33 33 255 33 33 
33 33 255 33 33 33 33 255 33 33 33 33 255 33 33 33 
33 255 33 33 33 33 255 33 33 33 33 255 33 33 33 33 
255 33 33 33 33 255 33 33 33 33 255 33 33 33 33 255 
33 33 33 33 255 33 33 255 33 33 33 33 255 33 33 33 33 33 33 33 33 33 255 33 
33 33 33 255 33 33 33 33 255 33 33 33 33 255 33 33 
33 33 255 33 33 33 33 255 33 33 33 33 255 33 33 33 
33 255 33 33 33 33 255 33 33 33 33 255 33 33 33 33 
255 33 33 33 33 255 33 33 33 33 255 33 33 33 33 255 
33 33 33 33 255 33 33 33 33 255 33 33 33 33 255 33 
33 33 33 255 33 33 33 33 255 33 33 33 33 255 33 33 
33 33 255 33 33 33 33 255 33 33 33 33 255 33 33 33 
33 255 33 33 33 33 255 33 33 33 33 255 33 33 33 33 
255 33 33 33 33 255 33 33 33 33 255 33 33 33 33 255 
33 33 33 33 226 33 33 33 33 255 33 33 33 33 255 33 
33 33 33 255 33 33 33 33 255 33 33 33 33 255 33 33 
33 33 255 33 33 33 33 255 33 33 33 33 255 33 33 33 
33 255 33 33 33 33 255 33 33 33 33 255 33 33 33 33 
255 33 33 33 33 255 33 33 33 33 255 33 33 33 33 255 
33 33 33 33 255 33 33 255 33 33 33 33 255 33 33 33 33 33 33 33 33 33 255 33 
33 33 33 255 33 33 33 33 255 33 33 33 33 255 33 33 
33 33 255 33 33 33 33 255 33 33 33 33 255 33 33 33 
33 255 33 33 33 33 255 33 33 33 33 255 33 33 33 33 
255 33 33 33 33 255 33 33 33 33 255 33 33 33 33 255 
33 33 33 33 255 33 33 33 33 255 33 33 33 33 255 33 
33 33 33 255 33 33 33 33 255 33 33 33 33 255 33 33 
33 33 255 33 33 33 33 255 33 33 33 33 255 33 33 33 
33 255 33 33 33 33 255 33 33 33 33 255 33 33 33 33 
255 33 33 33 33 255 33 33 33 33 255 33 33 33 33 255 
33 33 33 33 184 33 33 33 33 255 33 33 33 33 255 33 
33 33 33 255 33 33 33 33 255 33 33 33 33 255 33 33 
33 33 255 33 33 33 33 255 33 33 33 33 255 33 33 33 
33 255 33 33 33 33 255 33 33 33 33 255 33 33 33 33 
255 33 33 33 33 255 33 33 33 33 255 33 33 33 33 255 
33 33 33 33 255 33 33 255 33 33 33 33 255 33 33 33 33 33 33 33 33 33 255 33 
33 33 33 255 33 33 33 33 255 33 33 33 33 255 33 33 
33 33 255 33 33 33 33 255 33 33 33 33 255 33 33 33 
33 255 33 33 33 33 255 33 33 33 33 255 33 33 33 33 
255 33 33 33 33 255 33 33 33 33 255 33 33 33 33 255 
33 33 33 33 255 33 33 33 33 255 33 33 33 33 255 33 
33 33 33 255 33 33 33 33 255 33 33 33 33 255 33 33 
33 33 255 33 33 33 33 255 33 33 33 33 255 33 33 33 
33 255 33 33 33 33 255 33 33 33 33 255 33 33 33 33 
255 33 33 33 33 255 33 33 33 33 255 33 33 33 33 255 
33 33 33 33 205 33 33 33 33 255 33 33 33 33 255 33 
33 33 33 255 33 33 33 33 255 33 33 33 33 255 33 33 
33 33 255 33 33 33 33 255 33 33 33 33 255 33 33 33 
33 255 33 33 33 33 255 33 33 33 33 255 33 33 33 33 
255 33 33 33 33 255 33 33 33 33 255 33 33 33 33 255 
33 33 33 33 255 33 33 255 33 33 33 33 255 33 33 33 33 33 33 33 33 33 255 33 
33 33 33 255 33 33 33 33 255 33 33 33 33 255 33 33 
33 33 255 33 33 33 33 255 33 33 33 33 255 33 33 33 
33 255 33 33 33 33 255 33 33 33 33 255 33 33 33 33 
255 33 33 33 33 255 33 33 33 33 255 33 33 33 33 255 
33 33 33 33 255 33 33 33 33 255 33 33 33 33 255 33 
33 33 33 255 33 33 33 33 255 33 33 33 33 255 33 33 
33 33 255 33 33 33 33 255 33 33 33 33 255 33 33 33 
33 255 33 33 33 33 255 33 33 33 33 255 33 33 33 33 
255 33 33 33 33 255 33 33 33 33 255 33 33 33 33 255 
33 33 33 33 191 33 33 33 33 255 33 33 33 33 255 33 
33 33 33 255 33 33 33 33 255 33 33 33 33 255 33 33 
33 33 255 33 33 33 33 255 33 33 33 33 255 33 33 33 
33 255 33 33 33 33 255 33 33 33 33 255 33 33 33 33 
255 33 33 33 33 255 33 33 33 33 255 33 33 33 33 255 
33 33 33 33 255 33 33 255 33 33 33 33 255 33 33 33 33 33 33 33 33 33 255 33 
33 33 33 255 33 33 33 33 255 33 33 33 33 255 33 33 
33 33 255 33 33 33 33 255 33 33 33 33 255 33 33 33 
33 255 33 33 33 33 255 33 33 33 33 255 33 33 33 33 
255 33 33 33 33 255 33 33 33 33 255 33 33 33 33 255 
33 33 33 33 255 33 33 33 33 255 33 33 33 33 255 33 
33 33 33 255 33 33 33 33 255 33 33 33 33 255 33 33 
33 33 255 33 33 33 33 255 33 33 33 33 255 33 33 33 
33 255 33 33 33 33 255 33 33 33 33 255 33 33 33 33 
255 33 33 33 33 255 33 33 33 33 255 33 33 33 33 255 
33 33 33 33 212 33 33 33 33 255 33 33 33 33 255 33 
33 33 33 255 33 33 33 33 255 33 33 33 33 255 33 33 
33 33 255 33 33 33 33 255 33 33 33 33 255 33 33 33 
33 255 33 33 33 33 255 33 33 33 33 255 33 33 33 33 
255 33 33 33 33 255 33 33 33 33 255 33 33 33 33 255 
33 33 33 33 255 33 33 255 33 33 33 33 255 33 33 33 33 33 33 33 33 33 255 33 
33 33 33 255 33 33 33 33 255 33 33 33 33 255 33 33 
33 33 255 33 33 33 33 255 33 33 33 33 255 33 33 33 
33 255 33 33 33 33 255 33 33 33 33 255 33 33 33 33 
255 33 33 33 33 255 33 33 33 33 255 33 33 33 33 255 
33 33 33 33 255 33 33 33 33 255 33 33 33 33 255 33 
33 33 33 255 33 33 33 33 255 33 33 33 33 255 33 33 
33 33 255 33 33 33 33 255 33 33 33 33 255 33 33 33 
33 255 33 33 33 33 255 33 33 33 33 255 33 33 33 33 
255 33 33 33 33 255 33 33 33 33 255 33 33 33 33 255 
33 33 33 33 219 33 33 33 33 255 33 33 33 33 255 33 
33 33 33 255 33 33 33 33 255 33 33 33 33 255 33 33 
33 33 255 33 33 33 33 255 33 33 33 33 255 33 33 33 
33 255 33 33 33 33 255 33 33 33 33 255 33 33 33 33 
255 33 33 33 33 255 33 33 33 33 255 33 33 33 33 255 
33 33 33 33 255 33 33 255 33 33 33 33 255 33 33 33 33 33 33 33 33 33 255 33 
33 33 33 255 33 33 33 33 255 33 33 33 33 255 33 33 
33 33 255 33 33 33 33 255 33 33 33 33 255 33 33 33 
33 255 33 33 33 33 255 33 33 33 33 255 33 33 33 33 
255 33 33 33 33 255 33 33 33 33 255 33 33 33 33 255 
33 33 33 33 255 33 33 33 33 255 33 33 33 33 255 33 
33 33 33 255 33 33 33 33 255 33 33 33 33 255 33 33 
33 33 255 33 33 33 33 255 33 33 33 33 255 33 33 33 
33 255 33 33 33 33 255 33 33 33 33 255 33 33 33 33 
255 33 33 33 33 255 33 33 33 33 255 33 33 33 33 255 
33 33 33 33 112 33 33 33 33 255 33 33 33 33 255 33 
33 33 33 255 33 33 33 33 255 33 33 33 33 255 33 33 
33 33 255 33 33 33 33 255 33 33 33 33 255 33 33 33 
33 255 33 33 33 33 255 33 33 33 33 255 33 33 33 33 
255 33 33 33 33 255 33 33 33 33 255 33 33 33 33 255 
33 33 33 33 255 33 33 255 33 33 33 33 255 33 33 33 33 33 33 33 33 33 255 33 
33 33 33 255 33 33 33 33 255 33 33 33 33 255 33 33 
33 33 255 33 33 33 33 255 33 33 33 33 255 33 33 33 
33 255 33 33 33 33 255 33 33 33 33 255 33 33 33 33 
255 33 33 33 33 255 33 33 33 33 255 33 33 33 33 255 
33 33 33 33 255 33 33 33 33 255 33 33 33 33 255 33 
33 33 33 255 33 33 33 33 255 33 33 33 33 255 33 33 
33 33 255 33 33 33 33 255 33 33 33 33 255 33 33 33 
33 255 33 33 33 33 255 33 33 33 33 255 33 33 33 33 
255 33 33 33 33 255 33 33 33 33 255 33 33 33 33 255 
33 33 33 33 131 33 33 33 33 255 33 33 33 33 255 33 
33 33 33 255 33 33 33 33 255 33 33 33 33 255 33 33 
33 33 255 33 33 33 33 255 33 33 33 33 255 33 33 33 
33 255 33 33 33 33 255 33 33 33 33 255 33 33 33 33 
255 33 33 33 33 255 33 33 33 33 255 33 33 33 33 255 
33 33 33 33 255 33 33 255 33 33 33 33 255 33 33 33 33 33 33 33 33 33 255 33 
33 33 33 255 33 33 33 33 255 33 33 33 33 255 33 33 
33 33 255 33 33 33 33 255 33 33 33 33 255 33 33 33 
33 255 33 33 33 33 255 33 33 33 33 255 33 33 33 33 
255 33 33 33 33 255 33 33 33 33 255 33 33 33 33 255 
33 33 33 33 255 33 33 33 33 255 33 33 33 33 255 33 
33 33 33 255 33 33 33 33 255 33 33 33 33 255 33 33 
33 33 255 33 33 33 33 255 33 33 33 33 255 33 33 33 
33 255 33 33 33 33 255 33 33 33 33 255 33 33 33 33 
255 33 33 33 33 255 33 33 33 33 255 33 33 33 33 255 
33 33 33 33 162 33 33 33 33 255 33 33 33 33 255 33 
33 33 33 255 33 33 33 33 255 33 33 33 33 255 33 33 
33 33 255 33 33 33 33 255 33 33 33 33 255 33 33 33 
33 255 33 33 33 33 255 33 33 33 33 255 33 33 33 33 
255 33 33 33 33 255 33 33 33 33 255 33 33 33 33 255 
33 33 33 33 255 33 33 255 33 33 33 33 255 33 33 33 33 33 33 33 33 33 255 33 
33 33 33 255 33 33 33 33 255 33 33 33 33 255 33 33 
33 33 255 33 33 33 33 255 33 33 33 33 255 33 33 33 
33 255 33 33 33 33 255 33 33 33 33 255 33 33 33 33 
255 33 33 33 33 255 33 33 33 33 255 33 33 33 33 255 
33 33 33 33 255 33 33 33 33 255 33 33 33 33 255 33 
33 33 33 255 33 33 33 33 255 33 33 33 33 255 33 33 
33 33 255 33 33 33 33 255 33 33 33 33 255 33 33 33 
33 255 33 33 33 33 255 33 33 33 33 255 33 33 33 33 
255 33 33 33 33 255 33 33 33 33 255 33 33 33 33 255 
33 33 33 33 233 33 33 33 33 255 33 33 33 33 255 33 
33 33 33 255 33 33 33 33 255 33 33 33 33 255 33 33 
33 33 255 33 33 33 33 255 33 33 33 33 255 33 33 33 
33 255 33 33 33 33 255 33 33 33 33 255 33 33 33 33 
255 33 33 33 33 255 33 33 33 33 255 33 33 33 33 255 
33 33 33 33 255 33 33 255 33 33 33 33 255 33 33 33 33 33 33 33 33 33 255 33 
33 33 33 255 33 33 33 33 255 33 33 33 33 255 33 33 
33 33 255 33 33 33 33 255 33 33 33 33 255 33 33 33 
33 255 33 33 33 33 255 33 33 33 33 255 33 33 33 33 
255 33 33 33 33 255 33 33 33 33 255 33 33 33 33 255 
33 33 33 33 255 33 33 33 33 255 33 33 33 33 255 33 
33 33 33 255 33 33 33 33 255 33 33 33 33 255 33 33 
33 33 255 33 33 33 33 255 33 33 33 33 255 33 33 33 
33 255 33 33 33 33 255 33 33 33 33 255 33 33 33 33 
255 33 33 33 33 255 33 33 33 33 255 33 33 33 33 255 
33 33 33 33 112 33 33 33 33 255 33 33 33 33 255 33 
33 33 33 255 33 33 33 33 255 33 33 33 33 255 33 33 
33 33 255 33 33 33 33 255 33 33 33 33 255 33 33 33 
33 255 33 33 33 33 255 33 33 33 33 255 33 33 33 33 
255 33 33 33 33 255 33 33 33 33 255 33 33 33 33 255 
33 33 33 33 255 33 33 255 33 33 33 33 255 33 33 33 33 33 33 33 33 33 255 33 
33 33 33 255 33 33 33 33 255 33 33 33 33 255 33 33 
33 33 255 33 33 33 33 255 33 33 33 33 255 33 33 33 
33 255 33 33 33 33 255 33 33 33 33 255 33 33 33 33 
255 33 33 33 33 255 33 33 33 33 255 33 33 33 33 255 
33 33 33 33 255 33 33 33 33 255 33 33 33 33 255 33 
33 33 33 255 33 33 33 33 255 33 33 33 33 255 33 33 
33 33 255 33 33 33 33 255 33 33 33 33 255 33 33 33 
33 255 33 33 33 33 255 33 33 33 33 255 33 33 33 33 
255 33 33 33 33 255 33 33 33 33 255 33 33 33 33 255 
33 33 33 33 131 33 33 33 33 255 33 33 33 33 255 33 
33 33 33 255 33 33 33 33 255 33 33 33 33 255 33 33 
33 33 255 33 33 33 33 255 33 33 33 33 255 33 33 33 
33 255 33 33 33 33 255 33 33 33 33 255 33 33 33 33 
255 33 33 33 33 255 33 33 33 33 255 33 33 33 33 255 
33 33 33 33 255 33 33 255 33 33 33 33 255 33 33 33 33 33 33 33 33 33 255 33 
33 33 33 255 33 33 33 33 255 33 33 33 33 255 33 33 
33 33 255 33 33 33 33 255 33 33 33 33 255 33 33 33 
33 255 33 33 33 33 255 33 33 33 33 255 33 33 33 33 
255 33 33 33 33 255 33 33 33 33 255 33 33 33 33 255 
33 33 33 33 255 33 33 33 33 255 33 33 33 33 255 33 
33 33 33 255 33 33 33 33 255 33 33 33 33 255 33 33 
33 33 255 33 33 33 33 255 33 33 33 33 255 33 33 33 
33 255 33 33 33 33 255 33 33 33 33 255 33 33 33 33 
255 33 33 33 33 255 33 33 33 33 255 33 33 33 33 255 
33 33 33 33 219 33 33 33 33 255 33 33 33 33 255 33 
33 33 33 255 33 33 33 33 255 33 33 33 33 255 33 33 
33 33 255 33 33 33 33 255 33 33 33 33 255 33 33 33 
33 255 33 33 33 33 255 33 33 33 33 255 33 33 33 33 
255 33 33 33 33 255 33 33 33 33 255 33 33 33 33 255 
33 33 33 33 255 33 33 255 33 33 33 33 255 33 33 33 33 33 33 33 33 33 255 33 
33 33 33 255 33 33 33 33 255 33 33 33 33 255 33 33 
33 33 255 33 33 33 33 255 33 33 33 33 255 33 33 33 
33 255 33 33 33 33 255 33 33 33 33 255 33 33 33 33 
255 33 33 33 33 255 33 33 33 33 255 33 33 33 33 255 
33 33 33 33 255 33 33 33 33 255 33 33 33 33 255 33 
33 33 33 255 33 33 33 33 255 33 33 33 33 255 33 33 
33 33 255 33 33 33 33 255 33 33 33 33 255 33 33 33 
33 255 33 33 33 33 255 33 33 33 33 255 33 33 33 33 
255 33 33 33 33 255 33 33 33 33 255 33 33 33 33 255 
33 33 33 33 240 33 33 33 33 255 33 33 33 33 255 33 
33 33 33 255 33 33 33 33 255 33 33 33 33 255 33 33 
33 33 255 33 33 33 33 255 33 33 33 33 255 33 33 33 
33 255 33 33 33 33 255 33 33 33 33 255 33 33 33 33 
255 33 33 33 33 255 33 33 33 33 255 33 33 33 33 255 
33 33 33 33 255 33 33 255 33 33 33 33 255 33 33 33 33 33 33 33 33 33 255 33 
33 33 33 255 33 33 33 33 255 33 33 33 33 255 33 33 
33 33 255 33 33 33 33 255 33 33 33 33 255 33 33 33 
33 255 33 33 33 33 255 33 33 33 33 255 33 33 33 33 
255 33 33 33 33 255 33 33 33 33 255 33 33 33 33 255 
33 33 33 33 255 33 33 33 33 255 33 33 33 33 255 33 
33 33 33 255 33 33 33 33 255 33 33 33 33 255 33 33 
33 33 255 33 33 33 33 255 33 33 33 33 255 33 33 33 
33 255 33 33 33 33 255 33 33 33 33 255 33 33 33 33 
255 33 33 33 33 255 33 33 33 33 255 33 33 33 33 255 
33 33 33 33 247 33 33 33 33 255 33 33 33 33 255 33 
33 33 33 255 33 33 33 33 255 33 33 33 33 255 33 33 
33 33 255 33 33 33 33 255 33 33 33 33 255 33 33 33 
33 255 33 33 33 33 255 33 33 33 33 255 33 33 33 33 
255 33 33 33 33 255 33 33 33 33 255 33 33 33 33 255 
33 33 33 33 255 33 33 255 33 33 33 33 255 33 33 33 33 33 33 33 33 33 255 33 
33 33 33 255 33 33 33 33 255 33 33 33 33 255 33 33 
33 33 255 33 33 33 33 255 33 33 33 33 255 33 33 33 
33 255 33 33 33 33 255 33 33 33 33 255 33 33 33 33 
255 33 33 33 33 255 33 33 33 33 255 33 33 33 33 255 
33 33 33 33 255 33 33 33 33 255 33 33 33 33 255 33 
33 33 33 255 33 33 33 33 255 33 33 33 33 255 33 33 
33 33 255 33 33 33 33 255 33 33 33 33 255 33 33 33 
33 255 33 33 33 33 255 33 33 33 33 255 33 33 33 33 
255 33 33 33 33 255 33 33 33 33 255 33 33 33 33 255 
33 33 33 33 134 33 33 33 33 255 33 33 33 33 255 33 
33 33 33 255 33 33 33 33 255 33 33 33 33 255 33 33 
33 33 255 33 33 33 33 255 33 33 33 33 255 33 33 33 
33 255 33 33 33 33 255 33 33 33 33 255 33 33 33 33 
255 33 33 33 33 255 33 33 33 33 255 33 33 33 33 255 
33 33 33 33 255 33 33 255 33 33 33 33 255 33 33 33 33 33 33 33 33 33 255 33 
33 33 33 255 33 33 33 33 255 33 33 33 33 255 33 33 
33 33 255 33 33 33 33 255 33 33 33 33 255 33 33 33 
33 255 33 33 33 33 255 33 33 33 33 255 33 33 33 33 
255 33 33 33 33 255 33 33 33 33 255 33 33 33 33 255 
33 33 33 33 255 33 33 33 33 255 33 33 33 33 255 33 
33 33 33 255 33 33 33 33 255 33 33 33 33 255 33 33 
33 33 255 33 33 33 33 255 33 33 33 33 255 33 33 33 
33 255 33 33 33 33 255 33 33 33 33 255 33 33 33 33 
255 33 33 33 33 255 33 33 33 33 255 33 33 33 33 255 
33 33 33 33 112 33 33 33 33 255 33 33 33 33 255 33 
33 33 33 255 33 33 33 33 255 33 33 33 33 255 33 33 
33 33 255 33 33 33 33 255 33 33 33 33 255 33 33 33 
33 255 33 33 33 33 255 33 33 33 33 255 33 33 33 33 
255 33 33 33 33 255 33 33 33 33 255 33 33 33 33 255 
33 33 33 33 255 33 33 255 33 33 33 33 255 33 33 33 33 33 33 33 33 33 255 33 
33 33 33 255 33 33 33 33 255 33 33 33 33 255 33 33 
33 33 255 33 33 33 33 255 33 33 33 33 255 33 33 33 
33 255 33 33 33 33 255 33 33 33 33 255 33 33 33 33 
255 33 33 33 33 255 33 33 33 33 255 33 33 33 33 255 
33 33 33 33 255 33 33 33 33 255 33 33 33 33 255 33 
33 33 33 255 33 33 33 33 255 33 33 33 33 255 33 33 
33 33 255 33 33 33 33 255 33 33 33 33 255 33 33 33 
33 255 33 33 33 33 255 33 33 33 33 255 33 33 33 33 
255 33 33 33 33 255 33 33 33 33 255 33 33 33 33 255 
33 33 33 33 184 33 33 33 33 255 33 33 33 33 255 33 
33 33 33 255 33 33 33 33 255 33 33 33 33 255 33 33 
33 33 255 33 33 33 33 255 33 33 33 33 255 33 33 33 
33 255 33 33 33 33 255 33 33 33 33 255 33 33 33 33 
255 33 33 33 33 255 33 33 33 33 255 33 33 33 33 255 
33 33 33 33 255 33 33 255 33 33 33 33 255 33 33 33 33 33 33 33 33 33 255 33 
33 33 33 255 33 33 33 33 255 33 33 33 33 255 33 33 
33 33 255 33 33 33 33 255 33 33 33 33 255 33 33 33 
33 255 33 33 33 33 255 33 33 33 33 255 33 33 33 33 
255 33 33 33 33 255 33 33 33 33 255 33 33 33 33 255 
33 33 33 33 255 33 33 33 33 255 33 33 33 33 255 33 
33 33 33 255 33 33 33 33 255 33 33 33 33 255 33 33 
33 33 255 33 33 33 33 255 33 33 33 33 255 33 33 33 
33 255 33 33 33 33 255 33 33 33 33 255 33 33 33 33 
255 33 33 33 33 255 33 33 33 33 255 33 33 33 33 255 
33 33 33 33 170 33 33 33 33 255 33 33 33 33 255 33 
33 33 33 255 33 33 33 33 255 33 33 33 33 255 33 33 
33 33 255 33 33 33 33 255 33 33 33 33 255 33 33 33 
33 255 33 33 33 33 255 33 33 33 33 255 33 33 33 33 
255 33 33 33 33 255 33 33 33 33 255 33 33 33 33 255 
33 33 33 33 255 33 33 255 33 33 33 33 255 33 33 33 33 33 33 33 33 33 255 33 
33 33 33 255 33 33 33 33 255 33 33 33 33 255 33 33 
33 33 255 33 33 33 33 255 33 33 33 33 255 33 33 33 
33 255 33 33 33 33 255 33 33 33 33 255 33 33 33 33 
255 33 33 33 33 255 33 33 33 33 255 33 33 33 33 255 
33 33 33 33 255 33 33 33 33 255 33 33 33 33 255 33 
33 33 33 255 33 33 33 33 255 33 33 33 33 255 33 33 
33 33 255 33 33 33 33 255 33 33 33 33 255 33 33 33 
33 255 33 33 33 33 255 33 33 33 33 255 33 33 33 33 
255 33 33 33 33 255 33 33 33 33 255 33 33 33 33 255 
33 33 33 33 198 33 33 33 33 255 33 33 33 33 255 33 
33 33 33 255 33 33 33 33 255 33 33 33 33 255 33 33 
33 33 255 33 33 33 33 255 33 33 33 33 255 33 33 33 
33 255 33 33 33 33 255 33 33 33 33 255 33 33 33 33 
255 33 33 33 33 255 33 33 33 33 255 33 33 33 33 255 
33 33 33 33 255 33 33 255 33 33 33 33 255 33 33 33 33 33 33 33 33 33 255 33 
33 33 33 255 33 33 33 33 255 33 33 33 33 255 33 33 
33 33 255 33 33 33 33 255 33 33 33 33 255 33 33 33 
33 255 33 33 33 33 255 33 33 33 33 255 33 33 33 33 
255 33 33 33 33 255 33 33 33 33 255 33 33 33 33 255 
33 33 33 33 255 33 33 33 33 255 33 33 33 33 255 33 
33 33 33 255 33 33 33 33 255 33 33 33 33 255 33 33 
33 33 255 33 33 33 33 255 33 33 33 33 255 33 33 33 
33 255 33 33 33 33 255 33 33 33 33 255 33 33 33 33 
255 33 33 33 33 255 33 33 33 33 255 33 33 33 33 255 
33 33 33 33 162 33 33 33 33 255 33 33 33 33 255 33 
33 33 33 255 33 33 33 33 255 33 33 33 33 255 33 33 
33 33 255 33 33 33 33 255 33 33 33 33 255 33 33 33 
33 255 33 33 33 33 255 33 33 33 33 255 33 33 33 33 
255 33 33 33 33 255 33 33 33 33 255 33 33 33 33 255 
33 33 33 33 255 33 33 255 33 33 33 33 255 33 33 33 33 33 33 33 33 33 255 33 
33 33 33 255 33 33 33 33 255 33 33 33 33 255 33 33 
33 33 255 33 33 33 33 255 33 33 33 33 255 33 33 33 
33 255 33 33 33 33 255 33 33 33 33 255 33 33 33 33 
255 33 33 33 33 255 33 33 33 33 255 33 33 33 33 255 
33 33 33 33 255 33 33 33 33 255 33 33 33 33 255 33 
33 33 33 255 33 33 33 33 255 33 33 33 33 255 33 33 
33 33 255 33 33 33 33 255 33 33 33 33 255 33 33 33 
33 255 33 33 33 33 255 33 33 33 33 255 33 33 33 33 
255 33 33 33 33 255 33 33 33 33 255 33 33 33 33 255 
33 33 33 33 177 33 33 33 33 255 33 33 33 33 255 33 
33 33 33 255 33 33 33 33 255 33 33 33 33 255 33 33 
33 33 255 33 33 33 33 255 33 33 33 33 255 33 33 33 
33 255 33 33 33 33 255 33 33 33 33 255 33 33 33 33 
255 33 33 33 33 255 33 33 33 33 255 33 33 33 33 255 
33 33 33 33 255 33 33 255 33 33 33 33 255 33 33 33 33 33 33 33 33 33 255 33 
33 33 33 255 33 33 33 33 255 33 33 33 33 255 33 33 
33 33 255 33 33 33 33 255 33 33 33 33 255 33 33 33 
33 255 33 33 33 33 255 33 33 33 33 255 33 33 33 33 
255 33 33 33 33 255 33 33 33 33 255 33 33 33 33 255 
33 33 33 33 255 33 33 33 33 255 33 33 33 33 255 33 
33 33 33 255 33 33 33 33 255 33 33 33 33 255 33 33 
33 33 255 33 33 33 33 255 33 33 33 33 255 33 33 33 
33 255 33 33 33 33 255 33 33 33 33 255 33 33 33 33 
255 33 33 33 33 255 33 33 33 33 255 33 33 33 33 255 
33 33 33 33 184 33 33 33 33 255 33 33 33 33 255 33 
33 33 33 255 33 33 33 33 255 33 33 33 33 255 33 33 
33 33 255 33 33 33 33 255 33 33 33 33 255 33 33 33 
33 255 33 33 33 33 255 33 33 33 33 255 33 33 33 33 
255 33 33 33 33 255 33 33 33 33 255 33 33 33 33 255 
33 33 33 33 255 33 33 255 33 33 33 33 255 33 33 33 33 33 33 33 33 33 255 33 
33 33 33 255 33 33 33 33 255 33 33 33 33 255 33 33 
33 33 255 33 33 33 33 255 33 33 33 33 255 33 33 33 
33 255 33 33 33 33 255 33 33 33 33 255 33 33 33 33 
255 33 33 33 33 255 33 33 33 33 255 33 33 33 33 255 
33 33 33 33 255 33 33 33 33 255 33 33 33 33 255 33 
33 33 33 255 33 33 33 33 255 33 33 33 33 255 33 33 
33 33 255 33 33 33 33 255 33 33 33 33 255 33 33 33 
33 255 33 33 33 33 255 33 33 33 33 255 33 33 33 33 
255 33 33 33 33 255 33 33 33 33 255 33 33 33 33 255 
33 33 33 33 134 33 33 33 33 255 33 33 33 33 255 33 
33 33 33 255 33 33 33 33 255 33 33 33 33 255 33 33 
33 33 255 33 33 33 33 255 33 33 33 33 255 33 33 33 
33 255 33 33 33 33 255 33 33 33 33 255 33 33 33 33 
255 33 33 33 33 255 33 33 33 33 255 33 33 33 33 255 
33 33 33 33 255 33 33 255 33 33 33 33 255 33 33 33 33 33 33 33 33 33 255 33 
33 33 33 255 33 33 33 33 255 33 33 33 33 255 33 33 
33 33 255 33 33 33 33 255 33 33 33 33 255 33 33 33 
33 255 33 33 33 33 255 33 33 33 33 255 33 33 33 33 
255 33 33 33 33 255 33 33 33 33 255 33 33 33 33 255 
33 33 33 33 255 33 33 33 33 255 33 33 33 33 255 33 
33 33 33 255 33 33 33 33 255 33 33 33 33 255 33 33 
33 33 255 33 33 33 33 255 33 33 33 33 255 33 33 33 
33 255 33 33 33 33 255 33 33 33 33 255 33 33 33 33 
255 33 33 33 33 255 33 33 33 33 255 33 33 33 33 255 
33 33 33 33 162 33 33 33 33 255 33 33 33 33 255 33 
33 33 33 255 33 33 33 33 255 33 33 33 33 255 33 33 
33 33 255 33 33 33 33 255 33 33 33 33 255 33 33 33 
33 255 33 33 33 33 255 33 33 33 33 255 33 33 33 33 
255 33 33 33 33 255 33 33 33 33 255 33 33 33 33 255 
33 33 33 33 255 33 33 255 33 33 33 33 255 33 33 33 33 33 33 33 33 33 255 33 
33 33 33 255 33 33 33 33 255 33 33 33 33 255 33 33 
33 33 255 33 33 33 33 255 33 33 33 33 255 33 33 33 
33 255 33 33 33 33 255 33 33 33 33 255 33 33 33 33 
255 33 33 33 33 255 33 33 33 33 255 33 33 33 33 255 
33 33 33 33 255 33 33 33 33 255 33 33 33 33 255 33 
33 33 33 255 33 33 33 33 255 33 33 33 33 255 33 33 
33 33 255 33 33 33 33 255 33 33 33 33 255 33 33 33 
33 255 33 33 33 33 255 33 33 33 33 255 33 33 33 33 
255 33 33 33 33 255 33 33 33 33 255 33 33 33 33 255 
33 33 33 33 247 33 33 33 33 255 33 33 33 33 255 33 
33 33 33 255 33 33 33 33 255 33 33 33 33 255 33 33 
33 33 255 33 33 33 33 255 33 33 33 33 255 33 33 33 
33 255 33 33 33 33 255 33 33 33 33 255 33 33 33 33 
255 33 33 33 33 255 33 33 33 33 255 33 33 33 33 255 
33 33 33 33 255 33 33 255 33 33 33 33 255 33 33 33 33 33 33 33 33 33 255 33 
33 33 33 255 33 33 33 33 255 33 33 33 33 255 33 33 
33 33 255 33 33 33 33 255 33 33 33 33 255 33 33 33 
33 255 33 33 33 33 255 33 33 33 33 255 33 33 33 33 
255 33 33 33 33 255 33 33 33 33 255 33 33 33 33 255 
33 33 33 33 255 33 33 33 33 255 33 33 33 33 255 33 
33 33 33 255 33 33 33 33 255 33 33 33 33 255 33 33 
33 33 255 33 33 33 33 255 33 33 33 33 255 33 33 33 
33 255 33 33 33 33 255 33 33 33 33 255 33 33 33 33 
255 33 33 33 33 255 33 33 33 33 255 33 33 33 33 255 
33 33 33 33 134 33 33 33 33 255 33 33 33 33 255 33 
33 33 33 255 33 33 33 33 255 33 33 33 33 255 33 33 
33 33 255 33 33 33 33 255 33 33 33 33 255 33 33 33 
33 255 33 33 33 33 255 33 33 33 33 255 33 33 33 33 
255 33 33 33 33 255 33 33 33 33 255 33 33 33 33 255 
33 33 33 33 255 33 33 255 33 33 33 33 255 33 33 33 33 33 33 33 33 33 255 33 
33 33 33 255 33 33 33 33 255 33 33 33 33 255 33 33 
33 33 255 33 33 33 33 255 33 33 33 33 255 33 33 33 
33 255 33 33 33 33 255 33 33 33 33 255 33 33 33 33 
255 33 33 33 33 255 33 33 33 33 255 33 33 33 33 255 
33 33 33 33 255 33 33 33 33 255 33 33 33 33 255 33 
33 33 33 255 33 33 33 33 255 33 33 33 33 255 33 33 
33 33 255 33 33 33 33 255 33 33 33 33 255 33 33 33 
33 255 33 33 33 33 255 33 33 33 33 255 33 33 33 33 
255 33 33 33 33 255 33 33 33 33 255 33 33 33 33 255 
33 33 33 33 226 33 33 33 33 255 33 33 33 33 255 33 
33 33 33 255 33 33 33 33 255 33 33 33 33 255 33 33 
33 33 255 33 33 33 33 255 33 33 33 33 255 33 33 33 
33 255 33 33 33 33 255 33 33 33 33 255 33 33 33 33 
255 33 33 33 33 255 33 33 33 33 255 33 33 33 33 255 
33 33 33 33 255 33 33 255 33 33 33 33 255 33 33 33 33 33 33 33 33 33 255 33 
33 33 33 255 33 33 33 33 255 33 33 33 33 255 33 33 
33 33 255 33 33 33 33 255 33 33 33 33 255 33 33 33 
33 255 33 33 33 33 255 33 33 33 33 255 33 33 33 33 
255 33 33 33 33 255 33 33 33 33 255 33 33 33 33 255 
33 33 33 33 255 33 33 33 33 255 33 33 33 33 255 33 
33 33 33 255 33 33 33 33 255 33 33 33 33 255 33 33 
33 33 255 33 33 33 33 255 33 33 33 33 255 33 33 33 
33 255 33 33 33 33 255 33 33 33 33 255 33 33 33 33 
255 33 33 33 33 255 33 33 33 33 255 33 33 33 33 255 
33 33 33 33 247 33 33 33 33 255 33 33 33 33 255 33 
33 33 33 255 33 33 33 33 255 33 33 33 33 255 33 33 
33 33 255 33 33 33 33 255 33 33 33 33 255 33 33 33 
33 255 33 33 33 33 255 33 33 33 33 255 33 33 33 33 
255 33 33 33 33 255 33 33 33 33 255 33 33 33 33 255 
33 33 33 33 255 33 33 255 33 33 33 33 255 33 33 33 33 33 33 33 33 33 255 33 
33 33 33 255 33 33 33 33 255 33 33 33 33 255 33 33 
33 33 255 33 33 33 33 255 33 33 33 33 255 33 33 33 
33 255 33 33 33 33 255 33 33 33 33 255 33 33 33 33 
255 33 33 33 33 255 33 33 33 33 255 33 33 33 33 255 
33 33 33 33 255 33 33 33 33 255 33 33 33 33 255 33 
33 33 33 255 33 33 33 33 255 33 33 33 33 255 33 33 
33 33 255 33 33 33 33 255 33 33 33 33 255 33 33 33 
33 255 33 33 33 33 255 33 33 33 33 255 33 33 33 33 
255 33 33 33 33 255 33 33 33 33 255 33 33 33 33 255 
33 33 33 33 205 33 33 33 33 255 33 33 33 33 255 33 
33 33 33 255 33 33 33 33 255 33 33 33 33 255 33 33 
33 33 255 33 33 33 33 255 33 33 33 33 255 33 33 33 
33 255 33 33 33 33 255 33 33 33 33 255 33 33 33 33 
255 33 33 33 33 255 33 33 33 33 255 33 33 33 33 255 
33 33 33 33 255 33 33 255 33 33 33 33 255 33 33 33 33 33 33 33 33 33 255 33 
33 33 33 255 33 33 33 33 255 33 33 33 33 255 33 33 
33 33 255 33 33 33 33 255 33 33 33 33 255 33 33 33 
33 255 33 33 33 33 255 33 33 33 33 255 33 33 33 33 
255 33 33 33 33 255 33 33 33 33 255 33 33 33 33 255 
33 33 33 33 255 33 33 33 33 255 33 33 33 33 255 33 
33 33 33 255 33 33 33 33 255 33 33 33 33 255 33 33 
33 33 255 33 33 33 33 255 33 33 33 33 255 33 33 33 
33 255 33 33 33 33 255 33 33 33 33 255 33 33 33 33 
255 33 33 33 33 255 33 33 33 33 255 33 33 33 33 255 
33 33 33 33 226 33 33 33 33 255 33 33 33 33 255 33 
33 33 33 255 33 33 33 33 255 33 33 33 33 255 33 33 
33 33 255 33 33 33 33 255 33 33 33 33 255 33 33 33 
33 255 33 33 33 33 255 33 33 33 33 255 33 33 33 33 
255 33 33 33 33 255 33 33 33 33 255 33 33 33 33 255 
33 33 33 33 255 33 33 255 33 33 33 33 255 33 33 33 33 33 33 33 33 33 255 33 
33 33 33 255 33 33 33 33 255 33 33 33 33 255 33 33 
33 33 255 33 33 33 33 255 33 33 33 33 255 33 33 33 
33 255 33 33 33 33 255 33 33 33 33 255 33 33 33 33 
255 33 33 33 33 255 33 33 33 33 255 33 33 33 33 255 
33 33 33 33 255 33 33 33 33 255 33 33 33 33 255 33 
33 33 33 255 33 33 33 33 255 33 33 33 33 255 33 33 
33 33 255 33 33 33 33 255 33 33 33 33 255 33 33 33 
33 255 33 33 33 33 255 33 33 33 33 255 33 33 33 33 
255 33 33 33 33 255 33 33 33 33 255 33 33 33 33 255 
33 33 33 33 184 33 33 33 33 255 33 33 33 33 255 33 
33 33 33 255 33 33 33 33 255 33 33 33 33 255 33 33 
33 33 255 33 33 33 33 255 33 33 33 33 255 33 33 33 
33 255 33 33 33 33 255 33 33 33 33 255 33 33 33 33 
255 33 33 33 33 255 33 33 33 33 255 33 33 33 33 255 
33 33 33 33 255 33 33 255 33 33 33 33 255 33 33 33 33 33 33 33 33 33 255 33 
33 33 33 255 33 33 33 33 255 33 33 33 33 255 33 33 
33 33 255 33 33 33 33 255 33 33 33 33 255 33 33 33 
33 255 33 33 33 33 255 33 33 33 33 255 33 33 33 33 
255 33 33 33 33 255 33 33 33 33 255 33 33 33 33 255 
33 33 33 33 255 33 33 33 33 255 33 33 33 33 255 33 
33 33 33 255 33 33 33 33 255 33 33 33 33 255 33 33 
33 33 255 33 33 33 33 255 33 33 33 33 255 33 33 33 
33 255 33 33 33 33 255 33 33 33 33 255 33 33 33 33 
255 33 33 33 33 255 33 33 33 33 255 33 33 33 33 255 
33 33 33 33 205 33 33 33 33 255 33 33 33 33 255 33 
33 33 33 255 33 33 33 33 255 33 33 33 33 255 33 33 
33 33 255 33 33 33 33 255 33 33 33 33 255 33 33 33 
33 255 33 33 33 33 255 33 33 33 33 255 33 33 33 33 
255 33 33 33 33 255 33 33 33 33 255 33 33 33 33 255 
33 33 33 33 255 33 33 255 33 33 33 33 255 33 33 33 33 33 33 33 33 33 255 33 
33 33 33 255 33 33 33 33 255 33 33 33 33 255 33 33 
33 33 255 33 33 33 33 255 33 33 33 33 255 33 33 33 
33 255 33 33 33 33 255 33 33 33 33 255 33 33 33 33 
255 33 33 33 33 255 33 33 33 33 255 33 33 33 33 255 
33 33 33 33 255 33 33 33 33 255 33 33 33 33 255 33 
33 33 33 255 33 33 33 33 255 33 33 33 33 255 33 33 
33 33 255 33 33 33 33 255 33 33 33 33 255 33 33 33 
33 255 33 33 33 33 255 33 33 33 33 255 33 33 33 33 
255 33 33 33 33 255 33 33 33 33 255 33 33 33 33 255 
33 33 33 33 226 33 33 33 33 255 33 33 33 33 255 33 
33 33 33 255 33 33 33 33 255 33 33 33 33 255 33 33 
33 33 255 33 33 33 33 255 33 33 33 33 255 33 33 33 
33 255 33 33 33 33 255 33 33 33 33 255 33 33 33 33 
255 33 33 33 33 255 33 33 33 33 255 33 33 33 33 255 
33 33 33 33 255 33 33 255 33 33 33 33 255 33 33 33 33 33 33 33 33 33 255 33 
33 33 33 255 33 33 33 33 255 33 33 33 33 255 33 33 
33 33 255 33 33 33 33 255 33 33 33 33 255 33 33 33 
33 255 33 33 33 33 255 33 33 33 33 255 33 33 33 33 
255 33 33 33 33 255 33 33 33 33 255 33 33 33 33 255 
33 33 33 33 255 33 33 33 33 255 33 33 33 33 255 33 
33 33 33 255 33 33 33 33 255 33 33 33 33 255 33 33 
33 33 255 33 33 33 33 255 33 33 33 33 255 33 33 33 
33 255 33 33 33 33 255 33 33 33 33 255 33 33 33 33 
255 33 33 33 33 255 33 33 33 33 255 33 33 33 33 255 
33 33 33 33 255 33 33 33 33 255 33 33 33 33 255 33 
33 33 33 255 33 33 33 33 255 33 33 33 33 255 33 33 
33 33 255 33 33 33 33 255 33 33 33 33 255 33 33 33 
33 255 33 33 33 33 255 33 33 33 33 255 33 33 33 33 
255 33 33 33 33 255 33 33 33 33 255 33 33 33 33 255 
33 33 33 33 255 33 33 255 255 255 255 255 255 255 255 255 255 255 255 255 255 255 255 255 
255 255 255 255 255 255 255 255 255 255 255 255 255 255 255 255 
255 255 255 255 255 255 255 255 255 255 255 255 255 255 255 255 
255 255 255 255 255 255 255 255 255 255 255 255 255 255 255 255 
255 255 255 255 255 255 255 255 255 255 255 255 255 255 255 255 
255 255 255 255 255 255 255 255 255 255 255 255 255 255 255 255 
255 255 255 255 255 255 255 255 255 255 255 255 255 255 255 255 
255 255 255 255 255 255 255 255 255 255 255 255 255 255 255 255 
255 255 255 255 255 255 255 255 255 255 255 255 255 255 255 255 
255 255 255 255 255 255 255 255 255 255 255 255 255 255 255 255 
255 255 255 255 255 255 255 255 255 255 255 255 255 255 255 255 
255 255 255 255 255 255 255 255 255 255 255 255 255 255 255 255 
255 255 255 255 255 255 255 255 255 255 255 255 255 255 255 255 
255 255 255 255 255 255 255 255 255 255 255 255 255 255 255 255 
255 255 255 255 255 255 255 255 255 255 255 255 255 255 255 255 
255 255 255 255 255 255 255 